; generated by Slic3r 1.0.0RC3 on 2014-04-17 at 20:42:41

; layer_height = 0.25
; perimeters = 3
; top_solid_layers = 3
; bottom_solid_layers = 3
; fill_density = 0.4
; perimeter_speed = 50
; infill_speed = 60
; travel_speed = 130
; nozzle_diameter = 0.35
; filament_diameter = 1.75
; extrusion_multiplier = 1
; perimeters extrusion width = 0.35mm
; infill extrusion width = 0.39mm
; solid infill extrusion width = 0.39mm
; top infill extrusion width = 0.39mm
; support material extrusion width = 0.35mm
; first layer extrusion width = 0.70mm

G21 ; set units to millimeters
M107
M190 S100 ; wait for bed temperature to be reached
M104 S235 ; set temperature
G28 ; home all axes
G1 Z5 F5000 ; lift nozzle
M109 S235 ; wait for temperature to be reached
G90 ; use absolute coordinates
G92 E0
M82 ; use absolute distances for extrusion
G1 F1800.000 E-1.00000
G92 E0
G1 Z0.350 F7800.000
G1 X66.421 Y92.300 F7800.000
G1 E1.00000 F1800.000
G1 X67.961 Y91.590 E1.15420 F900.000
G1 X71.921 Y90.340 E1.53179
G1 X72.501 Y90.190 E1.58627
G1 X73.101 Y90.080 E1.64173
G1 X90.571 Y87.940 E3.24215
G1 X91.521 Y87.880 E3.32870
G1 X92.701 Y87.900 E3.43601
G1 X93.421 Y87.970 E3.50179
G1 X93.961 Y88.050 E3.55143
G1 X94.601 Y88.170 E3.61064
G1 X95.121 Y88.300 E3.65938
G1 X96.221 Y88.660 E3.76462
G1 X96.831 Y88.910 E3.82457
G1 X97.321 Y89.140 E3.87378
G1 X97.951 Y89.480 E3.93888
G1 X98.411 Y89.760 E3.98785
G1 X98.931 Y90.110 E4.04484
G1 X99.361 Y90.430 E4.09358
G1 X99.901 Y90.880 E4.15750
G1 X100.301 Y91.250 E4.20705
G1 X101.031 Y92.010 E4.30287
G1 X101.481 Y92.550 E4.36678
G1 X101.801 Y92.980 E4.41552
G1 X102.151 Y93.500 E4.47252
G1 X102.431 Y93.960 E4.52149
G1 X102.771 Y94.590 E4.58658
G1 X103.001 Y95.080 E4.63580
G1 X103.251 Y95.690 E4.69575
G1 X103.431 Y96.200 E4.74492
G1 X103.611 Y96.790 E4.80101
G1 X103.741 Y97.310 E4.84975
G1 X103.941 Y98.490 E4.95858
G1 X104.031 Y99.620 E5.06165
G1 X104.031 Y100.360 E5.12894
G1 X104.001 Y100.900 E5.17812
G1 X103.941 Y101.500 E5.23295
G1 X103.861 Y102.040 E5.28259
G1 X103.741 Y102.680 E5.34180
G1 X103.611 Y103.200 E5.39054
G1 X103.251 Y104.300 E5.49578
G1 X103.001 Y104.910 E5.55572
G1 X102.771 Y105.400 E5.60494
G1 X102.431 Y106.030 E5.67004
G1 X102.151 Y106.490 E5.71901
G1 X101.801 Y107.010 E5.77600
G1 X101.481 Y107.440 E5.82474
G1 X101.031 Y107.980 E5.88866
G1 X100.301 Y108.740 E5.98448
G1 X99.901 Y109.110 E6.03402
G1 X99.361 Y109.560 E6.09794
G1 X98.931 Y109.880 E6.14668
G1 X98.411 Y110.230 E6.20368
G1 X97.951 Y110.510 E6.25264
G1 X97.321 Y110.850 E6.31774
G1 X96.831 Y111.080 E6.36696
G1 X96.221 Y111.330 E6.42690
G1 X95.121 Y111.690 E6.53215
G1 X94.601 Y111.820 E6.58088
G1 X93.421 Y112.020 E6.68971
G1 X92.821 Y112.080 E6.74454
G1 X92.281 Y112.110 E6.79372
G1 X91.541 Y112.110 E6.86101
G1 X91.011 Y112.080 E6.90928
G1 X74.701 Y110.760 E8.39719
G1 X73.661 Y110.590 E8.49301
G1 X72.661 Y110.260 E8.58876
G1 X66.751 Y107.760 E9.17226
G1 X65.451 Y107.030 E9.30783
G1 X64.341 Y106.020 E9.44429
G1 X63.491 Y104.790 E9.58024
G1 X62.821 Y103.540 E9.70920
G1 X62.321 Y102.340 E9.82741
G1 X62.071 Y101.070 E9.94511
G1 X62.071 Y99.780 E10.06241
G1 X62.191 Y98.530 E10.17659
G1 X62.481 Y97.110 E10.30838
G1 X63.081 Y95.790 E10.44022
G1 X63.941 Y94.630 E10.57152
G1 X65.111 Y93.380 E10.72721
G1 X66.349 Y92.360 E10.87306
G1 F1800.000 E9.87306
G92 E0
G1 X68.678 Y95.701 F7800.000
G1 E1.00000 F1800.000
G1 X69.221 Y95.467 E1.05379 F900.000
G1 X69.659 Y95.376 E1.09444
G1 X71.538 Y95.376 E1.26531
G1 X71.790 Y95.258 E1.29063
G1 X72.174 Y94.796 E1.34528
G1 X72.555 Y94.502 E1.38906
G1 X73.132 Y94.231 E1.44701
G1 X73.602 Y94.127 E1.49078
G1 X80.780 Y94.127 E2.14344
G1 X81.854 Y94.809 E2.25915
G1 X82.028 Y95.181 E2.29652
G1 X82.335 Y95.376 E2.32958
G1 X85.144 Y95.376 E2.58496
G1 X85.204 Y95.436 E2.59269
G1 X85.775 Y95.394 E2.64474
G1 X86.013 Y95.082 E2.68047
G1 X86.447 Y94.602 E2.73931
G1 X87.086 Y94.024 E2.81766
G1 X87.695 Y93.579 E2.88625
G1 X88.250 Y93.246 E2.94510
G1 X89.029 Y92.877 E3.02346
G1 X89.638 Y92.659 E3.08230
G1 X90.369 Y92.471 E3.15088
G1 X91.212 Y92.345 E3.22846
G1 X91.988 Y92.314 E3.29905
G1 X92.728 Y92.355 E3.36643
G1 X93.368 Y92.450 E3.42527
G1 X94.101 Y92.628 E3.49386
G1 X94.813 Y92.877 E3.56245
G1 X95.497 Y93.195 E3.63106
G1 X96.147 Y93.579 E3.69966
G1 X96.756 Y94.024 E3.76825
G1 X97.319 Y94.526 E3.83684
G1 X97.829 Y95.082 E3.90545
G1 X98.283 Y95.685 E3.97404
G1 X98.675 Y96.329 E4.04264
G1 X99.002 Y97.009 E4.11123
G1 X99.262 Y97.717 E4.17984
G1 X99.450 Y98.448 E4.24843
G1 X99.566 Y99.193 E4.31702
G1 X99.608 Y99.946 E4.38562
G1 X99.576 Y100.700 E4.45422
G1 X99.471 Y101.447 E4.52282
G1 X99.262 Y102.283 E4.60116
G1 X99.044 Y102.892 E4.66000
G1 X98.726 Y103.576 E4.72861
G1 X98.283 Y104.315 E4.80695
G1 X97.829 Y104.918 E4.87554
G1 X97.395 Y105.398 E4.93439
G1 X96.756 Y105.976 E5.01274
G1 X96.147 Y106.421 E5.08133
G1 X95.592 Y106.754 E5.14018
G1 X94.813 Y107.123 E5.21853
G1 X94.101 Y107.372 E5.28712
G1 X93.473 Y107.529 E5.34596
G1 X92.621 Y107.655 E5.42431
G1 X91.975 Y107.687 E5.48315
G1 X91.221 Y107.655 E5.55176
G1 X90.369 Y107.529 E5.63010
G1 X89.638 Y107.341 E5.69869
G1 X89.029 Y107.123 E5.75753
G1 X88.250 Y106.754 E5.83589
G1 X87.606 Y106.362 E5.90449
G1 X87.086 Y105.976 E5.96333
G1 X86.447 Y105.398 E6.04168
G1 X86.013 Y104.918 E6.10052
G1 X85.573 Y104.333 E6.16708
G1 X85.307 Y104.200 E6.19407
G1 X82.803 Y104.200 E6.42181
G1 X82.566 Y104.302 E6.44527
G1 X82.031 Y104.869 E6.51616
G1 X81.665 Y105.125 E6.55678
G1 X81.285 Y105.289 E6.59443
G1 X81.187 Y105.356 E6.60521
G1 X79.843 Y106.699 E6.77800
G1 X75.025 Y106.699 E7.21612
G1 X74.695 Y106.649 E7.24646
G1 X74.274 Y106.517 E7.28656
G1 X73.975 Y106.369 E7.31690
G1 X70.876 Y104.200 E7.66084
G1 X68.936 Y104.200 E7.83731
G1 X68.365 Y104.042 E7.89116
G1 X67.690 Y103.640 E7.96257
G1 X67.281 Y103.212 E8.01642
G1 X66.053 Y100.933 E8.25178
G1 X66.079 Y99.779 E8.35680
G1 X66.108 Y99.730 E8.36196
G1 X66.127 Y99.429 E8.38934
G1 X66.096 Y99.356 E8.39663
G1 X66.323 Y98.066 E8.51570
G1 X68.312 Y95.958 E8.77926
G1 X68.601 Y95.755 E8.81139
G1 X68.984 Y96.250 F7800.000
G1 X69.410 Y96.066 E8.85356 F900.000
G1 X69.722 Y96.001 E8.88259
G1 X71.831 Y96.001 E9.07431
G1 X72.083 Y95.883 E9.09963
G1 X72.611 Y95.249 E9.17467
G1 X72.883 Y95.038 E9.20593
G1 X73.335 Y94.826 E9.25138
G1 X73.671 Y94.751 E9.28265
G1 X80.598 Y94.751 E9.91252
G1 X81.365 Y95.239 E9.99518
G1 X81.631 Y95.806 E10.05213
G1 X81.938 Y96.001 E10.08519
G1 X84.885 Y96.001 E10.35315
G1 X85.283 Y96.400 E10.40441
G1 X85.872 Y96.342 E10.45816
G1 X86.070 Y96.045 E10.49067
G1 X86.486 Y95.490 E10.55369
G1 X86.954 Y94.979 E10.61671
G1 X87.411 Y94.565 E10.67277
G1 X88.029 Y94.107 E10.74275
G1 X88.626 Y93.754 E10.80577
G1 X89.183 Y93.490 E10.86182
G1 X89.908 Y93.231 E10.93181
G1 X90.506 Y93.081 E10.98786
G1 X91.189 Y92.976 E11.05069
G1 X91.969 Y92.938 E11.12173
G1 X92.651 Y92.976 E11.18388
G1 X93.261 Y93.066 E11.23994
G1 X93.934 Y93.231 E11.30295
G1 X94.588 Y93.461 E11.36597
G1 X95.216 Y93.754 E11.42900
G1 X95.813 Y94.107 E11.49202
G1 X96.372 Y94.517 E11.55504
G1 X96.888 Y94.979 E11.61805
G1 X97.356 Y95.490 E11.68108
G1 X97.772 Y96.045 E11.74409
G1 X98.131 Y96.637 E11.80712
G1 X98.431 Y97.262 E11.87013
G1 X98.668 Y97.913 E11.93316
G1 X98.840 Y98.585 E11.99617
G1 X98.945 Y99.270 E12.05919
G1 X98.983 Y99.962 E12.12221
G1 X98.953 Y100.654 E12.18524
G1 X98.855 Y101.340 E12.24825
G1 X98.690 Y102.013 E12.31127
G1 X98.460 Y102.667 E12.37429
G1 X98.131 Y103.363 E12.44428
G1 X97.772 Y103.955 E12.50730
G1 X97.405 Y104.451 E12.56335
G1 X96.888 Y105.021 E12.63334
G1 X96.431 Y105.435 E12.68939
G1 X95.877 Y105.851 E12.75241
G1 X95.216 Y106.246 E12.82239
G1 X94.588 Y106.539 E12.88542
G1 X94.008 Y106.747 E12.94147
G1 X93.261 Y106.934 E13.01145
G1 X92.651 Y107.024 E13.06750
G1 X91.959 Y107.062 E13.13052
G1 X91.191 Y107.024 E13.20051
G1 X90.506 Y106.919 E13.26353
G1 X89.908 Y106.769 E13.31958
G1 X89.183 Y106.510 E13.38957
G1 X88.626 Y106.246 E13.44562
G1 X88.029 Y105.893 E13.50864
G1 X87.411 Y105.435 E13.57862
G1 X86.954 Y105.021 E13.63468
G1 X86.486 Y104.510 E13.69770
G1 X86.070 Y103.955 E13.76072
G1 X85.935 Y103.737 E13.78405
G1 X85.649 Y103.575 E13.81400
G1 X82.533 Y103.575 E14.09727
G1 X82.296 Y103.677 E14.12072
G1 X81.620 Y104.394 E14.21031
G1 X81.359 Y104.577 E14.23933
G1 X80.705 Y104.859 E14.30409
G1 X80.522 Y105.137 E14.33433
G1 X79.584 Y106.075 E14.45495
G1 X75.072 Y106.075 E14.86520
G1 X74.837 Y106.038 E14.88687
G1 X74.507 Y105.935 E14.91831
G1 X74.293 Y105.830 E14.93998
G1 X71.729 Y104.041 E15.22424
G1 X71.650 Y103.808 E15.24660
G1 X71.323 Y103.575 E15.28308
G1 X69.020 Y103.575 E15.49251
G1 X68.612 Y103.463 E15.53098
G1 X68.083 Y103.147 E15.58700
G1 X67.791 Y102.841 E15.62547
G1 X66.681 Y100.782 E15.83813
G1 X66.700 Y99.957 E15.91314
G1 X66.808 Y99.776 E15.93237
G1 X66.828 Y99.475 E15.95975
G1 X66.743 Y99.280 E15.97909
G1 X66.906 Y98.359 E16.06414
G1 X68.722 Y96.433 E16.30489
G1 X68.907 Y96.303 E16.32540
G1 X69.290 Y96.798 F7800.000
G1 X69.599 Y96.665 E16.35597 F900.000
G1 X69.786 Y96.626 E16.37338
G1 X72.124 Y96.626 E16.58593
G1 X72.376 Y96.508 E16.61125
G1 X73.047 Y95.701 E16.70668
G1 X73.210 Y95.575 E16.72544
G1 X73.538 Y95.421 E16.75838
G1 X73.740 Y95.376 E16.77714
G1 X80.416 Y95.376 E17.38424
G1 X80.877 Y95.669 E17.43383
G1 X81.234 Y96.431 E17.51037
G1 X81.541 Y96.626 E17.54343
G1 X84.626 Y96.626 E17.82397
G1 X85.434 Y97.434 E17.92792
G1 X86.073 Y97.324 E17.98688
G1 X86.255 Y96.945 E18.02504
G1 X86.581 Y96.404 E18.08249
G1 X86.960 Y95.898 E18.13993
G1 X87.353 Y95.464 E18.19319
G1 X87.855 Y95.009 E18.25481
G1 X88.326 Y94.660 E18.30808
G1 X88.866 Y94.334 E18.36552
G1 X89.479 Y94.044 E18.42715
G1 X90.074 Y93.833 E18.48459
G1 X90.688 Y93.682 E18.54203
G1 X91.266 Y93.596 E18.59518
G1 X91.783 Y93.566 E18.64225
G1 X92.575 Y93.596 E18.71434
G1 X93.199 Y93.691 E18.77178
G1 X93.812 Y93.847 E18.82922
G1 X94.406 Y94.061 E18.88666
G1 X94.976 Y94.334 E18.94411
G1 X95.517 Y94.660 E19.00155
G1 X96.023 Y95.038 E19.05899
G1 X96.489 Y95.464 E19.11644
G1 X96.912 Y95.934 E19.17388
G1 X97.286 Y96.443 E19.23133
G1 X97.609 Y96.986 E19.28877
G1 X97.877 Y97.558 E19.34621
G1 X98.088 Y98.153 E19.40366
G1 X98.239 Y98.767 E19.46110
G1 X98.330 Y99.392 E19.51854
G1 X98.358 Y100.023 E19.57599
G1 X98.325 Y100.654 E19.63343
G1 X98.239 Y101.233 E19.68669
G1 X98.088 Y101.847 E19.74413
G1 X97.860 Y102.485 E19.80576
G1 X97.587 Y103.055 E19.86320
G1 X97.261 Y103.596 E19.92064
G1 X96.912 Y104.066 E19.97391
G1 X96.489 Y104.536 E20.03135
G1 X95.987 Y104.991 E20.09297
G1 X95.517 Y105.340 E20.14623
G1 X94.976 Y105.666 E20.20368
G1 X94.363 Y105.956 E20.26531
G1 X93.768 Y106.167 E20.32275
G1 X93.199 Y106.309 E20.37601
G1 X92.529 Y106.409 E20.43763
G1 X91.944 Y106.437 E20.49089
G1 X91.313 Y106.409 E20.54834
G1 X90.643 Y106.309 E20.60996
G1 X90.030 Y106.153 E20.66740
G1 X89.436 Y105.939 E20.72484
G1 X88.866 Y105.666 E20.78229
G1 X88.364 Y105.365 E20.83555
G1 X87.855 Y104.991 E20.89300
G1 X87.385 Y104.568 E20.95044
G1 X86.960 Y104.102 E21.00788
G1 X86.581 Y103.596 E21.06533
G1 X86.095 Y102.788 E21.15108
G1 X85.489 Y102.713 E21.20655
G1 X85.252 Y102.950 E21.23703
G1 X82.264 Y102.950 E21.50875
G1 X82.027 Y103.052 E21.53221
G1 X81.210 Y103.918 E21.64050
G1 X81.053 Y104.028 E21.65791
G1 X80.744 Y104.161 E21.68846
G1 X80.557 Y104.200 E21.70587
G1 X80.240 Y104.200 E21.73464
G1 X79.874 Y104.566 E21.78171
G1 X79.874 Y104.901 E21.81214
G1 X79.325 Y105.450 E21.88275
G1 X75.120 Y105.450 E22.26512
G1 X74.979 Y105.428 E22.27813
G1 X74.740 Y105.353 E22.30089
G1 X74.611 Y105.290 E22.31390
G1 X72.254 Y103.646 E22.57521
G1 X72.097 Y103.184 E22.61962
G1 X71.771 Y102.950 E22.65609
G1 X69.105 Y102.950 E22.89850
G1 X68.860 Y102.883 E22.92157
G1 X68.476 Y102.654 E22.96221
G1 X68.301 Y102.470 E22.98529
G1 X67.310 Y100.631 E23.17526
G1 X67.321 Y100.136 E23.22027
G1 X67.508 Y99.822 E23.25356
G1 X67.528 Y99.521 E23.28094
G1 X67.391 Y99.204 E23.31233
G1 X67.489 Y98.652 E23.36336
G1 X69.133 Y96.908 E23.58130
G1 X69.213 Y96.852 E23.59020
G1 X69.596 Y97.346 F7800.000
G1 X69.850 Y97.251 E23.61486 F900.000
G1 X72.417 Y97.251 E23.84825
G1 X72.669 Y97.133 E23.87357
G1 X73.484 Y96.154 E23.98938
G1 X73.538 Y96.112 E23.99564
G1 X73.809 Y96.001 E24.02221
G1 X80.235 Y96.001 E24.60652
G1 X80.388 Y96.099 E24.62305
G1 X80.654 Y96.666 E24.68004
G1 X80.633 Y96.827 E24.69475
G1 X81.007 Y97.251 E24.74614
G1 X81.779 Y97.251 E24.81641
G1 X81.828 Y97.300 E24.82270
G1 X82.223 Y97.366 E24.85906
G1 X82.459 Y97.251 E24.88294
G1 X84.367 Y97.251 E25.05646
G1 X84.550 Y97.434 E25.08000
G1 X84.550 Y98.135 E25.14371
G1 X84.916 Y98.501 E25.19078
G1 X85.260 Y98.501 E25.22202
G1 X85.368 Y98.543 E25.23261
G1 X85.608 Y98.760 E25.26204
G1 X86.256 Y98.598 E25.32281
G1 X86.554 Y97.769 E25.40295
G1 X86.799 Y97.253 E25.45482
G1 X87.092 Y96.764 E25.50668
G1 X87.433 Y96.307 E25.55855
G1 X87.816 Y95.885 E25.61042
G1 X88.240 Y95.502 E25.66228
G1 X88.698 Y95.163 E25.71415
G1 X89.188 Y94.870 E25.76602
G1 X89.690 Y94.633 E25.81649
G1 X90.226 Y94.440 E25.86836
G1 X90.780 Y94.301 E25.92022
G1 X91.343 Y94.216 E25.97205
G1 X91.812 Y94.190 E26.01474
G1 X92.498 Y94.216 E26.07720
G1 X93.063 Y94.301 E26.12907
G1 X93.616 Y94.440 E26.18093
G1 X94.152 Y94.633 E26.23280
G1 X94.668 Y94.878 E26.28467
G1 X95.157 Y95.171 E26.33653
G1 X95.614 Y95.512 E26.38840
G1 X96.037 Y95.895 E26.44027
G1 X96.419 Y96.319 E26.49213
G1 X96.758 Y96.777 E26.54400
G1 X97.051 Y97.267 E26.59587
G1 X97.294 Y97.783 E26.64774
G1 X97.485 Y98.320 E26.69960
G1 X97.623 Y98.874 E26.75147
G1 X97.706 Y99.438 E26.80333
G1 X97.733 Y100.008 E26.85520
G1 X97.705 Y100.577 E26.90707
G1 X97.623 Y101.126 E26.95754
G1 X97.485 Y101.680 E27.00941
G1 X97.288 Y102.231 E27.06267
G1 X97.044 Y102.747 E27.11453
G1 X96.750 Y103.236 E27.16640
G1 X96.409 Y103.693 E27.21827
G1 X96.037 Y104.105 E27.26874
G1 X95.602 Y104.498 E27.32200
G1 X95.144 Y104.837 E27.37387
G1 X94.668 Y105.122 E27.42434
G1 X94.138 Y105.373 E27.47760
G1 X93.601 Y105.564 E27.52947
G1 X93.047 Y105.702 E27.58134
G1 X92.483 Y105.785 E27.63320
G1 X91.929 Y105.812 E27.68368
G1 X91.359 Y105.785 E27.73554
G1 X90.795 Y105.702 E27.78741
G1 X90.241 Y105.564 E27.83928
G1 X89.704 Y105.373 E27.89114
G1 X89.188 Y105.130 E27.94301
G1 X88.698 Y104.837 E27.99488
G1 X88.240 Y104.498 E28.04674
G1 X87.816 Y104.115 E28.09861
G1 X87.433 Y103.693 E28.15048
G1 X87.092 Y103.236 E28.20235
G1 X86.799 Y102.747 E28.25421
G1 X86.554 Y102.231 E28.30608
G1 X86.213 Y101.279 E28.39806
G1 X85.176 Y101.459 E28.49369
G1 X85.176 Y102.142 E28.55582
G1 X84.993 Y102.325 E28.57935
G1 X81.994 Y102.325 E28.85204
G1 X81.758 Y102.427 E28.87550
G1 X80.747 Y103.480 E29.00818
G1 X80.493 Y103.575 E29.03283
G1 X79.615 Y103.575 E29.11262
G1 X79.249 Y103.941 E29.15969
G1 X79.249 Y104.642 E29.22341
G1 X79.066 Y104.825 E29.24694
G1 X75.168 Y104.825 E29.60144
G1 X74.930 Y104.750 E29.62411
G1 X72.780 Y103.250 E29.86248
G1 X72.714 Y103.057 E29.88109
G1 X72.783 Y102.836 E29.90216
G1 X72.409 Y102.325 E29.95972
G1 X69.189 Y102.325 E30.25246
G1 X69.108 Y102.303 E30.26015
G1 X68.869 Y102.160 E30.28540
G1 X68.811 Y102.099 E30.29309
G1 X67.938 Y100.480 E30.46037
G1 X67.942 Y100.315 E30.47537
G1 X68.209 Y99.868 E30.52273
G1 X68.229 Y99.567 E30.55010
G1 X68.039 Y99.128 E30.59356
G1 X68.072 Y98.944 E30.61057
G1 X69.523 Y97.405 E30.80297
G1 F1800.000 E29.80297
G92 E0
G1 X78.321 Y99.599 F7800.000
G1 E1.00000 F1800.000
G1 X78.430 Y99.295 E1.02941 F720.000
G1 X78.549 Y99.083 E1.05148
G1 X78.754 Y98.833 E1.08089
G1 X79.004 Y98.628 E1.11029
G1 X79.290 Y98.476 E1.13971
G1 X79.599 Y98.382 E1.16912
G1 X79.921 Y98.350 E1.19853
G1 X80.243 Y98.382 E1.22794
G1 X80.552 Y98.476 E1.25734
G1 X80.838 Y98.628 E1.28676
G1 X81.088 Y98.833 E1.31617
G1 X81.293 Y99.083 E1.34558
G1 X81.445 Y99.369 E1.37499
G1 X81.539 Y99.678 E1.40440
G1 X81.571 Y100.000 E1.43381
G1 X81.539 Y100.322 E1.46321
G1 X81.445 Y100.631 E1.49263
G1 X81.293 Y100.917 E1.52203
G1 X81.088 Y101.167 E1.55144
G1 X80.838 Y101.372 E1.58085
G1 X80.552 Y101.524 E1.61027
G1 X80.243 Y101.618 E1.63967
G1 X79.921 Y101.650 E1.66908
G1 X79.599 Y101.618 E1.69850
G1 X79.290 Y101.524 E1.72790
G1 X79.004 Y101.372 E1.75732
G1 X78.754 Y101.167 E1.78672
G1 X78.549 Y100.917 E1.81614
