; generated by Slic3r 1.0.0RC3 on 2014-04-17 at 20:50:11

; layer_height = 0.25
; perimeters = 3
; top_solid_layers = 3
; bottom_solid_layers = 3
; fill_density = 0.4
; perimeter_speed = 50
; infill_speed = 60
; travel_speed = 130
; nozzle_diameter = 0.35
; filament_diameter = 1.75
; extrusion_multiplier = 1
; perimeters extrusion width = 0.35mm
; infill extrusion width = 0.39mm
; solid infill extrusion width = 0.39mm
; top infill extrusion width = 0.39mm
; support material extrusion width = 0.35mm
; first layer extrusion width = 0.70mm

G21 ; set units to millimeters
M107
M190 S100 ; wait for bed temperature to be reached
M104 S235 ; set temperature
G28 ; home all axes
G1 Z5 F5000 ; lift nozzle
M109 S235 ; wait for temperature to be reached
G90 ; use absolute coordinates
G92 E0
M82 ; use absolute distances for extrusion
G1 F1800.000 E-1.00000
G92 E0
G1 Z0.350 F7800.000
G1 X84.200 Y81.800 F7800.000
G1 E1.00000 F1800.000
G1 X85.000 Y81.110 E1.09606 F900.000
G1 X86.700 Y79.880 E1.28686
G1 X87.570 Y79.350 E1.37949
G1 X90.590 Y77.810 E1.68774
G1 X91.540 Y77.410 E1.78147
G1 X93.040 Y76.920 E1.92496
G1 X93.580 Y76.750 E1.97644
G1 X94.560 Y76.520 E2.06797
G1 X97.900 Y75.990 E2.37547
G1 X98.940 Y75.910 E2.47032
G1 X101.050 Y75.910 E2.66218
G1 X102.090 Y75.990 E2.75703
G1 X105.430 Y76.520 E3.06453
G1 X106.440 Y76.760 E3.15893
G1 X108.440 Y77.410 E3.35015
G1 X109.400 Y77.810 E3.44472
G1 X112.420 Y79.350 E3.75297
G1 X113.290 Y79.880 E3.84560
G1 X114.990 Y81.110 E4.03640
G1 X115.790 Y81.800 E4.13246
G1 X118.190 Y84.200 E4.44109
G1 X118.880 Y85.000 E4.53715
G1 X120.110 Y86.700 E4.72795
G1 X120.640 Y87.570 E4.82058
G1 X122.180 Y90.590 E5.12883
G1 X122.580 Y91.550 E5.22340
G1 X123.230 Y93.550 E5.41462
G1 X123.470 Y94.560 E5.50902
G1 X124.000 Y97.900 E5.81652
G1 X124.080 Y98.940 E5.91137
G1 X124.080 Y101.050 E6.10323
G1 X124.000 Y102.090 E6.19807
G1 X123.470 Y105.430 E6.50558
G1 X123.240 Y106.410 E6.59711
G1 X123.070 Y106.950 E6.64859
G1 X122.580 Y108.450 E6.79208
G1 X122.180 Y109.400 E6.88580
G1 X120.640 Y112.420 E7.19405
G1 X120.110 Y113.290 E7.28669
G1 X118.880 Y114.990 E7.47748
G1 X118.190 Y115.790 E7.57355
G1 X115.790 Y118.190 E7.88217
G1 X114.990 Y118.880 E7.97824
G1 X113.290 Y120.110 E8.16903
G1 X112.410 Y120.650 E8.26292
G1 X109.380 Y122.190 E8.57198
G1 X108.440 Y122.580 E8.66452
G1 X106.450 Y123.230 E8.85487
G1 X105.430 Y123.470 E8.95015
G1 X102.090 Y124.000 E9.25766
G1 X101.050 Y124.080 E9.35251
G1 X98.940 Y124.080 E9.54437
G1 X97.900 Y124.000 E9.63921
G1 X94.560 Y123.470 E9.94672
G1 X93.550 Y123.230 E10.04111
G1 X91.550 Y122.580 E10.23234
G1 X90.590 Y122.180 E10.32690
G1 X87.570 Y120.640 E10.63515
G1 X86.700 Y120.110 E10.72779
G1 X85.000 Y118.880 E10.91858
G1 X84.200 Y118.190 E11.01465
G1 X81.800 Y115.790 E11.32327
G1 X81.110 Y114.990 E11.41933
G1 X79.880 Y113.290 E11.61013
G1 X79.350 Y112.420 E11.70277
G1 X77.810 Y109.400 E12.01102
G1 X77.410 Y108.440 E12.10558
G1 X76.760 Y106.440 E12.29680
G1 X76.520 Y105.430 E12.39120
G1 X75.990 Y102.090 E12.69871
G1 X75.910 Y101.050 E12.79355
G1 X75.910 Y98.940 E12.98541
G1 X75.990 Y97.900 E13.08026
G1 X76.520 Y94.560 E13.38776
G1 X76.760 Y93.550 E13.48216
G1 X77.410 Y91.550 E13.67338
G1 X77.810 Y90.590 E13.76795
G1 X79.350 Y87.570 E14.07620
G1 X79.880 Y86.700 E14.16883
G1 X81.110 Y85.000 E14.35963
G1 X81.800 Y84.200 E14.45569
G1 X84.134 Y81.866 E14.75579
G1 F1800.000 E13.75579
G92 E0
G1 X86.866 Y85.251 F7800.000
G1 E1.00000 F1800.000
G1 X90.033 Y82.951 E1.35587 F900.000
G1 X91.178 Y83.133 E1.46125
G1 X91.540 Y82.949 E1.49819
G1 X92.067 Y81.914 E1.60378
G1 X94.433 Y81.145 E1.82999
G1 X95.787 Y80.705 E1.95948
G1 X96.822 Y81.232 E2.06507
G1 X97.223 Y81.169 E2.10199
G1 X98.044 Y80.348 E2.20757
G1 X101.956 Y80.348 E2.56328
G1 X102.777 Y81.169 E2.66886
G1 X103.178 Y81.232 E2.70578
G1 X104.213 Y80.705 E2.81137
G1 X107.933 Y81.914 E3.16707
G1 X108.459 Y82.946 E3.27236
G1 X108.815 Y83.130 E3.30888
G1 X109.982 Y82.961 E3.41608
G1 X113.134 Y85.251 E3.77029
G1 X113.315 Y86.398 E3.87587
G1 X113.602 Y86.685 E3.91280
G1 X114.749 Y86.866 E4.01838
G1 X117.049 Y90.031 E4.37409
G1 X116.867 Y91.176 E4.47945
G1 X117.048 Y91.535 E4.51606
G1 X118.090 Y92.079 E4.62289
G1 X119.295 Y95.787 E4.97743
G1 X118.768 Y96.822 E5.08302
G1 X118.831 Y97.223 E5.11994
G1 X119.652 Y98.044 E5.22552
G1 X119.652 Y101.956 E5.58123
G1 X118.831 Y102.777 E5.68681
G1 X118.768 Y103.178 E5.72373
G1 X119.295 Y104.213 E5.82932
G1 X118.086 Y107.933 E6.18502
G1 X117.051 Y108.460 E6.29060
G1 X116.867 Y108.822 E6.32752
G1 X117.049 Y109.969 E6.43310
G1 X114.749 Y113.134 E6.78881
G1 X113.602 Y113.315 E6.89439
G1 X113.315 Y113.602 E6.93132
G1 X113.134 Y114.749 E7.03690
G1 X109.969 Y117.049 E7.39261
G1 X108.818 Y116.866 E7.49860
G1 X108.456 Y117.050 E7.53544
G1 X107.923 Y118.089 E7.64164
G1 X104.213 Y119.295 E7.99642
G1 X103.178 Y118.768 E8.10200
G1 X102.777 Y118.831 E8.13892
G1 X101.956 Y119.652 E8.24451
G1 X98.044 Y119.652 E8.60021
G1 X97.223 Y118.831 E8.70579
G1 X96.822 Y118.768 E8.74271
G1 X95.787 Y119.295 E8.84830
G1 X92.067 Y118.086 E9.20400
G1 X91.540 Y117.051 E9.30958
G1 X91.178 Y116.867 E9.34650
G1 X90.031 Y117.049 E9.45209
G1 X86.866 Y114.749 E9.80780
G1 X86.685 Y113.602 E9.91337
G1 X86.398 Y113.315 E9.95030
G1 X85.251 Y113.134 E10.05588
G1 X82.951 Y109.969 E10.41159
G1 X83.133 Y108.822 E10.51717
G1 X82.949 Y108.460 E10.55410
G1 X81.914 Y107.933 E10.65967
G1 X80.705 Y104.213 E11.01537
G1 X81.232 Y103.178 E11.12096
G1 X81.169 Y102.777 E11.15788
G1 X80.348 Y101.956 E11.26346
G1 X80.348 Y98.044 E11.61917
G1 X81.169 Y97.223 E11.72475
G1 X81.232 Y96.822 E11.76167
G1 X80.705 Y95.787 E11.86726
G1 X81.917 Y92.065 E12.22324
G1 X82.948 Y91.540 E12.32846
G1 X83.133 Y91.178 E12.36542
G1 X82.951 Y90.031 E12.47102
G1 X85.251 Y86.866 E12.82673
G1 X86.398 Y86.685 E12.93231
G1 X86.685 Y86.398 E12.96923
G1 X86.852 Y85.343 E13.06629
G1 X87.443 Y85.604 F7800.000
G1 X90.190 Y83.609 E13.37504 F900.000
G1 X91.528 Y83.822 E13.49821
G1 X91.890 Y83.637 E13.53515
G1 X92.506 Y82.429 E13.65851
G1 X94.626 Y81.740 E13.86119
G1 X95.734 Y81.380 E13.96714
G1 X96.943 Y81.995 E14.09047
G1 X97.344 Y81.932 E14.12740
G1 X98.303 Y80.973 E14.25072
G1 X101.697 Y80.973 E14.55936
G1 X102.656 Y81.932 E14.68268
G1 X103.057 Y81.995 E14.71961
G1 X104.266 Y81.380 E14.84294
G1 X107.494 Y82.429 E15.15157
G1 X108.105 Y83.629 E15.27405
G1 X108.462 Y83.813 E15.31057
G1 X109.820 Y83.616 E15.43539
G1 X112.557 Y85.604 E15.74296
G1 X112.769 Y86.944 E15.86629
G1 X113.056 Y87.231 E15.90321
G1 X114.396 Y87.443 E16.02654
G1 X116.391 Y90.189 E16.33517
G1 X116.180 Y91.522 E16.45785
G1 X116.361 Y91.881 E16.49447
G1 X117.574 Y92.515 E16.61894
G1 X118.620 Y95.734 E16.92674
G1 X118.005 Y96.943 E17.05008
G1 X118.068 Y97.344 E17.08700
G1 X119.027 Y98.303 E17.21033
G1 X119.027 Y101.697 E17.51896
G1 X118.068 Y102.656 E17.64229
G1 X118.005 Y103.057 E17.67921
G1 X118.620 Y104.266 E17.80254
G1 X117.571 Y107.494 E18.11118
G1 X116.363 Y108.109 E18.23450
G1 X116.179 Y108.471 E18.27142
G1 X116.391 Y109.811 E18.39475
G1 X114.396 Y112.557 E18.70339
G1 X113.056 Y112.769 E18.82671
G1 X112.769 Y113.056 E18.86364
G1 X112.557 Y114.396 E18.98697
G1 X109.811 Y116.391 E19.29560
G1 X108.468 Y116.178 E19.41923
G1 X108.107 Y116.362 E19.45607
G1 X107.485 Y117.574 E19.57999
G1 X104.266 Y118.620 E19.88778
G1 X103.057 Y118.005 E20.01111
G1 X102.656 Y118.068 E20.04804
G1 X101.697 Y119.027 E20.17137
G1 X98.303 Y119.027 E20.48000
G1 X97.344 Y118.068 E20.60333
G1 X96.943 Y118.005 E20.64025
G1 X95.734 Y118.620 E20.76358
G1 X92.506 Y117.571 E21.07221
G1 X91.891 Y116.363 E21.19554
G1 X91.529 Y116.179 E21.23246
G1 X90.189 Y116.391 E21.35579
G1 X87.443 Y114.396 E21.66443
G1 X87.231 Y113.056 E21.78775
G1 X86.944 Y112.769 E21.82468
G1 X85.604 Y112.557 E21.94800
G1 X83.609 Y109.811 E22.25664
G1 X83.821 Y108.471 E22.37997
G1 X83.637 Y108.109 E22.41690
G1 X82.428 Y107.494 E22.54022
G1 X81.380 Y104.266 E22.84885
G1 X81.995 Y103.057 E22.97218
G1 X81.932 Y102.656 E23.00911
G1 X80.973 Y101.697 E23.13243
G1 X80.973 Y98.303 E23.44107
G1 X81.932 Y97.344 E23.56439
G1 X81.995 Y96.943 E23.60132
G1 X81.380 Y95.734 E23.72465
G1 X82.430 Y92.505 E24.03348
G1 X83.637 Y91.891 E24.15652
G1 X83.821 Y91.529 E24.19348
G1 X83.609 Y90.189 E24.31687
G1 X85.604 Y87.443 E24.62551
G1 X86.944 Y87.231 E24.74884
G1 X87.231 Y86.944 E24.78576
G1 X87.428 Y85.697 E24.90056
G1 X88.020 Y85.958 F7800.000
G1 X90.348 Y84.267 E25.16219 F900.000
G1 X91.114 Y84.389 E25.23275
G1 X91.179 Y84.478 E25.24286
G1 X91.447 Y84.615 E25.27014
G1 X92.064 Y84.615 E25.32624
G1 X92.293 Y84.520 E25.34885
G1 X92.590 Y84.223 E25.38703
G1 X92.673 Y83.880 E25.41908
G1 X92.593 Y83.635 E25.44253
G1 X92.945 Y82.943 E25.51313
G1 X94.819 Y82.334 E25.69228
G1 X95.681 Y82.054 E25.77470
G1 X96.373 Y82.406 E25.84530
G1 X96.555 Y82.966 E25.89882
G1 X96.884 Y83.205 E25.93575
G1 X97.239 Y83.205 E25.96808
G1 X97.469 Y83.110 E25.99068
G1 X97.918 Y82.661 E26.04840
G1 X98.013 Y82.431 E26.07100
G1 X98.013 Y82.147 E26.09687
G1 X98.562 Y81.598 E26.16748
G1 X101.438 Y81.598 E26.42904
G1 X101.987 Y82.147 E26.49965
G1 X101.987 Y82.431 E26.52552
G1 X102.082 Y82.661 E26.54813
G1 X102.531 Y83.110 E26.60584
G1 X102.761 Y83.205 E26.62845
G1 X103.116 Y83.205 E26.66077
G1 X103.445 Y82.966 E26.69770
G1 X103.627 Y82.406 E26.75122
G1 X104.319 Y82.054 E26.82183
G1 X107.055 Y82.943 E27.08339
G1 X107.407 Y83.635 E27.15400
G1 X107.327 Y83.880 E27.17744
G1 X107.410 Y84.223 E27.20949
G1 X107.895 Y84.691 E27.27082
G1 X108.167 Y84.843 E27.29911
G1 X108.622 Y84.748 E27.34142
G1 X108.904 Y84.380 E27.38356
G1 X109.659 Y84.271 E27.45289
G1 X111.980 Y85.958 E27.71381
G1 X112.102 Y86.725 E27.78442
G1 X111.849 Y87.072 E27.82352
G1 X111.898 Y87.549 E27.86706
G1 X112.182 Y87.805 E27.90181
G1 X112.208 Y87.854 E27.90689
G1 X112.455 Y88.113 E27.93937
G1 X112.922 Y88.155 E27.98204
G1 X113.275 Y87.898 E28.02171
G1 X114.042 Y88.020 E28.09232
G1 X115.733 Y90.347 E28.35389
G1 X115.612 Y91.114 E28.42449
G1 X115.259 Y91.370 E28.46411
G1 X115.156 Y91.830 E28.50697
G1 X115.552 Y92.555 E28.58210
G1 X115.963 Y92.723 E28.62245
G1 X116.380 Y92.596 E28.66209
G1 X117.059 Y92.951 E28.73170
G1 X117.946 Y95.681 E28.99277
G1 X117.594 Y96.373 E29.06338
G1 X117.179 Y96.508 E29.10302
G1 X116.938 Y96.907 E29.14542
G1 X117.079 Y97.719 E29.22036
G1 X117.428 Y98.013 E29.26181
G1 X117.853 Y98.013 E29.30048
G1 X118.402 Y98.562 E29.37109
G1 X118.402 Y101.438 E29.63265
G1 X117.853 Y101.987 E29.70326
G1 X117.418 Y101.987 E29.74288
G1 X117.065 Y102.293 E29.78533
G1 X116.949 Y103.110 E29.86029
G1 X117.190 Y103.496 E29.90169
G1 X117.594 Y103.627 E29.94024
G1 X117.946 Y104.319 E30.01084
G1 X117.057 Y107.055 E30.27241
G1 X116.365 Y107.407 E30.34301
G1 X115.952 Y107.273 E30.38249
G1 X115.525 Y107.451 E30.42457
G1 X115.162 Y108.167 E30.49756
G1 X115.263 Y108.633 E30.54091
G1 X115.612 Y108.886 E30.58011
G1 X115.733 Y109.653 E30.65072
G1 X114.042 Y111.980 E30.91228
G1 X113.275 Y112.102 E30.98289
G1 X112.937 Y111.856 E31.02092
G1 X112.486 Y111.886 E31.06206
G1 X111.888 Y112.455 E31.13710
G1 X111.845 Y112.923 E31.17982
G1 X112.102 Y113.275 E31.21947
G1 X111.980 Y114.042 E31.29008
G1 X109.653 Y115.733 E31.55164
G1 X108.886 Y115.612 E31.62225
G1 X108.821 Y115.522 E31.63239
G1 X108.553 Y115.385 E31.65967
G1 X107.936 Y115.385 E31.71577
G1 X107.707 Y115.480 E31.73838
G1 X107.404 Y115.783 E31.77734
G1 X107.321 Y116.124 E31.80924
G1 X107.400 Y116.371 E31.83282
G1 X107.047 Y117.060 E31.90317
G1 X104.319 Y117.946 E32.16397
G1 X103.627 Y117.594 E32.23458
G1 X103.445 Y117.034 E32.28810
G1 X103.116 Y116.795 E32.32503
G1 X102.761 Y116.795 E32.35735
G1 X102.531 Y116.890 E32.37996
G1 X102.082 Y117.339 E32.43767
G1 X101.987 Y117.569 E32.46028
G1 X101.987 Y117.853 E32.48615
G1 X101.438 Y118.402 E32.55676
G1 X98.562 Y118.402 E32.81832
G1 X98.013 Y117.853 E32.88893
G1 X98.013 Y117.569 E32.91480
G1 X97.918 Y117.339 E32.93740
G1 X97.469 Y116.890 E32.99512
G1 X97.239 Y116.795 E33.01772
G1 X96.884 Y116.795 E33.05005
G1 X96.555 Y117.034 E33.08697
G1 X96.373 Y117.594 E33.14050
G1 X95.681 Y117.946 E33.21110
G1 X92.945 Y117.057 E33.47267
G1 X92.593 Y116.365 E33.54327
G1 X92.673 Y116.120 E33.56672
G1 X92.590 Y115.777 E33.59877
G1 X92.174 Y115.361 E33.65229
G1 X91.833 Y115.157 E33.68841
G1 X91.370 Y115.259 E33.73155
G1 X91.114 Y115.612 E33.77115
G1 X90.347 Y115.733 E33.84176
G1 X88.020 Y114.042 E34.10332
G1 X87.898 Y113.275 E34.17393
G1 X88.151 Y112.928 E34.21303
G1 X88.102 Y112.451 E34.25657
G1 X87.818 Y112.195 E34.29132
G1 X87.792 Y112.146 E34.29640
G1 X87.545 Y111.887 E34.32888
G1 X87.078 Y111.845 E34.37155
G1 X86.725 Y112.102 E34.41122
G1 X85.958 Y111.980 E34.48183
G1 X84.267 Y109.653 E34.74340
G1 X84.388 Y108.886 E34.81401
G1 X84.741 Y108.630 E34.85362
G1 X84.844 Y108.170 E34.89648
G1 X84.448 Y107.445 E34.97159
G1 X84.029 Y107.279 E35.01258
G1 X83.635 Y107.407 E35.05027
G1 X82.943 Y107.055 E35.12088
G1 X82.054 Y104.319 E35.38244
G1 X82.406 Y103.627 E35.45305
G1 X82.821 Y103.492 E35.49269
G1 X83.062 Y103.093 E35.53509
G1 X82.921 Y102.281 E35.61003
G1 X82.572 Y101.987 E35.65148
G1 X82.147 Y101.987 E35.69015
G1 X81.598 Y101.438 E35.76076
G1 X81.598 Y98.562 E36.02232
G1 X82.147 Y98.013 E36.09293
G1 X82.582 Y98.013 E36.13255
G1 X82.935 Y97.707 E36.17500
G1 X83.051 Y96.890 E36.24996
G1 X82.810 Y96.504 E36.29136
G1 X82.406 Y96.373 E36.32991
G1 X82.054 Y95.681 E36.40051
G1 X82.944 Y92.944 E36.66219
G1 X83.635 Y92.593 E36.73270
G1 X84.048 Y92.727 E36.77213
G1 X84.475 Y92.549 E36.81421
G1 X84.838 Y91.833 E36.88720
G1 X84.737 Y91.367 E36.93055
G1 X84.388 Y91.114 E36.96975
G1 X84.267 Y90.347 E37.04036
G1 X85.958 Y88.020 E37.30192
G1 X86.725 Y87.898 E37.37253
G1 X87.063 Y88.144 E37.41056
G1 X87.514 Y88.114 E37.45170
G1 X88.112 Y87.545 E37.52674
G1 X88.155 Y87.077 E37.56946
G1 X87.898 Y86.725 E37.60910
G1 X88.005 Y86.050 E37.67119
G1 X88.596 Y86.311 F7800.000
G1 X90.505 Y84.924 E37.88571 F900.000
G1 X90.761 Y84.965 E37.90922
G1 X91.178 Y85.539 E37.97378
G1 X91.752 Y85.585 E38.02617
G1 X92.097 Y85.240 E38.07054
G1 X92.323 Y85.240 E38.09103
G1 X92.552 Y85.144 E38.11363
G1 X92.810 Y84.887 E38.14672
G1 X93.115 Y84.887 E38.17452
G1 X93.490 Y84.372 E38.23242
G1 X93.267 Y83.688 E38.29783
G1 X93.385 Y83.457 E38.32137
G1 X95.012 Y82.928 E38.47698
G1 X95.628 Y82.728 E38.53586
G1 X95.859 Y82.846 E38.55940
G1 X96.101 Y83.591 E38.63066
G1 X96.430 Y83.830 E38.66759
G1 X97.498 Y83.830 E38.76473
G1 X97.728 Y83.735 E38.78734
G1 X97.985 Y83.477 E38.82043
G1 X98.272 Y83.477 E38.84649
G1 X98.638 Y83.111 E38.89356
G1 X98.638 Y82.406 E38.95773
G1 X98.821 Y82.223 E38.98127
G1 X101.179 Y82.223 E39.19576
G1 X101.362 Y82.406 E39.21929
G1 X101.362 Y83.111 E39.28346
G1 X101.729 Y83.477 E39.33054
G1 X102.015 Y83.477 E39.35660
G1 X102.272 Y83.735 E39.38969
G1 X102.502 Y83.830 E39.41229
G1 X103.570 Y83.830 E39.50944
G1 X103.899 Y83.591 E39.54636
G1 X104.141 Y82.846 E39.61763
G1 X104.372 Y82.728 E39.64117
G1 X106.615 Y83.457 E39.85566
G1 X106.733 Y83.688 E39.87919
G1 X106.510 Y84.372 E39.94461
G1 X106.885 Y84.887 E40.00251
G1 X107.190 Y84.887 E40.03031
G1 X107.486 Y85.183 E40.06837
G1 X108.347 Y85.658 E40.15773
G1 X108.810 Y85.556 E40.20087
G1 X109.246 Y84.962 E40.26785
G1 X109.497 Y84.926 E40.29095
G1 X111.404 Y86.311 E40.50523
G1 X111.444 Y86.567 E40.52877
G1 X111.014 Y87.159 E40.59536
G1 X111.063 Y87.635 E40.63890
G1 X111.633 Y88.151 E40.70883
G1 X112.380 Y88.939 E40.80757
G1 X112.848 Y88.981 E40.85024
G1 X113.433 Y88.556 E40.91604
G1 X113.689 Y88.596 E40.93958
G1 X115.076 Y90.505 E41.15407
G1 X115.035 Y90.761 E41.17761
G1 X114.517 Y91.137 E41.23579
G1 X114.383 Y91.471 E41.26858
G1 X114.476 Y91.889 E41.30749
G1 X114.849 Y92.572 E41.37825
G1 X115.194 Y93.307 E41.45205
G1 X115.625 Y93.491 E41.49465
G1 X116.317 Y93.268 E41.56074
G1 X116.543 Y93.386 E41.58395
G1 X117.272 Y95.628 E41.79827
G1 X117.154 Y95.859 E41.82181
G1 X116.461 Y96.084 E41.88814
G1 X116.221 Y96.505 E41.93214
G1 X116.321 Y96.951 E41.97371
G1 X116.440 Y97.688 E42.04162
G1 X116.512 Y98.324 E42.09981
G1 X116.866 Y98.638 E42.14285
G1 X117.594 Y98.638 E42.20906
G1 X117.777 Y98.821 E42.23260
G1 X117.777 Y101.179 E42.44708
G1 X117.594 Y101.362 E42.47062
