; generated by Slic3r 1.0.0RC3 on 2014-05-05 at 18:27:34

; layer_height = 0.25
; perimeters = 3
; top_solid_layers = 3
; bottom_solid_layers = 3
; fill_density = 0.4
; perimeter_speed = 50
; infill_speed = 60
; travel_speed = 130
; nozzle_diameter = 0.35
; filament_diameter = 1.75
; extrusion_multiplier = 1
; perimeters extrusion width = 0.35mm
; infill extrusion width = 0.39mm
; solid infill extrusion width = 0.39mm
; top infill extrusion width = 0.39mm
; support material extrusion width = 0.35mm
; first layer extrusion width = 0.70mm

G21 ; set units to millimeters
M107
M190 S100 ; wait for bed temperature to be reached
M104 S235 ; set temperature
G28 ; home all axes
G1 Z5 F5000 ; lift nozzle
M109 S235 ; wait for temperature to be reached
G90 ; use absolute coordinates
G92 E0
M82 ; use absolute distances for extrusion
G1 F1800.000 E-1.00000
G92 E0
G1 Z0.350 F7800.000
G1 X84.289 Y90.642 F7800.000
G1 E1.00000 F1800.000
G1 X85.299 Y89.882 E1.11494 F900.000
G1 X86.439 Y89.322 E1.23043
G1 X87.669 Y89.002 E1.34599
G1 X90.839 Y88.472 E1.63824
G1 X91.929 Y88.382 E1.73769
G1 X99.109 Y88.382 E2.39057
G1 X112.039 Y88.912 E3.56727
G1 X113.409 Y89.112 E3.69317
G1 X114.699 Y89.592 E3.81832
G1 X115.869 Y90.332 E3.94420
G1 X116.859 Y91.292 E4.06960
G1 X117.629 Y92.442 E4.19544
G1 X118.139 Y93.722 E4.32073
G1 X118.379 Y95.082 E4.44631
G1 X118.549 Y97.572 E4.67325
G1 X118.559 Y98.322 E4.74145
G1 X118.389 Y102.072 E5.08279
G1 X118.189 Y103.412 E5.20598
G1 X117.719 Y104.682 E5.32912
G1 X117.009 Y105.822 E5.45124
G1 X116.079 Y106.802 E5.57409
G1 X114.969 Y107.572 E5.69693
G1 X113.719 Y108.102 E5.82038
G1 X112.399 Y108.372 E5.94289
G1 X99.469 Y109.602 E7.12392
G1 X98.839 Y109.622 E7.18124
G1 X91.929 Y109.622 E7.80956
G1 X90.709 Y109.512 E7.92094
G1 X89.529 Y109.182 E8.03236
G1 X86.359 Y107.952 E8.34154
G1 X85.219 Y107.372 E8.45785
G1 X84.209 Y106.592 E8.57388
G1 X83.369 Y105.632 E8.68988
G1 X82.729 Y104.522 E8.80638
G1 X82.319 Y103.322 E8.92169
G1 X82.139 Y102.052 E9.03833
G1 X81.979 Y98.302 E9.37962
G1 X81.989 Y97.602 E9.44328
G1 X82.149 Y95.112 E9.67016
G1 X82.349 Y93.852 E9.78617
G1 X82.789 Y92.662 E9.90153
G1 X83.439 Y91.582 E10.01615
G1 X84.226 Y90.711 E10.12286
G1 F1800.000 E9.12286
G92 E0
G1 X87.367 Y93.323 F7800.000
G1 E1.00000 F1800.000
G1 X88.171 Y92.990 E1.07912 F900.000
G1 X90.015 Y92.990 E1.24679
G1 X90.245 Y92.895 E1.26939
G1 X90.675 Y92.465 E1.32471
G1 X99.428 Y92.465 E2.12062
G1 X100.232 Y92.798 E2.19974
G1 X101.052 Y93.618 E2.30522
G1 X101.254 Y94.104 E2.35308
G1 X101.569 Y94.315 E2.38755
G1 X106.883 Y94.315 E2.87080
G1 X107.520 Y94.951 E2.95260
G1 X108.036 Y94.952 E2.99953
G1 X109.474 Y93.526 E3.18372
G1 X109.831 Y93.289 E3.22268
G1 X110.355 Y93.073 E3.27423
G1 X110.776 Y92.990 E3.31319
G1 X113.027 Y92.990 E3.51793
G1 X114.308 Y94.271 E3.68268
G1 X114.308 Y96.578 E3.89247
G1 X114.547 Y98.303 E4.05078
G1 X114.308 Y99.152 E4.13095
G1 X114.308 Y103.032 E4.48376
G1 X113.027 Y104.313 E4.64852
G1 X109.219 Y104.313 E4.99482
G1 X108.415 Y103.980 E5.07394
G1 X107.762 Y103.328 E5.15784
G1 X107.245 Y103.328 E5.20491
G1 X106.883 Y103.689 E5.25137
G1 X101.751 Y103.689 E5.71804
G1 X101.385 Y104.055 E5.76511
G1 X101.385 Y104.258 E5.78355
G1 X100.104 Y105.539 E5.94831
G1 X91.351 Y105.539 E6.74422
G1 X90.547 Y105.206 E6.82334
G1 X89.749 Y104.408 E6.92595
G1 X89.519 Y104.313 E6.94855
G1 X88.171 Y104.313 E7.07115
G1 X87.367 Y103.980 E7.15026
G1 X86.547 Y103.160 E7.25575
G1 X86.214 Y102.356 E7.33486
G1 X86.214 Y99.946 E7.55399
G1 X86.253 Y99.745 E7.57256
G1 X86.003 Y97.713 E7.75880
G1 X86.214 Y96.986 E7.82756
G1 X86.214 Y94.947 E8.01300
G1 X86.547 Y94.143 E8.09211
G1 X87.301 Y93.389 E8.18907
G1 X87.721 Y93.853 F7800.000
G1 X88.296 Y93.615 E8.24558 F900.000
G1 X90.274 Y93.615 E8.42549
G1 X90.504 Y93.520 E8.44809
G1 X90.934 Y93.089 E8.50341
G1 X99.304 Y93.089 E9.26448
G1 X99.878 Y93.327 E9.32100
G1 X100.522 Y93.972 E9.40387
G1 X100.760 Y94.546 E9.46039
G1 X100.760 Y95.197 E9.51958
G1 X101.532 Y95.517 E9.59551
G1 X102.109 Y94.940 E9.66971
G1 X106.625 Y94.940 E10.08033
G1 X107.518 Y95.833 E10.19518
G1 X108.034 Y95.834 E10.24211
G1 X109.871 Y94.013 E10.47730
G1 X110.126 Y93.843 E10.50513
G1 X110.537 Y93.674 E10.54555
G1 X110.837 Y93.615 E10.57338
G1 X112.768 Y93.615 E10.74902
G1 X113.684 Y94.530 E10.86670
G1 X113.684 Y96.622 E11.05691
G1 X113.909 Y98.255 E11.20685
G1 X113.684 Y99.061 E11.28293
G1 X113.684 Y102.773 E11.62046
G1 X112.768 Y103.688 E11.73814
G1 X109.343 Y103.688 E12.04961
G1 X108.769 Y103.450 E12.10612
G1 X108.124 Y102.806 E12.18900
G1 X107.991 Y102.483 E12.22073
G1 X107.336 Y102.353 E12.28148
G1 X106.625 Y103.064 E12.37290
G1 X102.109 Y103.064 E12.78352
G1 X101.532 Y102.487 E12.85772
G1 X100.760 Y102.807 E12.93365
G1 X100.760 Y103.999 E13.04207
G1 X99.845 Y104.914 E13.15975
G1 X91.475 Y104.914 E13.92083
G1 X90.901 Y104.676 E13.97734
G1 X90.257 Y104.032 E14.06022
G1 X90.201 Y103.899 E14.07332
G1 X89.886 Y103.688 E14.10779
G1 X88.296 Y103.688 E14.25243
G1 X87.721 Y103.450 E14.30894
G1 X87.077 Y102.806 E14.39182
G1 X86.839 Y102.232 E14.44833
G1 X86.839 Y100.070 E14.64485
G1 X86.871 Y99.993 E14.65247
G1 X86.893 Y99.833 E14.66718
G1 X86.640 Y97.770 E14.85617
G1 X86.839 Y97.081 E14.92135
G1 X86.839 Y95.071 E15.10410
G1 X87.077 Y94.497 E15.16061
G1 X87.655 Y93.919 E15.23497
G1 F1800.000 E14.23497
G92 E0
G1 X99.270 Y98.247 F7800.000
G1 E1.00000 F1800.000
G1 X99.481 Y97.931 E1.03447 F900.000
G1 X99.878 Y97.767 E1.07355
G1 X100.422 Y97.223 E1.14353
G1 X101.194 Y97.542 E1.21946
G1 X101.194 Y100.256 E1.46622
G1 X100.422 Y100.576 E1.54216
G1 X99.845 Y99.999 E1.61635
G1 X99.636 Y99.999 E1.63534
G1 X99.270 Y99.633 E1.68241
G1 X99.270 Y98.340 E1.79992
G1 F1800.000 E0.79992
G92 E0
G1 X101.819 Y96.114 F7800.000
G1 E1.00000 F1800.000
G1 X102.368 Y95.564 E1.07061 F900.000
G1 X106.366 Y95.564 E1.43415
G1 X106.915 Y96.114 E1.50476
G1 X106.915 Y101.890 E2.03001
G1 X106.366 Y102.439 E2.10062
G1 X102.368 Y102.439 E2.46416
G1 X101.819 Y101.890 E2.53477
G1 X101.819 Y96.207 E3.05150
G1 X102.443 Y96.372 F7800.000
G1 X102.627 Y96.189 E3.07504 F900.000
G1 X106.107 Y96.189 E3.39151
G1 X106.290 Y96.372 E3.41505
G1 X106.290 Y101.631 E3.89323
G1 X106.107 Y101.814 E3.91677
G1 X102.627 Y101.814 E4.23324
G1 X102.443 Y101.631 E4.25677
G1 X102.443 Y96.466 E4.72643
G1 F1800.000 E3.72643
G92 E0
G1 X108.411 Y96.787 F7800.000
G1 E1.00000 F1800.000
G1 X108.524 Y96.228 E1.05181 F900.000
G1 X110.267 Y94.499 E1.27507
G1 X110.420 Y94.398 E1.29177
G1 X110.718 Y94.275 E1.32106
G1 X110.898 Y94.240 E1.33775
G1 X112.510 Y94.240 E1.48428
G1 X113.059 Y94.789 E1.55489
G1 X113.059 Y96.393 E1.70078
G1 X113.030 Y96.480 E1.70909
G1 X113.271 Y98.207 E1.86772
G1 X113.156 Y98.598 E1.90472
G1 X113.059 Y98.830 E1.92761
G1 X113.059 Y102.514 E2.26262
G1 X112.510 Y103.063 E2.33323
G1 X109.467 Y103.063 E2.60986
G1 X109.123 Y102.920 E2.64377
G1 X108.654 Y102.452 E2.70404
G1 X108.511 Y102.107 E2.73795
G1 X108.511 Y100.195 E2.91186
G1 X108.581 Y100.025 E2.92851
G1 X108.581 Y99.777 E2.95112
G1 X108.511 Y99.608 E2.96777
G1 X108.511 Y97.695 E3.14168
G1 X108.597 Y97.488 E3.16205
G1 X108.597 Y97.240 E3.18459
G1 X108.446 Y96.873 E3.22067
G1 X109.061 Y96.724 F7800.000
G1 X109.098 Y96.538 E3.23794 F900.000
G1 X110.715 Y94.952 E3.44383
G1 X110.959 Y94.865 E3.46747
G1 X112.251 Y94.865 E3.58490
G1 X112.434 Y95.048 E3.60843
G1 X112.434 Y96.061 E3.70054
G1 X112.368 Y96.258 E3.71948
G1 X112.634 Y98.160 E3.89409
G1 X112.595 Y98.290 E3.90642
G1 X112.404 Y98.509 E3.93287
G1 X112.347 Y98.860 E3.96519
G1 X112.434 Y99.069 E3.98577
G1 X112.434 Y100.733 E4.13708
G1 X112.356 Y100.921 E4.15555
G1 X112.434 Y101.296 E4.19042
G1 X112.434 Y102.255 E4.27761
G1 X112.251 Y102.438 E4.30115
G1 X109.592 Y102.438 E4.54294
G1 X109.477 Y102.391 E4.55424
G1 X109.184 Y102.098 E4.59191
G1 X109.136 Y101.983 E4.60321
G1 X109.136 Y100.319 E4.75452
G1 X109.258 Y100.025 E4.78341
G1 X109.258 Y99.777 E4.80601
G1 X109.136 Y99.483 E4.83489
G1 X109.136 Y97.819 E4.98620
G1 X109.273 Y97.489 E5.01874
G1 X109.273 Y97.241 E5.04128
G1 X109.096 Y96.811 E5.08355
G1 F1800.000 E4.08355
G92 E0
G1 X100.135 Y96.424 F7800.000
G1 E1.00000 F1800.000
G1 X99.993 Y96.769 E1.03391 F900.000
G1 X99.524 Y97.237 E1.09418
G1 X99.180 Y97.380 E1.12809
G1 X99.011 Y97.380 E1.14337
G1 X98.645 Y97.746 E1.19044
G1 X98.645 Y100.258 E1.41881
G1 X99.011 Y100.624 E1.46589
G1 X99.586 Y100.624 E1.51816
G1 X100.135 Y101.173 E1.58877
G1 X100.135 Y103.740 E1.82222
G1 X99.586 Y104.289 E1.89283
G1 X91.600 Y104.289 E2.61907
G1 X91.255 Y104.147 E2.65298
G1 X90.786 Y103.678 E2.71325
G1 X90.619 Y103.274 E2.75301
G1 X90.304 Y103.063 E2.78749
G1 X88.420 Y103.063 E2.95879
G1 X88.075 Y102.920 E2.99270
G1 X87.607 Y102.452 E3.05297
G1 X87.464 Y102.107 E3.08688
G1 X87.464 Y100.195 E3.26079
G1 X87.511 Y100.080 E3.27207
G1 X87.533 Y99.920 E3.28677
G1 X87.277 Y97.827 E3.47851
G1 X87.464 Y97.176 E3.54010
G1 X87.464 Y95.196 E3.72018
G1 X87.607 Y94.851 E3.75409
G1 X88.075 Y94.382 E3.81436
G1 X88.420 Y94.240 E3.84827
G1 X90.533 Y94.240 E4.04040
G1 X90.763 Y94.145 E4.06301
G1 X91.193 Y93.714 E4.11832
G1 X99.180 Y93.714 E4.84456
G1 X99.524 Y93.857 E4.87847
G1 X99.993 Y94.326 E4.93874
G1 X100.135 Y94.670 E4.97265
G1 X100.135 Y96.330 E5.12360
G1 X99.511 Y96.300 F7800.000
G1 X99.463 Y96.415 E5.13490 F900.000
G1 X99.170 Y96.708 E5.17257
G1 X99.055 Y96.755 E5.18387
G1 X98.387 Y96.755 E5.24467
G1 X98.021 Y97.121 E5.29174
G1 X98.021 Y100.882 E5.63376
G1 X98.387 Y101.249 E5.68083
G1 X99.328 Y101.249 E5.76639
G1 X99.511 Y101.432 E5.78992
G1 X99.511 Y103.481 E5.97631
G1 X99.328 Y103.664 E5.99984
G1 X91.724 Y103.664 E6.69124
G1 X91.609 Y103.617 E6.70255
G1 X91.316 Y103.324 E6.74021
G1 X91.269 Y103.209 E6.75152
G1 X91.269 Y102.804 E6.78831
G1 X90.902 Y102.438 E6.83538
G1 X88.544 Y102.438 E7.04982
G1 X88.429 Y102.391 E7.06113
G1 X88.136 Y102.098 E7.09879
G1 X88.089 Y101.983 E7.11010
G1 X88.089 Y100.319 E7.26141
G1 X88.222 Y99.998 E7.29295
G1 X88.209 Y99.720 E7.31827
G1 X88.117 Y99.545 E7.33624
G1 X87.913 Y97.884 E7.48844
G1 X87.953 Y97.756 E7.50064
G1 X88.123 Y97.563 E7.52401
G1 X88.182 Y97.210 E7.55660
G1 X88.089 Y96.984 E7.57885
G1 X88.089 Y95.320 E7.73016
G1 X88.136 Y95.205 E7.74146
G1 X88.429 Y94.912 E7.77913
G1 X88.544 Y94.865 E7.79043
G1 X90.792 Y94.865 E7.99480
G1 X91.021 Y94.769 E8.01741
G1 X91.452 Y94.339 E8.07272
G1 X99.055 Y94.339 E8.76412
G1 X99.170 Y94.387 E8.77542
G1 X99.463 Y94.680 E8.81309
G1 X99.511 Y94.795 E8.82439
G1 X99.511 Y96.206 E8.95274
G1 F1800.000 E7.95274
G92 E0
G1 X103.106 Y96.852 F7800.000
G1 E1.00000 F1800.000
G1 X105.627 Y96.852 E1.22928 F720.000
G1 X105.627 Y101.152 E1.62028
G1 X103.106 Y101.152 E1.84956
G1 X103.106 Y96.946 E2.23204
G1 X103.647 Y97.164 F7800.000
G1 X103.731 Y97.477 F7800.000
G1 X105.003 Y97.477 E2.34768 F720.000
G1 X105.003 Y100.527 E2.62503
G1 X103.731 Y100.527 E2.74068
G1 X103.731 Y97.570 E3.00951
G1 X104.173 Y97.971 F7800.000
G1 X104.540 Y97.919 E3.02547 F360.000
G1 X104.560 Y97.939 E3.02669 F360.000
G1 X104.173 Y97.971 F7800.000
G1 X104.560 Y98.358 E3.05026 F360.000
G1 X104.173 Y98.390 E3.06699 F360.000
G1 X104.560 Y98.777 E3.09056 F360.000
G1 X104.173 Y98.808 E3.10728 F360.000
G1 X104.560 Y99.195 E3.13085 F360.000
G1 X104.173 Y99.227 E3.14758 F360.000
G1 X104.560 Y99.614 E3.17115 F360.000
G1 X104.173 Y99.646 E3.18787 F360.000
G1 X104.560 Y100.033 E3.21144 F360.000
G1 X104.173 Y100.064 E3.22817 F360.000
G1 X104.193 Y100.084 E3.22939 F360.000
G1 F1800.000 E2.22939
G92 E0
G1 X98.848 Y101.911 F7800.000
G1 E1.00000 F1800.000
G1 X91.931 Y101.911 E1.36602 F1080.000
G1 X91.931 Y102.275 E1.38527
G1 X98.848 Y102.275 E1.75129
G1 X98.848 Y102.638 E1.77053
G1 X91.931 Y102.638 E2.13655
G1 X91.931 Y103.002 E2.15580
G1 X98.848 Y103.002 E2.52182
G1 F1800.000 E1.52182
G92 E0
G1 X97.358 Y101.547 F7800.000
G1 E1.00000 F1800.000
G1 X91.931 Y101.547 E1.28718 F1080.000
G1 X91.931 Y101.184 E1.30642
G1 X97.358 Y101.184 E1.59360
G1 X97.358 Y100.820 E1.61284
G1 X91.931 Y100.820 E1.90002
G1 X91.931 Y100.456 E1.91926
G1 X97.358 Y100.456 E2.20644
G1 X97.358 Y100.093 E2.22569
G1 X91.931 Y100.093 E2.51286
G1 X91.931 Y99.729 E2.53211
G1 X97.358 Y99.729 E2.81929
G1 X97.358 Y99.365 E2.83853
G1 X91.931 Y99.365 E3.12571
G1 X91.931 Y99.002 E3.14495
G1 X97.358 Y99.002 E3.43213
G1 X97.358 Y98.638 E3.45137
G1 X91.931 Y98.638 E3.73855
G1 X91.931 Y98.275 E3.75779
G1 X97.358 Y98.275 E4.04497
G1 X97.358 Y97.911 E4.06421
G1 X91.931 Y97.911 E4.35139
G1 X91.931 Y97.547 E4.37063
G1 X97.358 Y97.547 E4.65781
G1 X97.358 Y97.184 E4.67706
G1 X91.931 Y97.184 E4.96423
G1 X91.931 Y96.820 E4.98348
G1 X97.358 Y96.820 E5.27066
G1 X97.358 Y96.456 E5.28990
G1 X91.931 Y96.456 E5.57708
G1 X91.931 Y96.093 E5.59632
G1 X98.848 Y96.093 E5.96234
G1 X98.848 Y95.729 E5.98158
G1 X91.931 Y95.729 E6.34761
G1 X91.931 Y95.365 E6.36685
G1 X98.848 Y95.365 E6.73287
G1 X98.848 Y95.002 E6.75211
G1 X91.931 Y95.002 E7.11814
G1 X91.931 Y95.527 F7800.000
G1 X90.721 Y95.527 E7.22813 F1080.000
G1 X90.721 Y96.777 F7800.000
G1 X91.931 Y96.777 E7.33812 F1080.000
G1 X91.931 Y98.027 E7.45176
G1 X90.721 Y98.027 E7.56175
G1 X89.610 Y98.027 F7800.000
G1 X88.598 Y98.027 E7.65377 F1080.000
G1 X88.751 Y99.276 E7.76826
G1 X89.610 Y99.276 E7.84634
G1 X90.721 Y99.276 F7800.000
G1 X91.931 Y99.276 E7.95633 F1080.000
G1 X91.931 Y100.526 E8.06997
G1 X90.721 Y100.526 E8.17996
G1 X89.610 Y100.526 F7800.000
G1 X88.751 Y100.526 E8.25804 F1080.000
G1 X88.751 Y101.776 E8.37168
G1 X91.931 Y101.776 E8.66081
G1 F1800.000 E7.66081
G92 E0
G1 X89.610 Y96.777 F7800.000
G1 E1.00000 F1800.000
G1 X88.751 Y96.777 E1.07808 F1080.000
G1 X88.751 Y95.527 E1.19172
G1 X89.382 Y95.527 E1.24908
G1 F1800.000 E0.24908
G92 E0
G1 X111.771 Y95.527 F7800.000
G1 E1.00000 F1800.000
G1 X111.059 Y95.527 E1.06476 F1080.000
G1 X109.799 Y96.777 E1.22616
G1 X111.771 Y96.777 E1.40552
G1 X111.946 Y98.027 E1.52027
G1 X109.799 Y98.027 E1.71555
G1 X109.799 Y99.276 E1.82919
G1 X111.771 Y99.276 E2.00855
G1 X111.771 Y100.526 E2.12220
G1 X109.799 Y100.526 E2.30156
G1 X109.799 Y101.776 E2.41521
G1 X111.771 Y101.776 E2.59457
M106 S255
M104 S230 ; set temperature
G1 F1800.000 E1.59457
G92 E0
G1 Z0.575 F7800.000
G1 X98.848 Y96.327 F7800.000
G1 E1.00000 F1800.000
G1 X98.588 Y96.327 E1.00851 F645.490
G1 X97.816 Y95.177 F7800.000
G1 X97.291 Y95.177 E1.02570 F645.490
G1 X97.028 Y95.631 E1.04288
G1 X96.503 Y95.631 E1.06007
G1 X96.241 Y95.177 E1.07726
G1 X95.716 Y95.177 E1.09445
G1 X95.453 Y95.631 E1.11164
G1 X94.928 Y95.631 E1.12883
G1 X94.666 Y95.177 E1.14602
G1 X94.227 Y95.177 E1.16039
G1 X94.344 Y95.380 E1.16808
G1 X94.082 Y95.835 E1.18527
G1 X93.819 Y95.835 E1.19387
G1 X93.819 Y96.501 F7800.000
G1 X94.082 Y96.501 E1.20246 F645.490
G1 X94.344 Y96.955 E1.21965
G1 X94.082 Y97.410 E1.23684
G1 X93.819 Y97.410 E1.24543
G1 X93.819 Y98.076 F7800.000
G1 X94.082 Y98.076 E1.25403 F645.490
G1 X94.344 Y98.530 E1.27122
G1 X94.082 Y98.985 E1.28841
G1 X93.819 Y98.985 E1.29700
G1 X93.819 Y99.651 F7800.000
G1 X94.082 Y99.651 E1.30559 F645.490
G1 X94.344 Y100.105 E1.32278
G1 X94.082 Y100.560 E1.33997
G1 X93.819 Y100.560 E1.34857
G1 X93.819 Y101.226 F7800.000
G1 X94.082 Y101.226 E1.35716 F645.490
G1 X94.344 Y101.680 E1.37435
G1 X94.082 Y102.135 E1.39154
G1 X93.819 Y102.135 E1.40013
G1 X93.819 Y102.660 F7800.000
G1 X93.986 Y102.372 E1.41101 F645.490
G1 X94.511 Y102.372 E1.42820
G1 X94.773 Y102.827 E1.44539
G1 X95.298 Y102.827 E1.46257
G1 X95.561 Y102.372 E1.47976
G1 X96.086 Y102.372 E1.49695
G1 X96.348 Y102.827 E1.51414
G1 X96.873 Y102.827 E1.53133
G1 X97.136 Y102.372 E1.54852
G1 X97.661 Y102.372 E1.56571
G1 X97.923 Y102.827 E1.58290
G1 X98.321 Y102.827 E1.59593
G1 X98.148 Y102.527 E1.60727
G1 X98.411 Y102.072 E1.62446
G1 X98.673 Y102.072 E1.63306
G1 X98.673 Y101.852 E1.64027
G1 X98.298 Y101.852 E1.65255
G1 X98.036 Y102.306 E1.66974
G1 X97.511 Y102.306 E1.68693
G1 X97.248 Y101.852 E1.70412
G1 X97.173 Y101.852 E1.70657
G1 X97.173 Y101.331 E1.72361
G1 X96.911 Y101.331 E1.73220
G1 X96.648 Y100.877 E1.74939
G1 X96.911 Y100.422 E1.76658
G1 X97.173 Y100.422 E1.77517
G1 X97.173 Y99.756 E1.79697
G1 X96.911 Y99.756 E1.80556
G1 X96.648 Y99.302 E1.82275
G1 X96.911 Y98.847 E1.83994
G1 X97.173 Y98.847 E1.84853
