; generated by Slic3r 1.0.0RC3 on 2014-04-17 at 20:37:34

; layer_height = 0.25
; perimeters = 3
; top_solid_layers = 3
; bottom_solid_layers = 3
; fill_density = 0.4
; perimeter_speed = 50
; infill_speed = 60
; travel_speed = 130
; nozzle_diameter = 0.35
; filament_diameter = 1.75
; extrusion_multiplier = 1
; perimeters extrusion width = 0.35mm
; infill extrusion width = 0.39mm
; solid infill extrusion width = 0.39mm
; top infill extrusion width = 0.39mm
; support material extrusion width = 0.35mm
; first layer extrusion width = 0.70mm

G21 ; set units to millimeters
M107
M190 S100 ; wait for bed temperature to be reached
M104 S235 ; set temperature
G28 ; home all axes
G1 Z5 F5000 ; lift nozzle
M109 S235 ; wait for temperature to be reached
G90 ; use absolute coordinates
G92 E0
M82 ; use absolute distances for extrusion
G1 F1800.000 E-1.00000
G92 E0
G1 Z0.350 F7800.000
G1 X80.090 Y93.450 F7800.000
G1 E1.00000 F1800.000
G1 X81.300 Y92.730 E1.12803 F900.000
G1 X86.740 Y90.230 E1.67242
G1 X88.090 Y89.780 E1.80182
G1 X89.510 Y89.630 E1.93165
G1 X94.470 Y89.630 E2.38267
G1 X95.880 Y89.780 E2.51160
G1 X97.230 Y90.230 E2.64099
G1 X102.690 Y92.730 E3.18704
G1 X103.910 Y93.450 E3.31585
G1 X104.950 Y94.430 E3.44579
G1 X105.760 Y95.600 E3.57518
G1 X106.300 Y96.920 E3.70487
G1 X106.660 Y98.170 E3.82315
G1 X106.910 Y100.000 E3.99109
G1 X106.660 Y101.830 E4.15904
G1 X106.300 Y103.080 E4.27732
G1 X105.760 Y104.400 E4.40700
G1 X104.950 Y105.570 E4.53640
G1 X103.910 Y106.550 E4.66634
G1 X102.690 Y107.270 E4.79515
G1 X97.230 Y109.770 E5.34119
G1 X95.880 Y110.220 E5.47059
G1 X94.470 Y110.370 E5.59952
G1 X89.530 Y110.370 E6.04871
G1 X88.120 Y110.220 E6.17765
G1 X86.770 Y109.770 E6.30704
G1 X81.310 Y107.270 E6.85309
G1 X80.100 Y106.550 E6.98112
G1 X79.070 Y105.590 E7.10915
G1 X78.260 Y104.430 E7.23780
G1 X77.720 Y103.130 E7.36580
G1 X77.350 Y101.880 E7.48433
G1 X77.110 Y100.630 E7.60007
G1 X77.110 Y99.370 E7.71464
G1 X77.350 Y98.120 E7.83038
G1 X77.720 Y96.870 E7.94892
G1 X78.260 Y95.570 E8.07692
G1 X79.060 Y94.410 E8.20505
G1 X80.021 Y93.514 E8.32456
G1 F1800.000 E7.32456
G92 E0
G1 X82.807 Y96.216 F7800.000
G1 E1.00000 F1800.000
G1 X85.433 Y96.216 E1.23879 F900.000
G1 X85.663 Y96.121 E1.26139
G1 X86.818 Y94.966 E1.40987
G1 X87.140 Y94.966 E1.43914
G1 X87.430 Y94.798 E1.46965
G1 X87.714 Y94.304 E1.52143
G1 X88.730 Y93.716 E1.62820
G1 X94.733 Y93.716 E2.17405
G1 X95.117 Y93.785 E2.20950
G1 X95.600 Y93.965 E2.25639
G1 X95.936 Y94.163 E2.29184
G1 X98.228 Y96.138 E2.56696
G1 X98.439 Y96.216 E2.58738
G1 X100.409 Y96.216 E2.76655
G1 X101.084 Y96.441 E2.83126
G1 X101.840 Y97.010 E2.91724
G1 X102.244 Y97.596 E2.98195
G1 X102.926 Y99.963 E3.20595
G1 X102.739 Y100.977 E3.29968
G1 X102.535 Y101.247 E3.33049
G1 X102.471 Y101.440 E3.34897
G1 X102.471 Y102.508 E3.44609
G1 X101.190 Y103.790 E3.61085
G1 X98.561 Y103.790 E3.84991
G1 X98.331 Y103.885 E3.87251
G1 X97.176 Y105.039 E4.02099
G1 X97.111 Y105.039 E4.02695
G1 X96.881 Y105.134 E4.04955
G1 X95.727 Y106.289 E4.19803
G1 X89.274 Y106.289 E4.78474
G1 X88.891 Y106.220 E4.82017
G1 X88.408 Y106.041 E4.86702
G1 X88.072 Y105.843 E4.90244
G1 X85.777 Y103.868 E5.17782
G1 X85.566 Y103.790 E5.19822
G1 X83.597 Y103.790 E5.37730
G1 X82.926 Y103.567 E5.44153
G1 X82.174 Y103.006 E5.52686
G1 X81.769 Y102.428 E5.59109
G1 X81.064 Y100.063 E5.81544
G1 X81.244 Y99.043 E5.90966
G1 X81.463 Y98.750 E5.94288
G1 X81.526 Y98.558 E5.96124
G1 X81.526 Y97.497 E6.05775
G1 X82.741 Y96.282 E6.21398
G1 X83.066 Y96.841 F7800.000
G1 X85.692 Y96.841 E6.45277 F900.000
G1 X85.922 Y96.746 E6.47537
G1 X87.077 Y95.591 E6.62385
G1 X87.501 Y95.591 E6.66247
G1 X87.792 Y95.423 E6.69298
G1 X88.172 Y94.761 E6.76237
G1 X88.898 Y94.341 E6.83864
G1 X94.678 Y94.341 E7.36418
G1 X94.952 Y94.390 E7.38950
G1 X95.331 Y94.531 E7.42625
G1 X95.570 Y94.673 E7.45157
G1 X97.730 Y96.533 E7.71074
G1 X97.742 Y96.579 E7.71504
G1 X98.080 Y96.841 E7.75393
G1 X100.308 Y96.841 E7.95653
G1 X100.790 Y97.002 E8.00275
G1 X101.383 Y97.448 E8.07024
G1 X101.671 Y97.867 E8.11646
G1 X102.285 Y99.995 E8.31783
G1 X102.151 Y100.719 E8.38478
G1 X101.910 Y101.039 E8.42119
G1 X101.846 Y101.231 E8.43968
G1 X101.846 Y102.250 E8.53225
G1 X100.931 Y103.165 E8.64993
G1 X98.302 Y103.165 E8.88899
G1 X98.072 Y103.260 E8.91160
G1 X96.917 Y104.414 E9.06008
G1 X96.852 Y104.414 E9.06603
G1 X96.622 Y104.510 E9.08863
G1 X95.468 Y105.664 E9.23711
G1 X89.330 Y105.664 E9.79523
G1 X89.056 Y105.615 E9.82053
G1 X88.677 Y105.475 E9.85727
G1 X88.438 Y105.333 E9.88257
G1 X86.276 Y103.473 E10.14183
G1 X86.264 Y103.427 E10.14622
G1 X85.926 Y103.165 E10.18509
G1 X83.698 Y103.165 E10.38774
G1 X83.219 Y103.006 E10.43362
G1 X82.628 Y102.566 E10.50060
G1 X82.339 Y102.152 E10.54648
G1 X81.705 Y100.026 E10.74819
G1 X81.834 Y99.298 E10.81549
G1 X82.088 Y98.957 E10.85410
G1 X82.151 Y98.766 E10.87245
G1 X82.151 Y97.756 E10.96427
G1 X83.000 Y96.907 E11.07343
G1 X83.325 Y97.466 F7800.000
G1 X86.420 Y97.466 E11.35488 F900.000
G1 X86.786 Y97.099 E11.40195
G1 X86.786 Y96.765 E11.43238
G1 X87.335 Y96.216 E11.50299
G1 X87.863 Y96.216 E11.55095
G1 X88.153 Y96.048 E11.58146
G1 X88.630 Y95.218 E11.66848
G1 X89.066 Y94.966 E11.71424
G1 X94.622 Y94.966 E12.21945
G1 X94.786 Y94.996 E12.23464
G1 X95.061 Y95.097 E12.26127
G1 X95.205 Y95.182 E12.27646
G1 X97.174 Y96.878 E12.51275
G1 X97.257 Y97.204 E12.54328
G1 X97.595 Y97.466 E12.58217
G1 X100.206 Y97.466 E12.81957
G1 X100.495 Y97.562 E12.84730
G1 X100.926 Y97.886 E12.89631
G1 X101.099 Y98.137 E12.92404
G1 X101.643 Y100.026 E13.10277
G1 X101.563 Y100.461 E13.14294
G1 X101.286 Y100.830 E13.18495
G1 X101.221 Y101.023 E13.20344
G1 X101.221 Y101.991 E13.29147
G1 X100.672 Y102.540 E13.36207
G1 X97.574 Y102.540 E13.64380
G1 X97.208 Y102.906 E13.69087
G1 X97.208 Y103.240 E13.72130
G1 X96.659 Y103.790 E13.79191
G1 X96.124 Y103.790 E13.84052
G1 X95.758 Y104.156 E13.88760
G1 X95.758 Y104.490 E13.91803
G1 X95.209 Y105.039 E13.98863
G1 X89.385 Y105.039 E14.51815
G1 X89.221 Y105.010 E14.53334
G1 X88.947 Y104.908 E14.55995
G1 X88.803 Y104.823 E14.57513
G1 X86.833 Y103.127 E14.81151
G1 X86.749 Y102.802 E14.84211
G1 X86.411 Y102.540 E14.88098
G1 X83.799 Y102.540 E15.11847
G1 X83.511 Y102.444 E15.14600
G1 X83.083 Y102.125 E15.19463
G1 X82.909 Y101.877 E15.22216
G1 X82.346 Y99.990 E15.40124
G1 X82.423 Y99.552 E15.44162
G1 X82.712 Y99.164 E15.48561
G1 X82.776 Y98.973 E15.50396
G1 X82.776 Y98.015 E15.59109
G1 X83.259 Y97.532 E15.65317
G1 X83.584 Y98.090 F7800.000
G1 X86.199 Y98.090 E15.89099 F900.000
G1 X86.321 Y98.144 E15.90306
G1 X86.610 Y98.465 E15.94233
G1 X87.411 Y98.157 E16.02041
G1 X87.411 Y97.024 E16.12348
G1 X87.594 Y96.841 E16.14702
G1 X88.437 Y96.841 E16.22369
G1 X88.804 Y96.473 E16.27085
G1 X88.803 Y96.171 E16.29830
G1 X89.088 Y95.675 E16.35038
G1 X89.234 Y95.591 E16.36564
G1 X94.566 Y95.591 E16.85053
G1 X94.839 Y95.692 E16.87700
G1 X96.617 Y97.224 E17.09041
G1 X96.666 Y97.414 E17.10822
G1 X96.614 Y97.554 E17.12185
G1 X96.987 Y98.090 E17.18124
G1 X100.104 Y98.090 E17.46472
G1 X100.201 Y98.123 E17.47397
G1 X100.469 Y98.324 E17.50448
G1 X100.527 Y98.408 E17.51373
G1 X101.002 Y100.058 E17.66983
G1 X100.976 Y100.203 E17.68322
G1 X100.661 Y100.621 E17.73083
G1 X100.596 Y100.814 E17.74932
G1 X100.596 Y101.732 E17.83280
G1 X100.413 Y101.915 E17.85633
G1 X97.799 Y101.915 E18.09402
G1 X97.678 Y101.861 E18.10610
G1 X97.385 Y101.535 E18.14594
G1 X96.583 Y101.843 E18.22405
G1 X96.583 Y102.982 E18.32757
G1 X96.400 Y103.165 E18.35111
G1 X95.499 Y103.165 E18.43301
G1 X95.133 Y103.531 E18.48008
G1 X95.133 Y104.231 E18.54379
G1 X94.950 Y104.414 E18.56733
G1 X89.441 Y104.414 E19.06825
G1 X89.168 Y104.313 E19.09470
G1 X87.389 Y102.782 E19.30821
G1 X87.340 Y102.592 E19.32603
G1 X87.392 Y102.451 E19.33969
G1 X87.019 Y101.915 E19.39907
G1 X83.900 Y101.915 E19.68272
G1 X83.804 Y101.883 E19.69190
G1 X83.537 Y101.684 E19.72218
G1 X83.479 Y101.601 E19.73135
G1 X82.987 Y99.953 E19.88779
G1 X83.013 Y99.807 E19.90125
G1 X83.337 Y99.372 E19.95063
G1 X83.401 Y99.180 E19.96898
G1 X83.401 Y98.273 E20.05142
G1 X83.518 Y98.157 E20.06643
G1 F1800.000 E19.06643
G92 E0
G1 X93.368 Y99.758 F7800.000
G1 E1.00000 F1800.000
G1 X93.421 Y99.521 E1.02208 F720.000
G1 X93.545 Y99.222 E1.05148
G1 X93.725 Y98.953 E1.08090
G1 X93.953 Y98.725 E1.11031
G1 X94.222 Y98.545 E1.13972
G1 X94.521 Y98.421 E1.16912
G1 X94.838 Y98.358 E1.19853
G1 X95.162 Y98.358 E1.22795
G1 X95.479 Y98.421 E1.25736
G1 X95.778 Y98.545 E1.28676
G1 X96.047 Y98.725 E1.31617
G1 X96.275 Y98.953 E1.34558
G1 X96.455 Y99.222 E1.37500
G1 X96.579 Y99.521 E1.40440
G1 X96.642 Y99.838 E1.43382
G1 X96.642 Y100.162 E1.46322
G1 X96.579 Y100.479 E1.49264
G1 X96.455 Y100.778 E1.52204
G1 X96.275 Y101.047 E1.55146
G1 X96.047 Y101.275 E1.58086
G1 X95.778 Y101.455 E1.61027
G1 X95.479 Y101.579 E1.63968
G1 X95.162 Y101.642 E1.66909
G1 X94.838 Y101.642 E1.69850
G1 X94.521 Y101.579 E1.72791
G1 X94.222 Y101.455 E1.75732
G1 X93.953 Y101.275 E1.78673
G1 X93.725 Y101.047 E1.81614
G1 X93.545 Y100.778 E1.84556
G1 X93.421 Y100.479 E1.87496
G1 X93.358 Y100.162 E1.90438
G1 X93.357 Y99.851 E1.93262
G1 X93.594 Y99.671 F7800.000
G1 X94.006 Y99.751 F7800.000
G1 X94.074 Y99.562 E1.95088 F720.000
G1 X94.177 Y99.390 E1.96913
G1 X94.312 Y99.241 E1.98742
G1 X94.473 Y99.121 E2.00567
G1 X94.655 Y99.035 E2.02394
G1 X94.850 Y98.986 E2.04221
G1 X95.050 Y98.976 E2.06048
G1 X95.249 Y99.006 E2.07874
G1 X95.438 Y99.074 E2.09702
G1 X95.569 Y99.148 E2.11073
G1 X95.725 Y99.275 E2.12900
G1 X95.852 Y99.431 E2.14726
G1 X95.947 Y99.608 E2.16553
G1 X96.005 Y99.800 E2.18380
G1 X96.025 Y100.000 E2.20206
G1 X96.005 Y100.200 E2.22033
G1 X95.947 Y100.392 E2.23860
G1 X95.852 Y100.569 E2.25686
G1 X95.725 Y100.725 E2.27513
G1 X95.569 Y100.852 E2.29340
G1 X95.392 Y100.947 E2.31167
G1 X95.200 Y101.005 E2.32994
G1 X95.000 Y101.025 E2.34820
G1 X94.800 Y101.005 E2.36647
G1 X94.608 Y100.947 E2.38474
G1 X94.431 Y100.852 E2.40301
G1 X94.275 Y100.725 E2.42128
G1 X94.148 Y100.569 E2.43955
G1 X94.053 Y100.392 E2.45781
G1 X93.995 Y100.200 E2.47608
G1 X93.975 Y100.000 E2.49435
G1 X93.987 Y99.843 E2.50869
G1 X94.605 Y99.941 F7800.000
G1 X94.647 Y99.812 E2.52110 F720.000
G1 X94.746 Y99.691 E2.53531
G1 X94.884 Y99.617 E2.54948
G1 X95.039 Y99.602 E2.56367
G1 X95.171 Y99.639 E2.57610
G1 X95.296 Y99.731 E2.59027
G1 X95.376 Y99.866 E2.60449
G1 X95.399 Y100.019 E2.61863
G1 X95.361 Y100.171 E2.63284
G1 X95.283 Y100.283 E2.64525
G1 X95.153 Y100.369 E2.65944
G1 X95.000 Y100.400 E2.67362
G1 X94.865 Y100.376 E2.68605
G1 X94.732 Y100.296 E2.70022
G1 X94.639 Y100.171 E2.71440
G1 X94.602 Y100.035 E2.72723
G1 F1800.000 E1.72723
G92 E0
G1 X90.650 Y100.000 F7800.000
G1 E1.00000 F1800.000
G1 X90.618 Y100.322 E1.02941 F720.000
G1 X90.524 Y100.631 E1.05882
G1 X90.372 Y100.917 E1.08823
G1 X90.167 Y101.167 E1.11763
G1 X89.917 Y101.372 E1.14704
G1 X89.631 Y101.524 E1.17646
G1 X89.322 Y101.618 E1.20586
G1 X89.000 Y101.650 E1.23527
G1 X88.678 Y101.618 E1.26469
G1 X88.369 Y101.524 E1.29410
G1 X88.083 Y101.372 E1.32351
G1 X87.833 Y101.167 E1.35292
G1 X87.675 Y100.983 E1.37499
G1 X87.509 Y100.705 E1.40440
G1 X87.400 Y100.401 E1.43381
G1 X87.352 Y100.081 E1.46322
G1 X87.368 Y99.758 E1.49263
G1 X87.447 Y99.444 E1.52204
G1 X87.585 Y99.152 E1.55145
G1 X87.778 Y98.892 E1.58086
G1 X88.017 Y98.675 E1.61027
G1 X88.295 Y98.509 E1.63968
G1 X88.599 Y98.400 E1.66909
G1 X88.919 Y98.352 E1.69850
G1 X89.242 Y98.368 E1.72791
G1 X89.556 Y98.447 E1.75732
G1 X89.848 Y98.585 E1.78673
G1 X90.108 Y98.777 E1.81613
G1 X90.325 Y99.017 E1.84555
G1 X90.491 Y99.295 E1.87496
G1 X90.600 Y99.599 E1.90436
G1 X90.647 Y99.906 E1.93262
G1 X90.366 Y100.155 F7800.000
G1 X90.020 Y100.100 F7800.000
G1 X89.981 Y100.298 E1.95091 F720.000
G1 X89.904 Y100.483 E1.96915
G1 X89.792 Y100.650 E1.98744
G1 X89.650 Y100.792 E2.00570
G1 X89.483 Y100.904 E2.02397
G1 X89.298 Y100.981 E2.04223
G1 X89.100 Y101.020 E2.06050
G1 X88.900 Y101.020 E2.07877
G1 X88.702 Y100.981 E2.09704
G1 X88.517 Y100.904 E2.11530
G1 X88.350 Y100.792 E2.13357
G1 X88.208 Y100.650 E2.15184
G1 X88.121 Y100.527 E2.16555
G1 X88.035 Y100.345 E2.18382
G1 X87.986 Y100.150 E2.20209
G1 X87.976 Y99.950 E2.22035
G1 X88.006 Y99.751 E2.23862
G1 X88.074 Y99.562 E2.25689
G1 X88.177 Y99.390 E2.27516
G1 X88.312 Y99.241 E2.29342
G1 X88.473 Y99.121 E2.31169
G1 X88.655 Y99.035 E2.32996
G1 X88.850 Y98.986 E2.34823
G1 X89.050 Y98.976 E2.36650
G1 X89.249 Y99.006 E2.38476
G1 X89.438 Y99.074 E2.40303
G1 X89.610 Y99.177 E2.42130
G1 X89.759 Y99.312 E2.43956
G1 X89.879 Y99.473 E2.45783
G1 X89.965 Y99.655 E2.47611
G1 X90.014 Y99.850 E2.49437
G1 X90.025 Y100.007 E2.50870
G1 X89.400 Y100.000 F7800.000
G1 X89.376 Y100.134 E2.52110 F720.000
G1 X89.296 Y100.269 E2.53531
G1 X89.171 Y100.361 E2.54949
G1 X89.020 Y100.399 E2.56367
G1 X88.884 Y100.383 E2.57610
G1 X88.746 Y100.309 E2.59028
G1 X88.647 Y100.188 E2.60447
G1 X88.602 Y100.039 E2.61864
G1 X88.612 Y99.903 E2.63107
G1 X88.679 Y99.762 E2.64525
G1 X88.794 Y99.657 E2.65944
G1 X88.941 Y99.605 E2.67362
G1 X89.097 Y99.612 E2.68779
G1 X89.222 Y99.668 E2.70024
G1 X89.332 Y99.778 E2.71442
G1 X89.389 Y99.907 E2.72723
G1 F1800.000 E1.72723
G92 E0
G1 X88.074 Y97.503 F7800.000
G1 E1.00000 F1800.000
G1 X95.926 Y97.503 E1.71403 F1080.000
G1 X94.475 Y96.253 E1.88815
G1 X89.520 Y96.253 E2.33875
G1 X90.976 Y98.753 E2.60177
G1 X93.024 Y98.753 E2.78804
G1 X92.659 Y100.003 E2.90644
G1 X91.341 Y100.003 E3.02622
G1 X90.973 Y101.252 E3.14470
G1 X93.027 Y101.252 E3.33148
G1 F1800.000 E2.33148
G92 E0
G1 X94.471 Y103.752 F7800.000
G1 E1.00000 F1800.000
G1 X89.532 Y103.752 E1.44908 F1080.000
G1 X88.080 Y102.502 E1.62330
G1 X95.920 Y102.502 E2.33626
G1 F1800.000 E1.33626
G92 E0
G1 X99.934 Y101.252 F7800.000
G1 E1.00000 F1800.000
G1 X98.021 Y101.252 E1.17389 F1080.000
G1 X98.153 Y100.003 E1.28815
G1 X100.297 Y100.003 E1.48313
G1 X99.937 Y98.753 E1.60140
G1 X98.023 Y98.753 E1.77543
G1 F1800.000 E0.77543
G92 E0
G1 X85.979 Y101.252 F7800.000
G1 E1.00000 F1800.000
G1 X84.066 Y101.252 E1.17389 F1080.000
G1 X83.693 Y100.003 E1.29248
G1 X85.847 Y100.003 E1.48836
G1 X85.977 Y98.753 E1.60261
G1 X84.063 Y98.753 E1.77664
M106 S255
M104 S230 ; set temperature
G1 F1800.000 E0.77664
G92 E0
G1 Z0.525 F7800.000
G1 X84.195 Y100.750 F7800.000
G1 E1.00000 F1800.000
G1 X85.545 Y100.750 E1.03439 F600.000
G1 F1800.000 E0.03439
G92 E0
G1 X86.329 Y97.594 F7800.000
G1 E1.00000 F1800.000
G1 X85.172 Y97.851 E1.03018 F600.000
G1 X84.724 Y98.090 E1.04312
G1 X84.376 Y98.376 E1.05459
G1 X84.090 Y98.724 E1.06605
G1 X83.878 Y99.121 E1.07752
G1 X83.747 Y99.552 E1.08898
G1 X83.703 Y100.000 E1.10045
G1 X83.747 Y100.448 E1.11192
G1 X83.878 Y100.879 E1.12338
G1 X84.090 Y101.276 E1.13485
G1 X84.376 Y101.624 E1.14632
G1 X84.724 Y101.910 E1.15778
G1 X85.172 Y102.149 E1.17072
G1 X86.329 Y102.406 E1.20090
G1 X86.103 Y101.789 E1.21765
G1 X85.956 Y101.202 E1.23305
G1 X85.867 Y100.604 E1.24845
G1 X85.837 Y100.000 E1.26385
G1 X85.867 Y99.396 E1.27925
G1 X85.956 Y98.798 E1.29465
G1 X86.103 Y98.211 E1.31005
G1 X86.329 Y97.594 E1.32680
G1 F1800.000 E0.32680
G92 E0
G1 X90.666 Y97.900 F7800.000
G1 E1.00000 F1800.000
G1 X93.334 Y97.900 E1.06793 F600.000
G1 F1800.000 E0.06793
G92 E0
G1 X92.018 Y95.519 F7800.000
G1 E1.00000 F1800.000
G1 X91.358 Y95.563 E1.01687 F600.000
G1 X90.911 Y95.652 E1.02846
G1 X90.490 Y95.780 E1.03967
G1 X90.067 Y95.955 E1.05133
G1 X89.525 Y96.262 E1.06719
G1 X89.156 Y96.535 E1.07887
G1 X87.136 Y98.367 E1.14832
G1 X87.208 Y98.494 E1.15205
G1 X87.337 Y98.337 E1.15723
G1 X87.693 Y98.045 E1.16897
G1 X88.100 Y97.827 E1.18071
G1 X88.541 Y97.694 E1.19244
G1 X88.913 Y97.652 E1.20198
G1 X89.459 Y97.694 E1.21592
G1 X89.900 Y97.827 E1.22765
