; generated by Slic3r 1.0.0RC3 on 2014-04-17 at 20:52:33

; layer_height = 0.25
; perimeters = 3
; top_solid_layers = 3
; bottom_solid_layers = 3
; fill_density = 0.4
; perimeter_speed = 50
; infill_speed = 60
; travel_speed = 130
; nozzle_diameter = 0.35
; filament_diameter = 1.75
; extrusion_multiplier = 1
; perimeters extrusion width = 0.35mm
; infill extrusion width = 0.39mm
; solid infill extrusion width = 0.39mm
; top infill extrusion width = 0.39mm
; support material extrusion width = 0.35mm
; first layer extrusion width = 0.70mm

G21 ; set units to millimeters
M107
M190 S100 ; wait for bed temperature to be reached
M104 S235 ; set temperature
G28 ; home all axes
G1 Z5 F5000 ; lift nozzle
M109 S235 ; wait for temperature to be reached
G90 ; use absolute coordinates
G92 E0
M82 ; use absolute distances for extrusion
G1 F1800.000 E-1.00000
G92 E0
G1 Z0.350 F7800.000
G1 X85.660 Y77.320 F7800.000
G1 E1.00000 F1800.000
G1 X86.600 Y76.290 E1.12680 F900.000
G1 X87.740 Y75.480 E1.25396
G1 X96.610 Y70.490 E2.17937
G1 X98.180 Y69.850 E2.33354
G1 X99.860 Y69.640 E2.48749
G1 X100.040 Y69.640 E2.50386
G1 X101.710 Y69.850 E2.65691
G1 X103.260 Y70.470 E2.80870
G1 X112.220 Y75.460 E3.74126
G1 X113.370 Y76.270 E3.86916
G1 X114.320 Y77.310 E3.99725
G1 X115.040 Y78.520 E4.12528
G1 X115.480 Y79.850 E4.25266
G1 X115.620 Y81.250 E4.38060
G1 X115.610 Y85.400 E4.75795
G1 X113.370 Y122.890 E8.17298
G1 X113.130 Y124.290 E8.30214
G1 X112.600 Y125.620 E8.43233
G1 X111.800 Y126.790 E8.56121
G1 X110.760 Y127.770 E8.69114
G1 X109.530 Y128.510 E8.82167
G1 X108.180 Y128.960 E8.95106
G1 X106.760 Y129.110 E9.08090
G1 X93.230 Y129.110 E10.31118
G1 X91.810 Y128.960 E10.44102
G1 X90.460 Y128.510 E10.57041
G1 X89.230 Y127.770 E10.70094
G1 X88.190 Y126.790 E10.83087
G1 X87.390 Y125.620 E10.95975
G1 X86.860 Y124.290 E11.08994
G1 X86.620 Y122.890 E11.21910
G1 X84.380 Y85.400 E14.63413
G1 X84.370 Y81.250 E15.01149
G1 X84.510 Y79.860 E15.13852
G1 X84.950 Y78.530 E15.26590
G1 X85.613 Y77.401 E15.38494
G1 F1800.000 E14.38494
G92 E0
G1 X88.786 Y79.872 F7800.000
G1 E1.00000 F1800.000
G1 X89.606 Y79.052 E1.10548 F900.000
G1 X90.410 Y78.719 E1.18460
G1 X95.536 Y78.719 E1.65071
G1 X95.836 Y78.536 E1.68262
G1 X97.792 Y74.740 E2.07100
G1 X98.203 Y74.299 E2.12578
G1 X98.885 Y73.883 E2.19843
G1 X99.465 Y73.720 E2.25322
G1 X101.300 Y73.720 E2.42003
G1 X102.581 Y75.001 E2.58479
G1 X102.581 Y75.621 E2.64121
G1 X102.672 Y75.847 E2.66334
G1 X102.766 Y75.944 E2.67564
G1 X104.025 Y78.238 E2.91358
G1 X104.393 Y78.624 E2.96203
G1 X104.623 Y78.719 E2.98463
G1 X110.256 Y78.719 E3.49687
G1 X111.537 Y80.000 E3.66162
G1 X111.537 Y86.261 E4.23095
G1 X110.256 Y87.542 E4.39570
G1 X105.553 Y87.542 E4.82332
G1 X105.187 Y87.908 E4.87039
G1 X105.187 Y91.200 E5.16965
G1 X105.135 Y91.251 E5.17630
G1 X105.061 Y91.623 E5.21077
G1 X105.186 Y91.924 E5.24040
G1 X105.184 Y111.831 E7.05051
G1 X105.053 Y112.149 E7.08178
G1 X105.127 Y112.520 E7.11625
G1 X105.187 Y112.581 E7.12401
G1 X105.187 Y114.596 E7.30729
G1 X105.553 Y114.962 E7.35437
G1 X107.340 Y114.962 E7.51685
G1 X108.144 Y115.295 E7.59596
G1 X108.964 Y116.116 E7.70144
G1 X109.297 Y116.920 E7.78056
G1 X109.297 Y123.755 E8.40207
G1 X108.016 Y125.036 E8.56682
G1 X92.660 Y125.036 E9.96313
G1 X91.856 Y124.703 E10.04225
G1 X91.036 Y123.883 E10.14773
G1 X90.703 Y123.079 E10.22685
G1 X90.703 Y116.244 E10.84836
G1 X91.984 Y114.962 E11.01311
G1 X94.447 Y114.962 E11.23705
G1 X94.813 Y114.596 E11.28412
G1 X94.813 Y112.581 E11.46741
G1 X94.878 Y112.515 E11.47581
G1 X94.967 Y112.204 E11.50522
G1 X94.728 Y111.171 E11.60166
G1 X94.822 Y110.755 E11.64049
G1 X94.822 Y93.000 E13.25491
G1 X94.728 Y92.583 E13.29374
G1 X94.962 Y91.571 E13.38824
G1 X94.873 Y91.260 E13.41765
G1 X94.813 Y91.200 E13.42543
G1 X94.813 Y87.908 E13.72468
G1 X94.447 Y87.542 E13.77175
G1 X90.410 Y87.542 E14.13883
G1 X89.606 Y87.209 E14.21794
G1 X88.786 Y86.389 E14.32342
G1 X88.453 Y85.585 E14.40254
G1 X88.453 Y80.676 E14.84895
G1 X88.750 Y79.959 E14.91954
G1 X89.316 Y80.226 F7800.000
G1 X89.960 Y79.582 E15.00242 F900.000
G1 X90.534 Y79.344 E15.05893
G1 X95.917 Y79.344 E15.54838
G1 X96.217 Y79.161 E15.58029
G1 X97.020 Y77.602 E15.73979
G1 X97.158 Y77.453 E15.75825
G1 X97.245 Y77.220 E15.78085
G1 X97.243 Y77.169 E15.78556
G1 X98.308 Y75.102 E15.99693
G1 X98.602 Y74.787 E16.03606
G1 X99.137 Y74.461 E16.09306
G1 X99.551 Y74.345 E16.13219
G1 X101.041 Y74.345 E16.26765
G1 X101.956 Y75.260 E16.38533
G1 X101.956 Y75.874 E16.44122
G1 X102.047 Y76.100 E16.46334
G1 X102.259 Y76.319 E16.49101
G1 X103.407 Y78.411 E16.70807
G1 X103.483 Y78.597 E16.72629
G1 X104.134 Y79.249 E16.81009
G1 X104.364 Y79.344 E16.83269
G1 X109.997 Y79.344 E17.34493
G1 X110.912 Y80.259 E17.46261
G1 X110.912 Y86.002 E17.98486
G1 X109.997 Y86.918 E18.10254
G1 X104.928 Y86.918 E18.56345
G1 X104.562 Y87.284 E18.61052
G1 X104.562 Y90.941 E18.94306
G1 X104.398 Y91.105 E18.96414
G1 X104.324 Y91.476 E18.99861
G1 X104.561 Y92.048 E19.05490
G1 X104.561 Y94.210 E19.25142
G1 X104.542 Y94.254 E19.25584
G1 X104.542 Y94.503 E19.27844
G1 X104.561 Y94.548 E19.28286
G1 X104.561 Y96.709 E19.47938
G1 X104.542 Y96.754 E19.48379
G1 X104.542 Y97.003 E19.50640
G1 X104.561 Y97.048 E19.51081
G1 X104.561 Y99.209 E19.70733
G1 X104.542 Y99.254 E19.71175
G1 X104.542 Y99.502 E19.73436
G1 X104.561 Y99.547 E19.73877
G1 X104.560 Y101.708 E19.93529
G1 X104.542 Y101.753 E19.93971
G1 X104.542 Y102.002 E19.96231
G1 X104.560 Y102.047 E19.96673
G1 X104.560 Y104.208 E20.16325
G1 X104.542 Y104.253 E20.16766
G1 X104.542 Y104.501 E20.19027
G1 X104.560 Y104.546 E20.19468
G1 X104.560 Y106.707 E20.39120
G1 X104.541 Y106.752 E20.39562
G1 X104.541 Y107.001 E20.41822
G1 X104.560 Y107.046 E20.42264
G1 X104.560 Y109.207 E20.61916
G1 X104.541 Y109.252 E20.62357
G1 X104.541 Y109.500 E20.64618
G1 X104.560 Y109.545 E20.65059
G1 X104.560 Y111.707 E20.84711
G1 X104.316 Y112.295 E20.90505
G1 X104.390 Y112.667 E20.93952
G1 X104.562 Y112.840 E20.96171
G1 X104.562 Y115.221 E21.17828
G1 X104.928 Y115.587 E21.22535
G1 X107.216 Y115.587 E21.43335
G1 X107.790 Y115.825 E21.48986
G1 X108.434 Y116.470 E21.57274
G1 X108.672 Y117.044 E21.62925
G1 X108.672 Y119.205 E21.82577
G1 X108.654 Y119.250 E21.83019
G1 X108.654 Y119.499 E21.85279
G1 X108.672 Y119.543 E21.85721
G1 X108.672 Y123.496 E22.21660
G1 X107.757 Y124.411 E22.33428
G1 X92.784 Y124.411 E23.69575
G1 X92.210 Y124.173 E23.75226
G1 X91.566 Y123.529 E23.83514
G1 X91.328 Y122.954 E23.89165
G1 X91.328 Y120.793 E24.08817
G1 X91.346 Y120.748 E24.09259
G1 X91.346 Y120.500 E24.11519
G1 X91.328 Y120.455 E24.11961
G1 X91.328 Y116.502 E24.47899
G1 X92.243 Y115.587 E24.59667
G1 X95.072 Y115.587 E24.85390
G1 X95.438 Y115.221 E24.90097
G1 X95.438 Y112.840 E25.11754
G1 X95.565 Y112.712 E25.13392
G1 X95.654 Y112.401 E25.16333
G1 X95.369 Y111.169 E25.27830
G1 X95.475 Y110.699 E25.32218
G1 X95.459 Y110.506 E25.33978
G1 X95.438 Y110.457 E25.34463
G1 X95.438 Y108.295 E25.54115
G1 X95.457 Y108.251 E25.54556
G1 X95.457 Y108.002 E25.56817
G1 X95.438 Y107.957 E25.57258
G1 X95.438 Y105.796 E25.76910
G1 X95.457 Y105.751 E25.77352
G1 X95.457 Y105.502 E25.79612
G1 X95.438 Y105.457 E25.80054
G1 X95.438 Y103.296 E25.99706
G1 X95.457 Y103.251 E26.00148
G1 X95.457 Y103.003 E26.02408
G1 X95.438 Y102.958 E26.02850
G1 X95.438 Y100.797 E26.22502
G1 X95.457 Y100.752 E26.22943
G1 X95.457 Y100.503 E26.25204
G1 X95.438 Y100.458 E26.25645
G1 X95.438 Y98.297 E26.45297
G1 X95.457 Y98.252 E26.45739
G1 X95.457 Y98.004 E26.47999
G1 X95.438 Y97.959 E26.48441
G1 X95.438 Y95.798 E26.68093
G1 X95.457 Y95.753 E26.68534
G1 X95.457 Y95.504 E26.70795
G1 X95.438 Y95.459 E26.71237
G1 X95.438 Y93.298 E26.90888
G1 X95.459 Y93.249 E26.91373
G1 X95.475 Y93.056 E26.93133
G1 X95.369 Y92.585 E26.97521
G1 X95.649 Y91.374 E27.08824
G1 X95.560 Y91.063 E27.11765
G1 X95.438 Y90.941 E27.13341
G1 X95.438 Y87.284 E27.46595
G1 X95.072 Y86.918 E27.51302
G1 X90.534 Y86.918 E27.92561
G1 X89.960 Y86.680 E27.98212
G1 X89.316 Y86.035 E28.06500
G1 X89.078 Y85.461 E28.12151
G1 X89.078 Y83.300 E28.31803
G1 X89.096 Y83.255 E28.32245
G1 X89.096 Y83.006 E28.34505
G1 X89.078 Y82.961 E28.34947
G1 X89.078 Y80.800 E28.54599
G1 X89.280 Y80.313 E28.59398
G1 X89.845 Y80.580 F7800.000
G1 X90.314 Y80.111 E28.65425 F900.000
G1 X90.659 Y79.969 E28.68816
G1 X96.298 Y79.969 E29.20095
G1 X96.598 Y79.786 E29.23286
G1 X97.536 Y77.965 E29.41917
G1 X97.792 Y77.690 E29.45334
G1 X97.879 Y77.457 E29.47594
G1 X97.874 Y77.310 E29.48932
G1 X98.824 Y75.465 E29.67801
G1 X99.000 Y75.276 E29.70149
G1 X99.389 Y75.039 E29.74284
G1 X99.637 Y74.970 E29.76631
G1 X100.782 Y74.970 E29.87041
G1 X101.331 Y75.519 E29.94102
G1 X101.331 Y76.176 E30.00080
G1 X101.495 Y76.464 E30.03092
G1 X101.576 Y76.512 E30.03948
G1 X101.751 Y76.693 E30.06239
G1 X102.760 Y78.530 E30.25293
G1 X102.758 Y78.616 E30.26080
G1 X102.853 Y78.852 E30.28388
G1 X103.270 Y79.268 E30.33742
G1 X103.270 Y79.603 E30.36785
G1 X103.636 Y79.969 E30.41492
G1 X109.738 Y79.969 E30.96982
G1 X110.287 Y80.518 E31.04042
G1 X110.287 Y85.744 E31.51561
G1 X109.738 Y86.293 E31.58622
G1 X103.884 Y86.293 E32.11857
G1 X103.513 Y86.848 E32.17931
G1 X103.742 Y87.404 E32.23397
G1 X103.937 Y87.598 E32.25903
G1 X103.937 Y90.682 E32.53941
G1 X103.742 Y90.877 E32.56447
G1 X103.647 Y91.106 E32.58707
G1 X103.647 Y91.547 E32.62716
G1 X103.742 Y91.777 E32.64977
G1 X103.794 Y91.828 E32.65634
G1 X103.936 Y92.173 E32.69025
G1 X103.936 Y94.085 E32.86417
G1 X103.866 Y94.254 E32.88082
G1 X103.866 Y94.503 E32.90342
G1 X103.936 Y94.672 E32.92007
G1 X103.936 Y96.585 E33.09399
G1 X103.866 Y96.754 E33.11064
G1 X103.866 Y97.003 E33.13324
G1 X103.936 Y97.172 E33.14989
G1 X103.936 Y99.084 E33.32380
G1 X103.866 Y99.254 E33.34046
G1 X103.866 Y99.502 E33.36306
G1 X103.936 Y99.671 E33.37971
G1 X103.936 Y101.584 E33.55362
G1 X103.865 Y101.753 E33.57027
G1 X103.865 Y102.002 E33.59288
G1 X103.935 Y102.171 E33.60953
G1 X103.935 Y104.083 E33.78344
G1 X103.865 Y104.253 E33.80009
G1 X103.865 Y104.501 E33.82270
G1 X103.935 Y104.670 E33.83935
G1 X103.935 Y106.583 E34.01326
G1 X103.865 Y106.752 E34.02991
G1 X103.865 Y107.001 E34.05252
G1 X103.935 Y107.170 E34.06916
G1 X103.935 Y109.083 E34.24308
G1 X103.865 Y109.252 E34.25973
G1 X103.865 Y109.500 E34.28233
G1 X103.935 Y109.670 E34.29898
G1 X103.935 Y111.582 E34.47290
G1 X103.792 Y111.927 E34.50680
G1 X103.742 Y111.976 E34.51316
G1 X103.647 Y112.206 E34.53577
G1 X103.647 Y112.674 E34.57833
G1 X103.742 Y112.904 E34.60093
G1 X103.937 Y113.098 E34.62599
G1 X103.937 Y115.846 E34.87585
G1 X104.303 Y116.212 E34.92292
G1 X107.091 Y116.212 E35.17643
G1 X107.436 Y116.355 E35.21034
G1 X107.905 Y116.824 E35.27061
G1 X108.047 Y117.168 E35.30452
G1 X108.047 Y119.081 E35.47844
G1 X107.977 Y119.250 E35.49509
G1 X107.977 Y119.499 E35.51769
G1 X108.047 Y119.668 E35.53434
G1 X108.047 Y123.237 E35.85889
G1 X107.498 Y123.786 E35.92950
G1 X92.909 Y123.786 E37.25613
G1 X92.564 Y123.643 E37.29004
G1 X92.095 Y123.175 E37.35031
G1 X91.953 Y122.830 E37.38422
G1 X91.953 Y120.917 E37.55813
G1 X92.023 Y120.748 E37.57478
G1 X92.023 Y120.500 E37.59739
G1 X91.953 Y120.331 E37.61404
G1 X91.953 Y116.761 E37.93859
G1 X92.502 Y116.212 E38.00919
G1 X95.697 Y116.212 E38.29970
G1 X96.063 Y115.846 E38.34678
G1 X96.063 Y113.098 E38.59663
G1 X96.252 Y112.909 E38.62100
G1 X96.341 Y112.598 E38.65040
G1 X96.010 Y111.168 E38.78390
G1 X96.129 Y110.643 E38.83282
G1 X96.112 Y110.450 E38.85043
G1 X96.063 Y110.332 E38.86201
G1 X96.063 Y108.420 E39.03592
G1 X96.133 Y108.251 E39.05257
G1 X96.133 Y108.002 E39.07518
G1 X96.063 Y107.833 E39.09183
G1 X96.063 Y105.920 E39.26574
G1 X96.133 Y105.751 E39.28239
G1 X96.133 Y105.502 E39.30500
G1 X96.063 Y105.333 E39.32165
G1 X96.063 Y103.421 E39.49556
G1 X96.133 Y103.251 E39.51221
G1 X96.133 Y103.003 E39.53481
G1 X96.063 Y102.834 E39.55146
G1 X96.063 Y100.921 E39.72538
G1 X96.133 Y100.752 E39.74203
G1 X96.133 Y100.503 E39.76463
G1 X96.063 Y100.334 E39.78128
G1 X96.063 Y98.421 E39.95520
G1 X96.133 Y98.252 E39.97185
G1 X96.133 Y98.004 E39.99445
G1 X96.063 Y97.835 E40.01110
G1 X96.063 Y95.922 E40.18502
G1 X96.133 Y95.753 E40.20167
G1 X96.133 Y95.504 E40.22427
G1 X96.063 Y95.335 E40.24092
G1 X96.063 Y93.422 E40.41483
G1 X96.112 Y93.305 E40.42642
G1 X96.129 Y93.112 E40.44402
G1 X96.010 Y92.587 E40.49294
G1 X96.336 Y91.177 E40.62450
G1 X96.247 Y90.867 E40.65391
G1 X96.063 Y90.682 E40.67765
G1 X96.063 Y87.598 E40.95803
G1 X96.258 Y87.404 E40.98309
G1 X96.353 Y87.174 E41.00569
G1 X96.353 Y86.659 E41.05254
G1 X95.987 Y86.293 E41.09961
G1 X90.659 Y86.293 E41.58409
G1 X90.314 Y86.150 E41.61799
G1 X89.845 Y85.681 E41.67827
G1 X89.703 Y85.337 E41.71217
G1 X89.703 Y83.424 E41.88609
G1 X89.773 Y83.255 E41.90274
G1 X89.773 Y83.006 E41.92534
G1 X89.703 Y82.837 E41.94199
G1 X89.703 Y80.925 E42.11591
G1 X89.809 Y80.667 E42.14129
G1 X90.375 Y80.934 F7800.000
G1 X90.668 Y80.641 E42.17896 F900.000
G1 X90.783 Y80.594 E42.19026
G1 X96.857 Y80.594 E42.74256
G1 X97.225 Y80.212 E42.79083
G1 X97.216 Y79.950 E42.81462
G1 X98.052 Y78.327 E42.98061
G1 X98.111 Y78.264 E42.98844
G1 X98.357 Y78.115 E43.01461
G1 X98.517 Y77.816 E43.04542
G1 X98.504 Y77.451 E43.07869
G1 X99.340 Y75.828 E43.24468
G1 X99.399 Y75.765 E43.25251
G1 X99.640 Y75.618 E43.27821
G1 X99.723 Y75.594 E43.28603
G1 X100.523 Y75.594 E43.35877
G1 X100.706 Y75.777 E43.38230
G1 X100.706 Y76.532 E43.45094
G1 X100.870 Y76.820 E43.48106
G1 X101.186 Y77.007 E43.51439
G1 X101.244 Y77.067 E43.52203
G1 X102.132 Y78.685 E43.68986
G1 X102.129 Y78.871 E43.70675
G1 X102.224 Y79.106 E43.72984
G1 X102.645 Y79.527 E43.78391
G1 X102.645 Y80.227 E43.84763
G1 X103.011 Y80.594 E43.89470
G1 X109.479 Y80.594 E44.48288
G1 X109.662 Y80.777 E44.50642
G1 X109.662 Y81.735 E44.59360
G1 X109.585 Y82.111 E44.62848
G1 X109.662 Y82.299 E44.64695
G1 X109.662 Y83.963 E44.79826
G1 X109.585 Y84.150 E44.81672
G1 X109.662 Y84.526 E44.85160
G1 X109.662 Y85.485 E44.93879
G1 X109.479 Y85.668 E44.96232
G1 X103.624 Y85.668 E45.49474
G1 X103.327 Y85.846 E45.52628
G1 X102.891 Y86.668 E45.61087
G1 X102.877 Y86.948 E45.63630
G1 X103.022 Y87.298 E45.67077
G1 X103.022 Y87.433 E45.68304
G1 X103.118 Y87.662 E45.70564
G1 X103.312 Y87.857 E45.73070
G1 X103.312 Y90.423 E45.96401
G1 X103.118 Y90.618 E45.98907
G1 X103.022 Y90.848 E46.01167
G1 X103.022 Y91.461 E46.06748
G1 X102.969 Y91.590 E46.08011
G1 X103.043 Y91.961 E46.11458
G1 X103.264 Y92.182 E46.14295
G1 X103.311 Y92.297 E46.15425
G1 X103.311 Y93.961 E46.30556
G1 X103.190 Y94.254 E46.33445
G1 X103.190 Y94.503 E46.35705
G1 X103.311 Y94.796 E46.38593
G1 X103.311 Y96.460 E46.53724
G1 X103.189 Y96.754 E46.56613
G1 X103.189 Y97.003 E46.58873
G1 X103.311 Y97.296 E46.61761
G1 X103.311 Y98.960 E46.76892
G1 X103.189 Y99.254 E46.79781
G1 X103.189 Y99.502 E46.82041
G1 X103.311 Y99.796 E46.84929
G1 X103.311 Y101.460 E47.00060
G1 X103.189 Y101.753 E47.02949
G1 X103.189 Y102.002 E47.05209
G1 X103.311 Y102.295 E47.08098
G1 X103.310 Y103.959 E47.23228
G1 X103.189 Y104.253 E47.26117
G1 X103.189 Y104.501 E47.28378
G1 X103.310 Y104.795 E47.31266
G1 X103.310 Y106.459 E47.46397
G1 X103.189 Y106.752 E47.49285
G1 X103.189 Y107.001 E47.51546
G1 X103.310 Y107.294 E47.54434
G1 X103.310 Y108.958 E47.69565
G1 X103.188 Y109.252 E47.72453
G1 X103.188 Y109.500 E47.74714
G1 X103.310 Y109.794 E47.77602
G1 X103.310 Y111.458 E47.92733
G1 X103.262 Y111.573 E47.93863
G1 X103.043 Y111.792 E47.96684
G1 X102.969 Y112.164 E48.00132
G1 X103.022 Y112.293 E48.01406
G1 X103.022 Y112.933 E48.07219
G1 X103.118 Y113.162 E48.09480
G1 X103.312 Y113.357 E48.11986
G1 X103.312 Y115.923 E48.35316
G1 X103.170 Y116.066 E48.37150
G1 X103.489 Y116.837 E48.44743
G1 X106.967 Y116.837 E48.76366
