; generated by Slic3r 1.0.0RC3 on 2014-04-17 at 20:51:20

; layer_height = 0.25
; perimeters = 3
; top_solid_layers = 3
; bottom_solid_layers = 3
; fill_density = 0.4
; perimeter_speed = 50
; infill_speed = 60
; travel_speed = 130
; nozzle_diameter = 0.35
; filament_diameter = 1.75
; extrusion_multiplier = 1
; perimeters extrusion width = 0.35mm
; infill extrusion width = 0.39mm
; solid infill extrusion width = 0.39mm
; top infill extrusion width = 0.39mm
; support material extrusion width = 0.35mm
; first layer extrusion width = 0.70mm

G21 ; set units to millimeters
M107
M190 S100 ; wait for bed temperature to be reached
M104 S235 ; set temperature
G28 ; home all axes
G1 Z5 F5000 ; lift nozzle
M109 S235 ; wait for temperature to be reached
G90 ; use absolute coordinates
G92 E0
M82 ; use absolute distances for extrusion
G1 F1800.000 E-1.00000
G92 E0
G1 Z0.350 F7800.000
G1 X85.400 Y85.490 F7800.000
G1 E1.00000 F1800.000
G1 X86.460 Y84.740 E1.11807 F900.000
G1 X93.080 Y80.990 E1.80990
G1 X94.660 Y80.350 E1.96490
G1 X96.340 Y80.140 E2.11885
G1 X103.420 Y80.140 E2.76264
G1 X104.940 Y80.310 E2.90171
G1 X106.370 Y80.830 E3.04007
G1 X111.370 Y83.320 E3.54798
G1 X112.400 Y83.950 E3.65776
G1 X113.300 Y84.760 E3.76786
G1 X114.450 Y86.010 E3.92231
G1 X115.010 Y86.720 E4.00453
G1 X118.480 Y91.720 E4.55794
G1 X119.150 Y92.940 E4.68450
G1 X119.550 Y94.270 E4.81079
G1 X119.660 Y95.660 E4.93758
G1 X119.630 Y96.990 E5.05855
G1 X119.410 Y103.230 E5.62630
G1 X119.140 Y104.870 E5.77743
G1 X118.480 Y106.400 E5.92895
G1 X114.000 Y113.900 E6.72332
G1 X113.140 Y115.040 E6.85317
G1 X112.050 Y115.970 E6.98346
G1 X110.790 Y116.640 E7.11322
G1 X107.700 Y117.890 E7.41631
G1 X107.020 Y118.120 E7.48158
G1 X106.320 Y118.280 E7.54687
G1 X98.910 Y119.530 E8.23018
G1 X97.810 Y119.620 E8.33054
G1 X96.000 Y119.620 E8.49512
G1 X94.660 Y119.490 E8.61754
G1 X93.370 Y119.080 E8.74062
G1 X92.190 Y118.420 E8.86356
G1 X86.850 Y114.680 E9.45637
G1 X85.780 Y113.740 E9.58588
G1 X84.930 Y112.590 E9.71591
G1 X81.280 Y106.340 E10.37404
G1 X80.610 Y104.730 E10.53260
G1 X80.380 Y103.000 E10.69130
G1 X80.380 Y98.000 E11.14594
G1 X80.460 Y96.930 E11.24351
G1 X80.720 Y95.890 E11.34099
G1 X82.820 Y89.640 E11.94052
G1 X83.180 Y88.770 E12.02613
G1 X83.810 Y87.520 E12.15341
G1 X84.510 Y86.420 E12.27197
G1 X85.335 Y85.558 E12.38050
G1 F1800.000 E11.38050
G92 E0
G1 X87.599 Y88.799 F7800.000
G1 E1.00000 F1800.000
G1 X90.850 Y86.957 E1.33970 F900.000
G1 X91.111 Y86.851 E1.36537
G1 X91.472 Y86.756 E1.39929
G1 X91.647 Y86.733 E1.41539
G1 X91.913 Y86.531 E1.44572
G1 X92.010 Y86.300 E1.46854
G1 X95.260 Y84.458 E1.80824
G1 X95.522 Y84.351 E1.83391
G1 X95.883 Y84.256 E1.86783
G1 X96.162 Y84.220 E1.89350
G1 X98.367 Y84.220 E2.09391
G1 X99.465 Y85.318 E2.23514
G1 X99.982 Y85.318 E2.28221
G1 X101.081 Y84.220 E2.42344
G1 X103.601 Y84.220 E2.65261
G1 X103.862 Y84.251 E2.67651
G1 X104.199 Y84.334 E2.70809
G1 X104.445 Y84.427 E2.73199
G1 X107.913 Y86.232 E3.08749
G1 X108.043 Y86.520 E3.11619
G1 X108.352 Y86.719 E3.14965
G1 X109.676 Y86.719 E3.27002
G1 X110.988 Y88.031 E3.43870
G1 X111.052 Y88.187 E3.45405
G1 X112.116 Y89.250 E3.59078
G1 X112.116 Y91.762 E3.81918
G1 X111.681 Y92.197 E3.87507
G1 X112.001 Y92.968 E3.95100
G1 X113.640 Y92.968 E4.10007
G1 X114.457 Y93.314 E4.18076
G1 X115.281 Y94.164 E4.28839
G1 X115.602 Y94.991 E4.36908
G1 X115.351 Y102.424 E5.04530
G1 X115.329 Y102.526 E5.05483
G1 X115.329 Y104.260 E5.21249
G1 X114.048 Y105.541 E5.37724
G1 X112.553 Y105.541 E5.51310
G1 X112.187 Y105.907 E5.56018
G1 X112.187 Y106.087 E5.57653
G1 X111.599 Y107.103 E5.68330
G1 X110.477 Y107.749 E5.80099
G1 X110.314 Y108.140 E5.83958
G1 X110.946 Y110.508 E6.06239
G1 X110.746 Y111.508 E6.15507
G1 X109.915 Y112.589 E6.27911
G1 X109.001 Y113.040 E6.37179
G1 X107.864 Y113.040 E6.47513
G1 X107.634 Y113.135 E6.49774
G1 X106.480 Y114.290 E6.64622
G1 X103.456 Y114.290 E6.92112
G1 X102.831 Y114.099 E6.98056
G1 X102.112 Y113.613 E7.05945
G1 X101.719 Y113.129 E7.11617
G1 X101.267 Y113.044 E7.15804
G1 X100.748 Y113.343 E7.21246
G1 X100.633 Y113.455 E7.22708
G1 X100.401 Y113.845 E7.26835
G1 X100.356 Y114.008 E7.28371
G1 X100.356 Y114.258 E7.30644
G1 X99.075 Y115.539 E7.47119
G1 X95.787 Y115.539 E7.77013
G1 X95.457 Y115.489 E7.80055
G1 X95.035 Y115.356 E7.84077
G1 X94.735 Y115.208 E7.87119
G1 X91.971 Y113.273 E8.17792
G1 X91.927 Y113.143 E8.19043
G1 X91.714 Y112.934 E8.21758
G1 X91.465 Y112.856 E8.24125
G1 X91.165 Y112.708 E8.27167
G1 X88.402 Y110.774 E8.57839
G1 X87.999 Y109.587 E8.69238
G1 X87.408 Y108.444 E8.80936
G1 X87.488 Y107.223 E8.92060
G1 X87.901 Y106.632 E8.98617
G1 X87.917 Y106.268 E9.01932
G1 X87.812 Y106.087 E9.03835
G1 X87.812 Y105.907 E9.05471
G1 X87.446 Y105.541 E9.10178
G1 X86.411 Y105.541 E9.19590
G1 X85.607 Y105.208 E9.27501
G1 X84.787 Y104.388 E9.38048
G1 X84.454 Y103.584 E9.45959
G1 X84.455 Y96.749 E10.08113
G1 X85.736 Y95.468 E10.24588
G1 X87.446 Y95.468 E10.40137
G1 X87.812 Y95.102 E10.44844
G1 X87.812 Y94.459 E10.50689
G1 X87.756 Y94.279 E10.52405
G1 X86.548 Y92.511 E10.71871
G1 X86.479 Y91.297 E10.82935
G1 X86.979 Y90.349 E10.92682
G1 X86.991 Y90.242 E10.93655
G1 X87.563 Y88.886 E11.07041
G1 X88.093 Y89.238 F7800.000
G1 X91.123 Y87.521 E11.38709 F900.000
G1 X91.309 Y87.445 E11.40543
G1 X91.592 Y87.370 E11.43202
G1 X91.792 Y87.344 E11.45035
G1 X92.022 Y87.344 E11.47126
G1 X92.336 Y87.136 E11.50554
G1 X92.503 Y86.738 E11.54475
G1 X95.533 Y85.021 E11.86143
G1 X95.720 Y84.945 E11.87976
G1 X96.003 Y84.871 E11.90635
G1 X96.203 Y84.845 E11.92469
G1 X98.108 Y84.845 E12.09789
G1 X99.023 Y85.760 E12.21557
G1 X99.023 Y86.348 E12.26903
G1 X99.690 Y86.699 E12.33758
G1 X100.280 Y86.295 E12.40265
G1 X100.424 Y86.022 E12.43078
G1 X100.424 Y85.760 E12.45458
G1 X101.340 Y84.845 E12.57226
G1 X103.563 Y84.845 E12.77447
G1 X103.750 Y84.867 E12.79155
G1 X104.014 Y84.932 E12.81630
G1 X104.190 Y84.998 E12.83337
G1 X107.433 Y86.687 E13.16582
G1 X107.640 Y87.145 E13.21153
G1 X107.949 Y87.344 E13.24499
G1 X109.417 Y87.344 E13.37847
G1 X110.363 Y88.290 E13.50007
G1 X110.427 Y88.446 E13.51543
G1 X111.491 Y89.509 E13.65216
G1 X111.491 Y91.503 E13.83349
G1 X110.864 Y92.130 E13.91404
G1 X110.945 Y92.741 E13.97014
G1 X111.142 Y92.855 E13.99081
G1 X111.473 Y93.426 E14.05082
G1 X111.763 Y93.593 E14.08125
G1 X113.513 Y93.593 E14.24041
G1 X114.097 Y93.840 E14.29805
G1 X114.745 Y94.508 E14.38262
G1 X114.974 Y95.099 E14.44026
G1 X114.908 Y97.260 E14.63684
G1 X114.883 Y97.315 E14.64235
G1 X114.877 Y97.563 E14.66486
G1 X114.894 Y97.606 E14.66905
G1 X114.818 Y99.766 E14.86564
G1 X114.797 Y99.815 E14.87047
G1 X114.790 Y100.063 E14.89308
G1 X114.806 Y100.105 E14.89714
G1 X114.731 Y102.267 E15.09383
G1 X114.704 Y102.393 E15.10559
G1 X114.704 Y104.001 E15.25178
G1 X113.789 Y104.916 E15.36946
G1 X111.929 Y104.916 E15.53861
G1 X111.562 Y105.282 E15.58568
G1 X111.562 Y105.919 E15.64361
G1 X111.142 Y106.645 E15.71987
G1 X109.626 Y107.517 E15.87896
G1 X109.502 Y108.045 E15.92826
G1 X109.736 Y108.396 E15.96659
G1 X110.304 Y110.528 E16.16727
G1 X110.162 Y111.242 E16.23347
G1 X109.508 Y112.093 E16.33103
G1 X108.855 Y112.415 E16.39723
G1 X107.605 Y112.415 E16.51087
G1 X107.375 Y112.510 E16.53348
G1 X106.221 Y113.665 E16.68196
G1 X103.550 Y113.665 E16.92483
G1 X103.103 Y113.528 E16.96728
G1 X102.539 Y113.147 E17.02920
G1 X102.245 Y112.785 E17.07165
G1 X102.072 Y112.356 E17.11373
G1 X101.534 Y112.170 E17.16546
G1 X100.295 Y112.882 E17.29543
G1 X100.180 Y112.995 E17.31005
G1 X100.024 Y113.257 E17.33772
G1 X99.901 Y113.327 E17.35064
G1 X99.731 Y113.618 E17.38129
G1 X99.731 Y113.999 E17.41594
G1 X98.816 Y114.914 E17.53362
G1 X95.835 Y114.914 E17.80469
G1 X95.599 Y114.878 E17.82642
G1 X95.268 Y114.774 E17.85794
G1 X95.054 Y114.668 E17.87967
G1 X92.497 Y112.879 E18.16345
G1 X92.417 Y112.642 E18.18616
G1 X92.203 Y112.433 E18.21331
G1 X91.699 Y112.274 E18.26142
G1 X91.484 Y112.169 E18.28315
G1 X88.928 Y110.379 E18.56693
G1 X88.556 Y109.297 E18.67099
G1 X88.043 Y108.310 E18.77210
G1 X88.100 Y107.438 E18.85155
G1 X88.642 Y106.664 E18.93746
G1 X88.657 Y106.300 E18.97061
G1 X88.437 Y105.919 E19.01062
G1 X88.437 Y105.282 E19.06855
G1 X88.071 Y104.916 E19.11562
G1 X86.535 Y104.916 E19.25526
G1 X85.961 Y104.678 E19.31176
G1 X85.317 Y104.034 E19.39464
G1 X85.079 Y103.460 E19.45114
G1 X85.079 Y101.299 E19.64766
G1 X85.097 Y101.254 E19.65208
G1 X85.097 Y101.005 E19.67468
G1 X85.079 Y100.960 E19.67910
G1 X85.080 Y97.008 E20.03850
G1 X85.995 Y96.093 E20.15618
G1 X88.071 Y96.093 E20.34496
G1 X88.437 Y95.727 E20.39203
G1 X88.437 Y94.266 E20.52487
G1 X88.381 Y94.085 E20.54203
G1 X87.162 Y92.302 E20.73844
G1 X87.113 Y91.435 E20.81747
G1 X87.646 Y90.425 E20.92129
G1 X87.665 Y90.252 E20.93710
G1 X88.056 Y89.324 E21.02864
G1 X88.586 Y89.677 F7800.000
G1 X91.396 Y88.084 E21.32230 F900.000
G1 X91.508 Y88.039 E21.33330
G1 X91.832 Y87.969 E21.36350
G1 X92.437 Y87.969 E21.41846
G1 X92.751 Y87.761 E21.45274
G1 X92.997 Y87.177 E21.51032
G1 X95.806 Y85.585 E21.80398
G1 X96.123 Y85.485 E21.83417
G1 X96.243 Y85.470 E21.84518
G1 X97.849 Y85.470 E21.99118
G1 X98.398 Y86.019 E22.06179
G1 X98.398 Y86.528 E22.10810
G1 X98.583 Y86.829 E22.14020
G1 X98.767 Y86.922 E22.15900
G1 X99.069 Y87.336 E22.20557
G1 X99.537 Y87.435 E22.24903
G1 X99.750 Y87.313 E22.27134
G1 X99.951 Y87.313 E22.28963
G1 X100.270 Y87.094 E22.32479
G1 X100.288 Y87.047 E22.32940
G1 X100.905 Y86.625 E22.39738
G1 X101.049 Y86.351 E22.42551
G1 X101.049 Y86.019 E22.45574
G1 X101.598 Y85.470 E22.52634
G1 X103.526 Y85.470 E22.70161
G1 X103.638 Y85.483 E22.71185
G1 X103.935 Y85.570 E22.73997
G1 X106.952 Y87.141 E23.04937
G1 X107.237 Y87.770 E23.11209
G1 X107.546 Y87.969 E23.14556
G1 X109.158 Y87.969 E23.29214
G1 X109.707 Y88.518 E23.36274
G1 X109.707 Y88.853 E23.39317
G1 X110.074 Y89.219 E23.44025
G1 X110.317 Y89.219 E23.46237
G1 X110.866 Y89.768 E23.53297
G1 X110.866 Y91.245 E23.66723
G1 X110.183 Y91.927 E23.75502
G1 X110.088 Y92.157 E23.77763
G1 X110.088 Y92.775 E23.83387
G1 X110.256 Y93.066 E23.86438
G1 X110.686 Y93.313 E23.90943
G1 X110.938 Y93.748 E23.95519
G1 X110.938 Y93.852 E23.96461
G1 X111.304 Y94.218 E24.01168
G1 X113.386 Y94.218 E24.20108
G1 X113.737 Y94.366 E24.23566
G1 X114.208 Y94.852 E24.29718
G1 X114.345 Y95.206 E24.33176
G1 X114.287 Y97.119 E24.50573
G1 X114.208 Y97.299 E24.52359
G1 X114.202 Y97.546 E24.54610
G1 X114.265 Y97.711 E24.56215
G1 X114.198 Y99.623 E24.73614
G1 X114.121 Y99.797 E24.75346
G1 X114.114 Y100.046 E24.77607
G1 X114.177 Y100.210 E24.79211
G1 X114.110 Y102.123 E24.96609
G1 X114.079 Y102.261 E24.97896
G1 X114.079 Y103.742 E25.11370
G1 X113.530 Y104.291 E25.18431
G1 X111.304 Y104.291 E25.38674
G1 X110.938 Y104.657 E25.43381
G1 X110.938 Y105.752 E25.53330
G1 X110.686 Y106.187 E25.57906
G1 X108.935 Y107.193 E25.76263
G1 X108.767 Y107.484 E25.79313
G1 X108.767 Y108.068 E25.84627
G1 X108.896 Y108.329 E25.87275
G1 X108.987 Y108.399 E25.88312
G1 X109.159 Y108.657 E25.91129
G1 X109.663 Y110.549 E26.08935
G1 X109.577 Y110.977 E26.12907
G1 X109.101 Y111.597 E26.20015
G1 X108.709 Y111.790 E26.23987
G1 X106.877 Y111.790 E26.40647
G1 X106.511 Y112.156 E26.45354
G1 X106.511 Y112.491 E26.48397
G1 X105.962 Y113.040 E26.55458
G1 X103.643 Y113.040 E26.76542
G1 X103.375 Y112.958 E26.79090
G1 X102.966 Y112.682 E26.83583
G1 X102.789 Y112.464 E26.86130
G1 X102.382 Y111.456 E26.96013
G1 X101.844 Y111.271 E27.01185
G1 X100.250 Y112.187 E27.17909
G1 X100.124 Y112.187 E27.19054
G1 X99.837 Y112.351 E27.22058
G1 X99.572 Y112.795 E27.26762
G1 X99.276 Y112.963 E27.29858
G1 X99.106 Y113.255 E27.32924
G1 X99.106 Y113.741 E27.37342
G1 X98.557 Y114.290 E27.44403
G1 X95.883 Y114.290 E27.68721
G1 X95.741 Y114.268 E27.70025
G1 X95.502 Y114.192 E27.72308
G1 X95.373 Y114.129 E27.73611
G1 X93.023 Y112.484 E27.99695
G1 X92.867 Y112.024 E28.04114
G1 X92.540 Y111.790 E28.07765
G1 X92.313 Y111.790 E28.09829
G1 X92.172 Y111.768 E28.11133
G1 X91.932 Y111.693 E28.13416
G1 X91.804 Y111.629 E28.14720
G1 X89.454 Y109.984 E28.40803
G1 X89.226 Y109.313 E28.47250
G1 X89.217 Y109.212 E28.48171
G1 X88.678 Y108.177 E28.58786
G1 X88.712 Y107.654 E28.63553
G1 X89.382 Y106.696 E28.74178
G1 X89.398 Y106.332 E28.77492
G1 X89.062 Y105.752 E28.83591
G1 X89.062 Y104.657 E28.93541
G1 X88.696 Y104.291 E28.98248
G1 X86.660 Y104.291 E29.16764
G1 X86.315 Y104.149 E29.20154
G1 X85.846 Y103.680 E29.26181
G1 X85.704 Y103.336 E29.29571
G1 X85.703 Y101.423 E29.46963
G1 X85.774 Y101.254 E29.48628
G1 X85.773 Y101.005 E29.50888
G1 X85.703 Y100.836 E29.52553
G1 X85.705 Y97.267 E29.85009
G1 X86.254 Y96.718 E29.92070
G1 X88.696 Y96.718 E30.14276
G1 X89.062 Y96.352 E30.18983
G1 X89.062 Y94.073 E30.39706
G1 X89.006 Y93.892 E30.41422
G1 X87.776 Y92.093 E30.61239
G1 X87.746 Y91.572 E30.65981
G1 X88.312 Y90.501 E30.76997
G1 X88.338 Y90.265 E30.79156
G1 X88.549 Y89.763 E30.84109
G1 X89.079 Y90.115 F7800.000
G1 X91.706 Y88.633 E31.11537 F900.000
G1 X91.873 Y88.594 E31.13093
G1 X93.110 Y88.594 E31.24344
G1 X93.485 Y88.107 E31.29934
G1 X93.407 Y87.812 E31.32709
G1 X93.490 Y87.616 E31.34644
G1 X96.079 Y86.148 E31.61708
G1 X96.283 Y86.094 E31.63628
G1 X97.590 Y86.094 E31.75508
G1 X97.773 Y86.278 E31.77861
G1 X97.773 Y86.912 E31.83627
G1 X97.958 Y87.212 E31.86837
G1 X98.351 Y87.412 E31.90845
G1 X98.649 Y87.820 E31.95436
G1 X98.682 Y88.026 E31.97335
G1 X99.274 Y88.307 E32.03292
G1 X99.916 Y87.938 E32.10030
G1 X100.378 Y87.938 E32.14230
G1 X100.697 Y87.719 E32.17747
G1 X100.801 Y87.453 E32.20338
G1 X100.960 Y87.344 E32.22096
G1 X101.308 Y87.344 E32.25261
G1 X101.674 Y86.978 E32.29968
G1 X101.674 Y86.278 E32.36339
G1 X101.857 Y86.094 E32.38693
G1 X103.488 Y86.094 E32.53524
G1 X103.679 Y86.141 E32.55311
G1 X106.472 Y87.596 E32.83947
G1 X106.561 Y87.793 E32.85911
G1 X106.482 Y88.116 E32.88936
G1 X106.858 Y88.594 E32.94464
G1 X108.900 Y88.594 E33.13031
G1 X109.083 Y88.777 E33.15385
G1 X109.083 Y89.478 E33.21756
G1 X109.449 Y89.844 E33.26464
G1 X110.058 Y89.844 E33.32004
G1 X110.241 Y90.027 E33.34358
G1 X110.241 Y90.986 E33.43076
G1 X110.058 Y91.169 E33.45430
G1 X109.829 Y91.169 E33.47510
G1 X109.463 Y91.535 E33.52217
G1 X109.463 Y92.235 E33.58589
G1 X109.126 Y92.572 E33.62918
G1 X109.208 Y93.184 E33.68529
G1 X110.229 Y93.771 E33.79239
G1 X110.313 Y93.916 E33.80764
G1 X110.313 Y94.477 E33.85863
G1 X110.679 Y94.843 E33.90570
G1 X113.260 Y94.843 E34.14039
G1 X113.376 Y94.892 E34.15192
G1 X113.671 Y95.196 E34.19038
G1 X113.717 Y95.314 E34.20191
G1 X113.666 Y96.978 E34.35327
G1 X113.532 Y97.282 E34.38348
G1 X113.526 Y97.529 E34.40599
G1 X113.636 Y97.816 E34.43391
G1 X113.578 Y99.480 E34.58529
G1 X113.444 Y99.779 E34.61511
G1 X113.438 Y100.028 E34.63771
G1 X113.548 Y100.316 E34.66573
G1 X113.490 Y101.979 E34.81711
G1 X113.407 Y102.167 E34.83574
G1 X113.454 Y102.421 E34.85929
G1 X113.454 Y103.483 E34.95588
G1 X113.271 Y103.666 E34.97941
G1 X110.679 Y103.666 E35.21513
G1 X110.313 Y104.033 E35.26220
G1 X110.313 Y105.584 E35.40327
G1 X110.229 Y105.729 E35.41852
G1 X108.311 Y106.832 E35.61971
G1 X108.143 Y107.122 E35.65021
G1 X108.143 Y108.376 E35.76422
G1 X108.271 Y108.637 E35.79070
G1 X108.524 Y108.832 E35.81969
G1 X108.581 Y108.917 E35.82908
G1 X109.022 Y110.569 E35.98450
G1 X108.993 Y110.712 E35.99774
G1 X108.694 Y111.101 E36.04234
G1 X108.564 Y111.165 E36.05558
G1 X106.252 Y111.165 E36.26576
G1 X105.886 Y111.531 E36.31284
G1 X105.886 Y112.232 E36.37655
G1 X105.703 Y112.415 E36.40009
G1 X103.737 Y112.415 E36.57890
G1 X103.647 Y112.388 E36.58740
G1 X103.392 Y112.216 E36.61534
G1 X103.334 Y112.143 E36.62384
G1 X102.693 Y110.557 E36.77941
G1 X102.155 Y110.371 E36.83114
G1 X100.083 Y111.562 E37.04844
G1 X99.769 Y111.562 E37.07701
