; generated by Slic3r 1.0.0RC3 on 2014-04-17 at 20:48:41

; layer_height = 0.25
; perimeters = 3
; top_solid_layers = 3
; bottom_solid_layers = 3
; fill_density = 0.4
; perimeter_speed = 50
; infill_speed = 60
; travel_speed = 130
; nozzle_diameter = 0.35
; filament_diameter = 1.75
; extrusion_multiplier = 1
; perimeters extrusion width = 0.35mm
; infill extrusion width = 0.39mm
; solid infill extrusion width = 0.39mm
; top infill extrusion width = 0.39mm
; support material extrusion width = 0.35mm
; first layer extrusion width = 0.70mm

G21 ; set units to millimeters
M107
M190 S100 ; wait for bed temperature to be reached
M104 S235 ; set temperature
G28 ; home all axes
G1 Z5 F5000 ; lift nozzle
M109 S235 ; wait for temperature to be reached
G90 ; use absolute coordinates
G92 E0
M82 ; use absolute distances for extrusion
G1 F1800.000 E-1.00000
G92 E0
G1 Z0.350 F7800.000
G1 X56.120 Y35.195 F7800.000
G1 E1.00000 F1800.000
G1 X56.970 Y33.945 E1.13745 F900.000
G1 X58.070 Y32.925 E1.27386
G1 X59.380 Y32.165 E1.41157
G1 X64.260 Y30.065 E1.89465
G1 X65.090 Y29.775 E1.97459
G1 X65.970 Y29.555 E2.05707
G1 X66.840 Y29.445 E2.13681
G1 X67.500 Y29.415 E2.19689
G1 X100.550 Y29.415 E5.20211
G1 X101.520 Y29.475 E5.29048
G1 X102.630 Y29.685 E5.39320
G1 X102.950 Y29.775 E5.42343
G1 X103.770 Y30.065 E5.50252
G1 X108.660 Y32.165 E5.98643
G1 X109.970 Y32.915 E6.12369
G1 X111.080 Y33.945 E6.26138
G1 X111.920 Y35.185 E6.39757
G1 X112.460 Y36.595 E6.53486
G1 X112.670 Y38.085 E6.67169
G1 X113.620 Y75.585 E10.08264
G1 X113.620 Y79.665 E10.45363
G1 X113.590 Y81.065 E10.58096
G1 X112.660 Y101.055 E12.40061
G1 X112.540 Y102.045 E12.49129
G1 X112.290 Y103.295 E12.60720
G1 X112.090 Y104.055 E12.67866
G1 X111.800 Y104.785 E12.75009
G1 X111.220 Y106.035 E12.87539
G1 X110.770 Y106.835 E12.95885
G1 X110.220 Y107.575 E13.04269
G1 X109.140 Y108.825 E13.19290
G1 X108.140 Y109.775 E13.31832
G1 X106.960 Y110.485 E13.44354
G1 X104.310 Y111.735 E13.70997
G1 X102.930 Y112.205 E13.84253
G1 X101.480 Y112.365 E13.97518
G1 X66.560 Y112.365 E17.15044
G1 X65.110 Y112.205 E17.28308
G1 X63.730 Y111.735 E17.41565
G1 X61.080 Y110.485 E17.68207
G1 X59.900 Y109.775 E17.80729
G1 X58.900 Y108.825 E17.93271
G1 X57.820 Y107.575 E18.08292
G1 X57.250 Y106.825 E18.16858
G1 X56.800 Y105.995 E18.25443
G1 X56.230 Y104.745 E18.37935
G1 X55.960 Y104.035 E18.44842
G1 X55.760 Y103.295 E18.51812
G1 X55.510 Y102.045 E18.63404
G1 X55.420 Y101.415 E18.69191
G1 X54.410 Y91.415 E19.60583
G1 X54.380 Y90.745 E19.66681
G1 X54.390 Y81.855 E20.47518
G1 X55.380 Y38.105 E24.45436
G1 X55.580 Y36.605 E24.59196
G1 X56.086 Y35.283 E24.72073
G1 F1800.000 E23.72073
G92 E0
G1 X59.458 Y37.007 F7800.000
G1 E1.00000 F1800.000
G1 X60.739 Y35.726 E1.16475 F900.000
G1 X64.042 Y35.726 E1.46512
G1 X64.320 Y35.576 E1.49386
G1 X64.611 Y35.170 E1.53924
G1 X64.935 Y34.842 E1.58111
G1 X65.391 Y34.487 E1.63370
G1 X65.541 Y34.394 E1.64973
G1 X65.970 Y34.172 E1.69371
G1 X66.167 Y34.093 E1.71293
G1 X66.694 Y33.939 E1.76293
G1 X66.902 Y33.900 E1.78218
G1 X67.450 Y33.854 E1.83219
G1 X100.699 Y33.859 E4.85543
G1 X101.148 Y33.900 E4.89643
G1 X101.356 Y33.939 E4.91567
G1 X101.883 Y34.093 E4.96567
G1 X102.080 Y34.172 E4.98490
G1 X102.509 Y34.394 E5.02887
G1 X102.659 Y34.487 E5.04491
G1 X103.115 Y34.842 E5.09748
G1 X103.439 Y35.170 E5.13936
G1 X103.730 Y35.576 E5.18475
G1 X104.008 Y35.726 E5.21349
G1 X106.635 Y35.726 E5.45239
G1 X107.439 Y36.059 E5.53150
G1 X108.259 Y36.879 E5.63698
G1 X108.592 Y37.683 E5.71609
G1 X108.595 Y71.665 E8.80604
G1 X108.660 Y71.858 E8.82455
G1 X108.760 Y71.991 E8.83969
G1 X109.584 Y74.339 E9.06598
G1 X109.496 Y74.963 E9.12331
G1 X109.537 Y75.176 E9.14305
G1 X109.537 Y80.086 E9.58946
G1 X109.507 Y80.281 E9.60744
G1 X109.600 Y80.870 E9.66168
G1 X108.835 Y83.227 E9.88696
G1 X108.657 Y83.472 E9.91449
G1 X108.596 Y83.660 E9.93249
G1 X108.597 Y100.082 E11.42575
G1 X108.579 Y100.291 E11.44480
G1 X108.656 Y100.595 E11.47332
G1 X108.190 Y102.984 E11.69470
G1 X107.817 Y103.611 E11.76097
G1 X107.776 Y103.728 E11.77229
G1 X107.702 Y104.249 E11.82017
G1 X105.860 Y106.393 E12.07718
G1 X105.482 Y106.677 E12.12013
G1 X104.914 Y106.938 E12.17700
G1 X104.452 Y107.038 E12.21995
G1 X104.128 Y107.038 E12.24941
G1 X103.899 Y107.134 E12.27202
G1 X102.744 Y108.288 E12.42050
G1 X65.310 Y108.288 E15.82438
G1 X64.155 Y107.134 E15.97286
G1 X63.925 Y107.038 E15.99547
G1 X62.657 Y107.038 E16.11081
G1 X61.376 Y105.757 E16.27557
G1 X61.376 Y105.511 E16.29798
G1 X61.222 Y105.230 E16.32707
G1 X61.122 Y105.166 E16.33786
G1 X60.710 Y104.695 E16.39476
G1 X59.640 Y102.387 E16.62610
G1 X59.673 Y101.901 E16.67037
G1 X59.648 Y101.755 E16.68383
G1 X59.481 Y101.365 E16.72244
G1 X59.444 Y98.920 E16.94473
G1 X59.453 Y94.108 E17.38232
G1 X59.413 Y93.953 E17.39691
G1 X58.633 Y92.560 E17.54204
G1 X58.640 Y91.847 E17.60685
G1 X58.616 Y91.724 E17.61833
G1 X58.455 Y91.334 E17.65668
G1 X58.466 Y81.422 E18.55794
G1 X58.644 Y80.992 E18.60030
G1 X58.668 Y80.872 E18.61140
G1 X58.672 Y80.157 E18.67646
G1 X59.411 Y78.893 E18.80965
G1 X59.455 Y78.732 E18.82477
G1 X59.458 Y37.101 E22.61028
G1 X60.083 Y37.266 F7800.000
G1 X60.998 Y36.351 E22.72796 F900.000
G1 X63.746 Y36.351 E22.97790
G1 X64.162 Y36.487 E23.01763
G1 X64.562 Y36.347 E23.05619
G1 X64.981 Y35.707 E23.12574
G1 X65.078 Y35.587 E23.13982
G1 X65.363 Y35.298 E23.17669
G1 X65.743 Y35.004 E23.22041
G1 X66.230 Y34.741 E23.27078
G1 X66.371 Y34.685 E23.28451
G1 X66.989 Y34.519 E23.34271
G1 X67.465 Y34.479 E23.38610
G1 X100.656 Y34.483 E26.40420
G1 X101.209 Y34.548 E26.45486
G1 X101.679 Y34.685 E26.49936
G1 X102.200 Y34.937 E26.55199
G1 X102.596 Y35.219 E26.59618
G1 X102.972 Y35.587 E26.64399
G1 X103.392 Y36.201 E26.71163
G1 X103.670 Y36.351 E26.74037
G1 X106.511 Y36.351 E26.99868
G1 X107.085 Y36.589 E27.05519
G1 X107.730 Y37.233 E27.13806
G1 X107.967 Y37.807 E27.19457
G1 X107.968 Y39.968 E27.39109
G1 X107.949 Y40.013 E27.39550
G1 X107.949 Y40.262 E27.41811
G1 X107.968 Y40.307 E27.42253
G1 X107.968 Y42.468 E27.61904
G1 X107.949 Y42.513 E27.62346
G1 X107.949 Y42.761 E27.64607
G1 X107.968 Y42.806 E27.65048
G1 X107.968 Y44.968 E27.84700
G1 X107.949 Y45.012 E27.85142
G1 X107.949 Y45.261 E27.87402
G1 X107.968 Y45.306 E27.87844
G1 X107.968 Y47.467 E28.07496
G1 X107.950 Y47.512 E28.07937
G1 X107.950 Y47.761 E28.10198
G1 X107.968 Y47.805 E28.10639
G1 X107.968 Y49.967 E28.30291
G1 X107.950 Y50.012 E28.30733
G1 X107.950 Y50.260 E28.32993
G1 X107.968 Y50.305 E28.33435
G1 X107.969 Y52.466 E28.53087
G1 X107.950 Y52.511 E28.53528
G1 X107.950 Y52.760 E28.55789
G1 X107.969 Y52.805 E28.56231
G1 X107.969 Y54.966 E28.75883
G1 X107.950 Y55.011 E28.76324
G1 X107.950 Y55.259 E28.78585
G1 X107.969 Y55.304 E28.79026
G1 X107.969 Y57.465 E28.98678
G1 X107.950 Y57.510 E28.99120
G1 X107.950 Y57.759 E29.01380
G1 X107.969 Y57.804 E29.01822
G1 X107.969 Y59.965 E29.21474
G1 X107.951 Y60.010 E29.21915
G1 X107.951 Y60.258 E29.24176
G1 X107.969 Y60.303 E29.24617
G1 X107.969 Y62.464 E29.44269
G1 X107.951 Y62.509 E29.44711
G1 X107.951 Y62.758 E29.46971
G1 X107.969 Y62.803 E29.47413
G1 X107.970 Y64.964 E29.67065
G1 X107.951 Y65.009 E29.67507
G1 X107.951 Y65.257 E29.69767
G1 X107.970 Y65.302 E29.70209
G1 X107.970 Y67.464 E29.89861
G1 X107.951 Y67.508 E29.90302
G1 X107.951 Y67.757 E29.92563
G1 X107.970 Y67.802 E29.93004
G1 X107.970 Y69.963 E30.12656
G1 X107.951 Y70.008 E30.13098
G1 X107.951 Y70.257 E30.15358
G1 X107.970 Y70.301 E30.15800
G1 X107.970 Y71.874 E30.30097
G1 X108.035 Y72.067 E30.31948
G1 X108.202 Y72.289 E30.34481
G1 X108.944 Y74.402 E30.54845
G1 X108.854 Y75.045 E30.60745
G1 X108.875 Y75.211 E30.62266
G1 X108.912 Y75.301 E30.63150
G1 X108.912 Y77.462 E30.82802
G1 X108.894 Y77.507 E30.83243
G1 X108.894 Y77.755 E30.85504
G1 X108.912 Y77.800 E30.85946
G1 X108.912 Y79.961 E31.05597
G1 X108.883 Y80.033 E31.06303
G1 X108.862 Y80.205 E31.07876
G1 X108.960 Y80.820 E31.13538
G1 X108.271 Y82.940 E31.33803
G1 X108.032 Y83.269 E31.37502
G1 X107.971 Y83.457 E31.39302
G1 X107.971 Y84.960 E31.52973
G1 X107.952 Y85.005 E31.53415
G1 X107.952 Y85.254 E31.55675
G1 X107.971 Y85.299 E31.56117
G1 X107.971 Y87.460 E31.75769
G1 X107.953 Y87.505 E31.76210
G1 X107.953 Y87.753 E31.78471
G1 X107.971 Y87.798 E31.78912
G1 X107.971 Y89.960 E31.98564
G1 X107.953 Y90.004 E31.99006
G1 X107.953 Y90.253 E32.01266
G1 X107.971 Y90.298 E32.01708
G1 X107.972 Y92.459 E32.21360
G1 X107.953 Y92.504 E32.21801
G1 X107.953 Y92.753 E32.24062
G1 X107.972 Y92.797 E32.24504
G1 X107.972 Y94.959 E32.44156
G1 X107.953 Y95.004 E32.44597
G1 X107.953 Y95.252 E32.46858
G1 X107.972 Y95.297 E32.47299
G1 X107.972 Y97.458 E32.66951
G1 X107.953 Y97.503 E32.67393
G1 X107.953 Y97.752 E32.69653
G1 X107.972 Y97.797 E32.70095
G1 X107.972 Y99.958 E32.89747
G1 X107.937 Y100.042 E32.90574
G1 X107.923 Y100.243 E32.92411
G1 X108.016 Y100.613 E32.95874
G1 X107.598 Y102.758 E33.15751
G1 X107.184 Y103.446 E33.23052
G1 X107.109 Y103.981 E33.27959
G1 X105.430 Y105.934 E33.51381
G1 X105.160 Y106.137 E33.54449
G1 X104.715 Y106.342 E33.58909
G1 X104.385 Y106.414 E33.61977
G1 X103.870 Y106.414 E33.66663
G1 X103.640 Y106.509 E33.68923
G1 X102.485 Y107.663 E33.83771
G1 X65.569 Y107.663 E37.19453
G1 X64.414 Y106.509 E37.34301
G1 X64.184 Y106.414 E37.36561
G1 X62.916 Y106.414 E37.48096
G1 X62.001 Y105.498 E37.59864
G1 X62.001 Y105.168 E37.62865
G1 X61.847 Y104.888 E37.65774
G1 X61.534 Y104.688 E37.69153
G1 X61.240 Y104.351 E37.73217
G1 X60.274 Y102.269 E37.94084
G1 X60.306 Y101.793 E37.98421
G1 X60.282 Y101.647 E37.99766
G1 X60.104 Y101.232 E38.03873
G1 X60.071 Y99.071 E38.23526
G1 X60.099 Y99.001 E38.24214
G1 X60.098 Y98.756 E38.26441
G1 X60.078 Y98.708 E38.26913
G1 X60.078 Y96.547 E38.46565
G1 X60.097 Y96.502 E38.47007
G1 X60.097 Y96.253 E38.49267
G1 X60.078 Y96.208 E38.49709
G1 X60.078 Y93.945 E38.70290
G1 X60.038 Y93.790 E38.71749
G1 X59.260 Y92.400 E38.86233
G1 X59.266 Y91.726 E38.92360
G1 X59.242 Y91.602 E38.93508
G1 X59.080 Y91.210 E38.97372
G1 X59.079 Y89.048 E39.17024
G1 X59.099 Y89.001 E39.17490
G1 X59.099 Y88.753 E39.19748
G1 X59.080 Y88.708 E39.20191
G1 X59.083 Y86.546 E39.39843
G1 X59.102 Y86.502 E39.40286
G1 X59.102 Y86.253 E39.42546
G1 X59.084 Y86.208 E39.42986
G1 X59.087 Y84.047 E39.62638
G1 X59.106 Y84.002 E39.63081
G1 X59.106 Y83.753 E39.65342
G1 X59.087 Y83.709 E39.65782
G1 X59.090 Y81.547 E39.85434
G1 X59.269 Y81.118 E39.89662
G1 X59.293 Y80.998 E39.90772
G1 X59.296 Y80.327 E39.96872
G1 X60.036 Y79.062 E40.10204
G1 X60.079 Y78.901 E40.11716
G1 X60.080 Y76.550 E40.33094
G1 X60.098 Y76.505 E40.33535
G1 X60.098 Y76.257 E40.35796
G1 X60.080 Y76.212 E40.36238
G1 X60.080 Y74.051 E40.55889
G1 X60.098 Y74.006 E40.56331
G1 X60.098 Y73.757 E40.58592
G1 X60.080 Y73.712 E40.59033
G1 X60.080 Y71.551 E40.78685
G1 X60.099 Y71.506 E40.79127
G1 X60.099 Y71.258 E40.81387
G1 X60.080 Y71.213 E40.81829
G1 X60.080 Y69.052 E41.01481
G1 X60.099 Y69.007 E41.01922
G1 X60.099 Y68.758 E41.04183
G1 X60.080 Y68.713 E41.04624
G1 X60.080 Y66.552 E41.24276
G1 X60.099 Y66.507 E41.24718
G1 X60.099 Y66.259 E41.26978
G1 X60.080 Y66.214 E41.27420
G1 X60.081 Y64.053 E41.47072
G1 X60.099 Y64.008 E41.47514
G1 X60.099 Y63.759 E41.49774
G1 X60.081 Y63.714 E41.50216
G1 X60.081 Y61.553 E41.69867
G1 X60.099 Y61.508 E41.70309
G1 X60.099 Y61.260 E41.72570
G1 X60.081 Y61.215 E41.73011
G1 X60.081 Y59.053 E41.92663
G1 X60.100 Y59.009 E41.93105
G1 X60.100 Y58.760 E41.95365
G1 X60.081 Y58.715 E41.95807
G1 X60.081 Y56.554 E42.15459
G1 X60.100 Y56.509 E42.15900
G1 X60.100 Y56.260 E42.18161
G1 X60.081 Y56.216 E42.18602
G1 X60.081 Y54.054 E42.38254
G1 X60.100 Y54.009 E42.38696
G1 X60.100 Y53.761 E42.40956
G1 X60.081 Y53.716 E42.41398
G1 X60.082 Y51.555 E42.61050
G1 X60.100 Y51.510 E42.61492
G1 X60.100 Y51.261 E42.63752
G1 X60.082 Y51.216 E42.64194
G1 X60.082 Y49.055 E42.83845
G1 X60.100 Y49.010 E42.84287
G1 X60.100 Y48.762 E42.86548
G1 X60.082 Y48.717 E42.86989
G1 X60.082 Y46.556 E43.06641
G1 X60.100 Y46.511 E43.07083
G1 X60.100 Y46.262 E43.09343
G1 X60.082 Y46.217 E43.09785
G1 X60.082 Y44.056 E43.29437
G1 X60.101 Y44.011 E43.29878
G1 X60.101 Y43.763 E43.32139
G1 X60.082 Y43.718 E43.32580
G1 X60.082 Y41.557 E43.52232
G1 X60.101 Y41.512 E43.52674
G1 X60.101 Y41.263 E43.54934
G1 X60.082 Y41.218 E43.55376
G1 X60.083 Y37.360 E43.90461
G1 X60.707 Y37.525 F7800.000
G1 X61.256 Y36.976 E43.97522 F900.000
G1 X63.646 Y36.976 E44.19253
G1 X63.932 Y37.069 E44.21983
G1 X64.352 Y37.379 E44.26731
G1 X64.953 Y37.195 E44.32451
G1 X65.220 Y36.482 E44.39372
G1 X65.487 Y36.076 E44.43791
G1 X65.846 Y35.706 E44.48474
G1 X66.159 Y35.481 E44.51988
G1 X66.575 Y35.276 E44.56200
G1 X66.987 Y35.156 E44.60100
G1 X67.436 Y35.106 E44.64215
G1 X100.571 Y35.104 E47.65509
G1 X101.063 Y35.156 E47.70009
G1 X101.475 Y35.276 E47.73909
G1 X101.891 Y35.481 E47.78121
G1 X102.204 Y35.706 E47.81635
G1 X102.563 Y36.076 E47.86318
G1 X102.830 Y36.482 E47.90737
G1 X103.042 Y37.040 E47.96167
G1 X103.714 Y37.192 E48.02432
G1 X103.931 Y36.976 E48.05218
G1 X106.387 Y36.976 E48.27552
G1 X106.731 Y37.118 E48.30942
G1 X107.200 Y37.587 E48.36969
G1 X107.343 Y37.932 E48.40360
G1 X107.343 Y39.844 E48.57751
G1 X107.273 Y40.013 E48.59416
G1 X107.273 Y40.262 E48.61676
G1 X107.343 Y40.431 E48.63342
G1 X107.343 Y42.344 E48.80733
G1 X107.273 Y42.513 E48.82398
G1 X107.273 Y42.761 E48.84658
G1 X107.343 Y42.931 E48.86323
G1 X107.343 Y44.843 E49.03715
G1 X107.273 Y45.012 E49.05380
G1 X107.273 Y45.261 E49.07640
G1 X107.343 Y45.430 E49.09305
G1 X107.343 Y47.343 E49.26697
G1 X107.273 Y47.512 E49.28361
G1 X107.273 Y47.761 E49.30622
G1 X107.343 Y47.930 E49.32287
G1 X107.343 Y49.842 E49.49678
G1 X107.273 Y50.012 E49.51343
G1 X107.273 Y50.260 E49.53604
G1 X107.344 Y50.429 E49.55269
G1 X107.344 Y52.342 E49.72660
G1 X107.274 Y52.511 E49.74325
G1 X107.274 Y52.760 E49.76586
G1 X107.344 Y52.929 E49.78251
G1 X107.344 Y54.842 E49.95642
G1 X107.274 Y55.011 E49.97307
G1 X107.274 Y55.259 E49.99568
G1 X107.344 Y55.428 E50.01233
G1 X107.344 Y57.341 E50.18624
G1 X107.274 Y57.510 E50.20289
G1 X107.274 Y57.759 E50.22549
G1 X107.344 Y57.928 E50.24214
G1 X107.344 Y59.841 E50.41606
G1 X107.274 Y60.010 E50.43271
G1 X107.274 Y60.258 E50.45531
G1 X107.344 Y60.428 E50.47196
G1 X107.344 Y62.340 E50.64588
G1 X107.274 Y62.509 E50.66253
G1 X107.274 Y62.758 E50.68513
G1 X107.344 Y62.927 E50.70178
G1 X107.345 Y64.840 E50.87570
G1 X107.275 Y65.009 E50.89234
G1 X107.275 Y65.258 E50.91495
G1 X107.345 Y65.427 E50.93160
G1 X107.345 Y67.339 E51.10551
G1 X107.275 Y67.508 E51.12216
G1 X107.275 Y67.757 E51.14477
G1 X107.345 Y67.926 E51.16142
G1 X107.345 Y69.839 E51.33533
G1 X107.275 Y70.008 E51.35198
G1 X107.275 Y70.257 E51.37459
G1 X107.345 Y70.426 E51.39124
G1 X107.345 Y72.083 E51.54192
G1 X107.410 Y72.276 E51.56043
G1 X107.645 Y72.588 E51.59594
G1 X108.304 Y74.466 E51.77694
G1 X108.211 Y75.127 E51.83761
G1 X108.233 Y75.293 E51.85282
G1 X108.287 Y75.425 E51.86584
G1 X108.287 Y77.338 E52.03976
G1 X108.217 Y77.507 E52.05641
G1 X108.217 Y77.755 E52.07901
G1 X108.287 Y77.925 E52.09566
G1 X108.287 Y79.837 E52.26957
G1 X108.238 Y79.957 E52.28136
G1 X108.217 Y80.129 E52.29708
G1 X108.319 Y80.770 E52.35609
G1 X107.707 Y82.652 E52.53610
G1 X107.533 Y82.893 E52.56310
G1 X107.482 Y82.929 E52.56880
G1 X107.346 Y83.197 E52.59608
G1 X107.346 Y84.836 E52.74515
G1 X107.276 Y85.005 E52.76180
G1 X107.276 Y85.254 E52.78440
G1 X107.346 Y85.423 E52.80105
G1 X107.346 Y87.336 E52.97497
G1 X107.276 Y87.505 E52.99162
G1 X107.276 Y87.754 E53.01422
G1 X107.346 Y87.923 E53.03087
G1 X107.347 Y89.835 E53.20479
G1 X107.276 Y90.004 E53.22144
G1 X107.276 Y90.253 E53.24404
G1 X107.347 Y90.422 E53.26069
G1 X107.347 Y92.335 E53.43461
