; generated by Slic3r 1.0.0RC2 on 2014-04-25 at 00:35:15

; layer_height = 0.4
; perimeters = 3
; top_solid_layers = 3
; bottom_solid_layers = 3
; fill_density = 0.4
; perimeter_speed = 30
; infill_speed = 60
; travel_speed = 130
; nozzle_diameter = 0.5
; filament_diameter = 3
; extrusion_multiplier = 1
; perimeters extrusion width = 0.50mm
; infill extrusion width = 0.53mm
; solid infill extrusion width = 0.53mm
; top infill extrusion width = 0.53mm
; first layer extrusion width = 1.00mm

G21 ; set units to millimeters
M107
M104 S205 ; set temperature
G28 ; home all axes
G1 Z5 F5000 ; lift nozzle
M109 S205 ; wait for temperature to be reached
G90 ; use absolute coordinates
G92 E0
M82 ; use absolute distances for extrusion
G1 F1800.000 E-1.00000
G92 E0
G1 Z0.500 F7800.000
G1 X33.845 Y64.622 F7800.000
G1 E1.00000 F1800.000
G1 X35.005 Y64.072 E1.08107 F540.000
G1 X35.605 Y63.832 E1.12187
G1 X36.285 Y63.592 E1.16741
G1 X36.805 Y63.432 E1.20176
G1 X37.785 Y63.172 E1.26578
G1 X38.385 Y63.042 E1.30455
G1 X39.865 Y62.792 E1.39933
G1 X41.015 Y62.672 E1.47234
G1 X42.825 Y62.582 E1.58678
G1 X147.455 Y62.592 E8.19369
G1 X147.845 Y62.602 E8.21833
G1 X149.365 Y62.712 E8.31456
G1 X150.155 Y62.802 E8.36477
G1 X151.395 Y63.002 E8.44408
G1 X152.835 Y63.332 E8.53737
G1 X153.615 Y63.562 E8.58872
G1 X154.425 Y63.842 E8.64284
G1 X154.855 Y64.012 E8.67203
G1 X155.595 Y64.342 E8.72320
G1 X156.165 Y64.632 E8.76358
G1 X157.315 Y65.302 E8.84762
G1 X158.005 Y65.762 E8.89999
G1 X159.025 Y66.552 E8.98146
G1 X159.835 Y67.282 E9.05031
G1 X160.525 Y67.972 E9.11193
G1 X160.805 Y68.282 E9.13831
G1 X161.425 Y69.042 E9.20024
G1 X161.875 Y69.652 E9.24811
G1 X162.595 Y70.772 E9.33218
G1 X162.905 Y71.302 E9.37095
G1 X163.225 Y71.932 E9.41557
G1 X163.705 Y73.022 E9.49078
G1 X164.065 Y74.012 E9.55730
G1 X164.355 Y75.002 E9.62244
G1 X164.685 Y76.482 E9.71819
G1 X164.825 Y77.422 E9.77820
G1 X165.005 Y79.472 E9.90815
G1 X165.045 Y81.122 E10.01237
G1 X165.045 Y118.322 E12.36138
G1 X165.025 Y119.802 E12.45485
G1 X164.955 Y121.232 E12.54525
G1 X164.845 Y122.362 E12.61695
G1 X164.695 Y123.392 E12.68267
G1 X164.485 Y124.462 E12.75153
G1 X164.185 Y125.602 E12.82596
G1 X163.995 Y126.182 E12.86450
G1 X163.585 Y127.262 E12.93745
G1 X163.195 Y128.112 E12.99650
G1 X162.715 Y129.022 E13.06147
G1 X162.085 Y130.042 E13.13717
G1 X161.415 Y130.962 E13.20904
G1 X160.965 Y131.522 E13.25440
G1 X160.515 Y132.032 E13.29735
G1 X159.675 Y132.862 E13.37192
G1 X158.815 Y133.612 E13.44397
G1 X157.875 Y134.322 E13.51836
G1 X156.765 Y135.032 E13.60156
G1 X156.065 Y135.402 E13.65156
G1 X155.005 Y135.902 E13.72557
G1 X153.815 Y136.362 E13.80613
G1 X152.985 Y136.622 E13.86105
G1 X152.565 Y136.732 E13.88847
G1 X151.605 Y136.952 E13.95066
G1 X150.035 Y137.212 E14.05115
G1 X149.255 Y137.292 E14.10066
G1 X147.565 Y137.392 E14.20756
G1 X43.795 Y137.412 E20.76017
G1 X42.485 Y137.392 E20.84291
G1 X40.985 Y137.312 E20.93776
G1 X40.075 Y137.222 E20.99550
G1 X38.605 Y137.002 E21.08936
G1 X37.635 Y136.792 E21.15203
G1 X37.045 Y136.632 E21.19063
G1 X36.275 Y136.392 E21.24156
G1 X35.565 Y136.142 E21.28909
G1 X35.135 Y135.972 E21.31829
G1 X33.985 Y135.442 E21.39825
G1 X33.295 Y135.062 E21.44799
G1 X32.595 Y134.642 E21.49954
G1 X32.175 Y134.362 E21.53141
G1 X31.405 Y133.792 E21.59190
G1 X30.745 Y133.252 E21.64575
G1 X30.285 Y132.842 E21.68466
G1 X29.485 Y132.032 E21.75655
G1 X29.075 Y131.582 E21.79499
G1 X28.685 Y131.102 E21.83405
G1 X28.285 Y130.572 E21.87597
G1 X27.815 Y129.902 E21.92765
G1 X27.485 Y129.392 E21.96601
G1 X27.265 Y129.012 E21.99374
G1 X26.765 Y128.052 E22.06209
G1 X26.305 Y127.012 E22.13390
G1 X26.125 Y126.552 E22.16509
G1 X25.735 Y125.372 E22.24356
G1 X25.415 Y124.072 E22.32810
G1 X25.305 Y123.512 E22.36414
G1 X25.165 Y122.582 E22.42353
G1 X25.125 Y122.172 E22.44954
G1 X24.985 Y120.542 E22.55285
G1 X24.945 Y119.172 E22.63939
G1 X24.945 Y81.302 E25.03071
G1 X24.995 Y79.242 E25.16083
G1 X25.135 Y77.702 E25.25848
G1 X25.195 Y77.262 E25.28652
G1 X25.365 Y76.212 E25.35368
G1 X25.485 Y75.602 E25.39294
G1 X25.815 Y74.372 E25.47336
G1 X25.985 Y73.842 E25.50850
G1 X26.245 Y73.132 E25.55625
G1 X26.625 Y72.222 E25.61852
G1 X27.055 Y71.362 E25.67924
G1 X27.305 Y70.912 E25.71174
G1 X27.875 Y70.002 E25.77955
G1 X28.285 Y69.412 E25.82491
G1 X29.065 Y68.432 E25.90401
G1 X29.425 Y68.012 E25.93894
G1 X29.925 Y67.492 E25.98449
G1 X30.315 Y67.122 E26.01843
G1 X30.855 Y66.642 E26.06406
G1 X31.315 Y66.272 E26.10133
G1 X31.985 Y65.772 E26.15412
G1 X32.515 Y65.412 E26.19458
G1 X33.729 Y64.688 E26.28381
G1 F1800.000 E25.28381
G92 E0
G1 X39.551 Y104.793 F7800.000
G1 E1.00000 F1800.000
G1 X40.261 Y104.732 E1.04503 F378.000
G1 X40.974 Y104.752 E1.09006
G1 X41.680 Y104.854 E1.13509
G1 X42.018 Y104.934 E1.15704
G1 X42.370 Y105.035 E1.18014
G1 X43.034 Y105.294 E1.22517
G1 X43.665 Y105.627 E1.27021
G1 X44.254 Y106.030 E1.31525
G1 X44.793 Y106.497 E1.36029
G1 X45.275 Y107.023 E1.40534
G1 X45.694 Y107.600 E1.45038
G1 X45.868 Y107.901 E1.47234
G1 X46.045 Y108.221 E1.49543
G1 X46.323 Y108.878 E1.54048
G1 X46.524 Y109.563 E1.58553
G1 X46.645 Y110.266 E1.63057
G1 X46.685 Y110.963 E1.67470
G1 X46.685 Y120.012 E2.24610
G1 X46.645 Y120.710 E2.29023
G1 X46.584 Y121.070 E2.31332
G1 X46.524 Y121.413 E2.33528
G1 X46.323 Y122.097 E2.38033
G1 X46.045 Y122.754 E2.42538
G1 X45.694 Y123.376 E2.47042
G1 X45.483 Y123.674 E2.49352
G1 X45.275 Y123.953 E2.51547
G1 X44.793 Y124.478 E2.56051
G1 X44.254 Y124.946 E2.60556
G1 X43.665 Y125.348 E2.65060
G1 X43.034 Y125.681 E2.69563
G1 X42.696 Y125.821 E2.71873
G1 X42.370 Y125.940 E2.74068
G1 X41.680 Y126.121 E2.78572
G1 X40.974 Y126.223 E2.83075
G1 X40.609 Y126.244 E2.85384
G1 X39.896 Y126.223 E2.89887
G1 X39.190 Y126.121 E2.94390
G1 X38.500 Y125.940 E2.98894
G1 X37.836 Y125.681 E3.03397
G1 X37.525 Y125.525 E3.05593
G1 X37.205 Y125.348 E3.07902
G1 X36.616 Y124.946 E3.12406
G1 X36.077 Y124.478 E3.16910
G1 X35.595 Y123.953 E3.21415
G1 X35.176 Y123.376 E3.25919
G1 X35.002 Y123.075 E3.28115
G1 X34.825 Y122.754 E3.30424
G1 X34.547 Y122.097 E3.34929
G1 X34.346 Y121.413 E3.39434
G1 X34.225 Y120.710 E3.43939
G1 X34.185 Y120.012 E3.48352
G1 X34.185 Y110.963 E4.05491
G1 X34.225 Y110.266 E4.09904
G1 X34.286 Y109.905 E4.12214
G1 X34.346 Y109.563 E4.14409
G1 X34.547 Y108.878 E4.18914
G1 X34.825 Y108.221 E4.23419
G1 X35.176 Y107.600 E4.27923
G1 X35.387 Y107.301 E4.30233
G1 X35.595 Y107.023 E4.32428
G1 X36.077 Y106.497 E4.36933
G1 X36.616 Y106.030 E4.41437
G1 X37.205 Y105.627 E4.45941
G1 X37.836 Y105.294 E4.50445
G1 X38.500 Y105.035 E4.54948
G1 X38.852 Y104.934 E4.57258
G1 X39.419 Y104.815 E4.60915
G1 X39.828 Y104.136 F7800.000
G1 X39.742 Y102.973 F7800.000
G1 X38.834 Y103.103 E4.66707 F540.000
G1 X37.947 Y103.337 E4.72498
G1 X37.093 Y103.670 E4.78291
G1 X36.692 Y103.871 E4.81119
G1 X36.281 Y104.098 E4.84084
G1 X35.524 Y104.616 E4.89877
G1 X34.121 Y105.851 E5.01684
G1 X34.128 Y80.964 E6.58833
G1 X34.197 Y79.315 E6.69256
G1 X34.267 Y78.647 E6.73497
G1 X34.355 Y78.073 E6.77165
G1 X34.479 Y77.491 E6.80922
G1 X34.641 Y76.916 E6.84694
G1 X34.838 Y76.373 E6.88340
G1 X35.015 Y75.972 E6.91110
G1 X35.197 Y75.616 E6.93634
G1 X35.459 Y75.177 E6.96864
G1 X35.769 Y74.734 E7.00276
G1 X36.113 Y74.317 E7.03692
G1 X36.489 Y73.926 E7.07117
G1 X36.905 Y73.555 E7.10632
G1 X37.378 Y73.198 E7.14377
G1 X37.796 Y72.931 E7.17510
G1 X38.254 Y72.684 E7.20798
G1 X38.752 Y72.463 E7.24234
G1 X39.262 Y72.280 E7.27657
G1 X40.049 Y72.070 E7.32804
G1 X40.959 Y71.912 E7.38634
G1 X41.645 Y71.836 E7.42994
G1 X42.889 Y71.766 E7.50856
G1 X43.807 Y71.758 E7.56659
G1 X146.188 Y71.757 E14.03144
G1 X147.333 Y71.773 E14.10377
G1 X148.412 Y71.841 E14.17201
G1 X149.079 Y71.917 E14.21442
G1 X149.932 Y72.066 E14.26913
G1 X150.620 Y72.243 E14.31400
G1 X151.210 Y72.447 E14.35341
G1 X151.773 Y72.697 E14.39226
G1 X152.309 Y72.994 E14.43101
G1 X152.826 Y73.343 E14.47038
G1 X153.307 Y73.735 E14.50952
G1 X153.752 Y74.167 E14.54871
G1 X154.249 Y74.758 E14.59745
G1 X154.598 Y75.264 E14.63630
G1 X154.761 Y75.540 E14.65651
G1 X155.122 Y76.274 E14.70815
G1 X155.398 Y77.040 E14.75958
G1 X155.557 Y77.639 E14.79873
G1 X155.676 Y78.255 E14.83832
G1 X155.793 Y79.198 E14.89832
G1 X155.860 Y80.374 E14.97271
G1 X155.875 Y81.305 E15.03149
G1 X155.877 Y118.234 E17.36339
G1 X155.859 Y119.634 E17.45183
G1 X155.826 Y120.360 E17.49770
G1 X155.734 Y121.353 E17.56070
G1 X155.645 Y121.927 E17.59737
G1 X155.522 Y122.509 E17.63494
G1 X155.359 Y123.084 E17.67266
G1 X155.163 Y123.627 E17.70913
G1 X154.932 Y124.138 E17.74452
G1 X154.541 Y124.823 E17.79435
G1 X154.231 Y125.266 E17.82847
G1 X153.887 Y125.683 E17.86264
G1 X153.511 Y126.074 E17.89689
G1 X153.096 Y126.445 E17.93204
G1 X152.622 Y126.802 E17.96949
G1 X152.204 Y127.069 E18.00082
G1 X151.746 Y127.316 E18.03370
G1 X151.248 Y127.537 E18.06806
G1 X150.738 Y127.720 E18.10228
G1 X149.951 Y127.930 E18.15376
G1 X149.041 Y128.088 E18.21206
G1 X148.355 Y128.164 E18.25566
G1 X147.111 Y128.234 E18.33428
G1 X146.193 Y128.243 E18.39231
G1 X43.812 Y128.242 E24.85716
G1 X42.665 Y128.226 E24.92964
G1 X42.583 Y127.801 E24.95703
G1 X43.777 Y127.306 E25.03866
G1 X44.589 Y126.878 E25.09658
G1 X45.346 Y126.360 E25.15451
G1 X46.039 Y125.759 E25.21244
G1 X46.659 Y125.083 E25.27037
G1 X47.199 Y124.341 E25.32831
G1 X47.650 Y123.542 E25.38625
G1 X48.007 Y122.697 E25.44418
G1 X48.265 Y121.816 E25.50213
G1 X48.343 Y121.375 E25.53041
G1 X48.422 Y120.912 E25.56007
G1 X48.471 Y120.062 E25.61381
G1 X48.471 Y110.913 E26.19154
G1 X48.422 Y110.063 E26.24528
G1 X48.265 Y109.159 E26.30322
G1 X48.007 Y108.279 E26.36116
G1 X47.650 Y107.434 E26.41910
G1 X47.423 Y107.023 E26.44876
G1 X47.199 Y106.635 E26.47704
G1 X46.659 Y105.892 E26.53498
G1 X46.039 Y105.216 E26.59291
G1 X45.346 Y104.616 E26.65084
G1 X44.589 Y104.098 E26.70877
G1 X44.178 Y103.871 E26.73842
G1 X43.777 Y103.670 E26.76670
G1 X42.923 Y103.337 E26.82463
G1 X42.036 Y103.103 E26.88254
G1 X41.573 Y103.025 E26.91220
G1 X41.128 Y102.973 E26.94048
G1 X40.659 Y102.946 E26.97013
G1 X39.876 Y102.965 E27.01959
G1 X39.819 Y103.862 F7800.000
G1 X39.012 Y103.979 E27.07107 F540.000
G1 X38.224 Y104.186 E27.12254
G1 X37.850 Y104.322 E27.14766
G1 X37.464 Y104.482 E27.17403
G1 X36.743 Y104.862 E27.22551
G1 X36.070 Y105.323 E27.27700
G1 X35.454 Y105.857 E27.32848
G1 X34.903 Y106.457 E27.37997
G1 X34.424 Y107.117 E27.43146
G1 X33.563 Y108.659 E27.54293
G1 X33.228 Y108.572 E27.56479
G1 X33.236 Y80.952 E29.30886
G1 X33.249 Y80.335 E29.34782
G1 X33.308 Y79.237 E29.41729
G1 X33.380 Y78.539 E29.46162
G1 X33.477 Y77.914 E29.50156
G1 X33.612 Y77.278 E29.54259
G1 X33.791 Y76.643 E29.58426
G1 X34.011 Y76.036 E29.62501
G1 X34.205 Y75.597 E29.65536
G1 X34.417 Y75.181 E29.68483
G1 X34.708 Y74.692 E29.72075
G1 X35.058 Y74.194 E29.75921
G1 X35.446 Y73.723 E29.79771
G1 X35.869 Y73.282 E29.83630
G1 X36.332 Y72.870 E29.87543
G1 X36.884 Y72.455 E29.91906
G1 X37.333 Y72.167 E29.95274
G1 X37.861 Y71.882 E29.99057
G1 X38.420 Y71.634 E30.02922
G1 X38.994 Y71.428 E30.06773
G1 X39.859 Y71.197 E30.12426
G1 X40.844 Y71.026 E30.18738
G1 X41.564 Y70.947 E30.23316
G1 X42.865 Y70.874 E30.31544
G1 X43.803 Y70.865 E30.37466
G1 X146.194 Y70.865 E36.84018
G1 X147.361 Y70.881 E36.91388
G1 X147.923 Y70.909 E36.94944
G1 X148.711 Y70.975 E36.99934
G1 X149.486 Y71.075 E37.04868
G1 X150.121 Y71.193 E37.08946
G1 X150.879 Y71.389 E37.13894
G1 X151.537 Y71.617 E37.18290
G1 X152.170 Y71.897 E37.22661
G1 X152.776 Y72.233 E37.27035
G1 X153.358 Y72.626 E37.31469
G1 X153.899 Y73.067 E37.35879
G1 X154.401 Y73.554 E37.40293
G1 X154.961 Y74.219 E37.45783
G1 X155.355 Y74.791 E37.50173
G1 X155.542 Y75.106 E37.52482
G1 X155.944 Y75.926 E37.58249
G1 X156.253 Y76.781 E37.63989
G1 X156.427 Y77.441 E37.68297
G1 X156.558 Y78.113 E37.72625
G1 X156.682 Y79.119 E37.79025
G1 X156.752 Y80.346 E37.86787
G1 X156.768 Y81.301 E37.92814
G1 X156.770 Y118.235 E40.26035
G1 X156.752 Y119.665 E40.35065
G1 X156.718 Y120.412 E40.39788
G1 X156.620 Y121.461 E40.46444
G1 X156.524 Y122.087 E40.50438
G1 X156.389 Y122.722 E40.54541
G1 X156.209 Y123.357 E40.58709
G1 X155.989 Y123.964 E40.62784
G1 X155.729 Y124.540 E40.66776
G1 X155.292 Y125.308 E40.72356
G1 X154.942 Y125.807 E40.76202
G1 X154.554 Y126.277 E40.80053
G1 X154.131 Y126.718 E40.83911
G1 X153.668 Y127.130 E40.87824
G1 X153.116 Y127.546 E40.92188
G1 X152.667 Y127.833 E40.95555
G1 X152.140 Y128.118 E40.99338
G1 X151.580 Y128.366 E41.03204
G1 X151.006 Y128.572 E41.07054
G1 X150.141 Y128.803 E41.12707
G1 X149.156 Y128.974 E41.19020
G1 X148.436 Y129.053 E41.23598
G1 X147.135 Y129.126 E41.31826
G1 X146.197 Y129.135 E41.37748
G1 X43.806 Y129.135 E47.84300
G1 X42.639 Y129.119 E47.91670
G1 X41.508 Y129.048 E47.98824
G1 X40.797 Y128.967 E48.03343
G1 X39.879 Y128.807 E48.09227
G1 X39.121 Y128.611 E48.14175
G1 X38.463 Y128.383 E48.18571
G1 X37.830 Y128.102 E48.22942
G1 X37.524 Y127.942 E48.25127
G1 X36.931 Y127.579 E48.29515
G1 X36.367 Y127.159 E48.33954
G1 X35.845 Y126.695 E48.38368
G1 X35.485 Y126.322 E48.41640
G1 X34.687 Y125.416 E48.49260
G1 X35.096 Y124.962 E48.53123
G1 X36.743 Y126.113 E48.65812
G1 X37.464 Y126.494 E48.70960
G1 X38.224 Y126.789 E48.76108
G1 X39.012 Y126.997 E48.81256
G1 X39.424 Y127.067 E48.83893
G1 X39.819 Y127.113 E48.86405
G1 X40.634 Y127.136 E48.91552
G1 X41.446 Y127.067 E48.96698
G1 X41.858 Y126.997 E48.99336
G1 X42.646 Y126.789 E49.04484
G1 X43.406 Y126.494 E49.09631
G1 X44.127 Y126.113 E49.14780
G1 X44.800 Y125.653 E49.19928
G1 X45.104 Y125.397 E49.22440
G1 X45.416 Y125.119 E49.25077
G1 X45.967 Y124.518 E49.30226
G1 X46.446 Y123.858 E49.35375
G1 X46.847 Y123.148 E49.40524
G1 X47.165 Y122.397 E49.45673
G1 X47.279 Y122.016 E49.48185
G1 X47.395 Y121.614 E49.50823
G1 X47.534 Y120.811 E49.55973
G1 X47.578 Y120.037 E49.60866
G1 X47.578 Y110.938 E50.18322
G1 X47.534 Y110.165 E50.23216
G1 X47.395 Y109.361 E50.28366
G1 X47.279 Y108.960 E50.31003
G1 X47.165 Y108.578 E50.33515
G1 X46.847 Y107.827 E50.38665
G1 X46.446 Y107.117 E50.43814
G1 X45.967 Y106.457 E50.48963
G1 X45.689 Y106.146 E50.51600
G1 X45.416 Y105.857 E50.54112
G1 X44.800 Y105.323 E50.59261
G1 X44.127 Y104.862 E50.64409
G1 X43.406 Y104.482 E50.69557
G1 X42.646 Y104.186 E50.74705
G1 X42.245 Y104.070 E50.77342
G1 X41.858 Y103.979 E50.79854
G1 X41.051 Y103.862 E50.85001
G1 X40.634 Y103.839 E50.87639
G1 X39.953 Y103.855 E50.91941
G1 F1800.000 E49.91941
G92 E0
G1 X32.335 Y114.911 F7800.000
G1 E1.00000 F1800.000
G1 X32.339 Y81.428 E3.11428 F378.000
G1 X32.356 Y80.305 E3.18522
G1 X32.391 Y79.536 E3.23382
G1 X32.542 Y78.093 E3.32544
G1 X32.664 Y77.418 E3.36877
G1 X32.837 Y76.715 E3.41443
G1 X32.999 Y76.198 E3.44868
G1 X33.184 Y75.699 E3.48227
G1 X33.395 Y75.221 E3.51527
G1 X33.637 Y74.745 E3.54897
G1 X33.958 Y74.208 E3.58851
G1 X34.347 Y73.653 E3.63132
G1 X34.779 Y73.129 E3.67416
G1 X35.250 Y72.639 E3.71708
G1 X35.759 Y72.185 E3.76019
G1 X36.210 Y71.837 E3.79612
G1 X36.871 Y71.404 E3.84602
G1 X37.467 Y71.081 E3.88881
G1 X38.088 Y70.805 E3.93176
G1 X38.726 Y70.576 E3.97455
G1 X39.668 Y70.325 E4.03613
G1 X40.728 Y70.141 E4.10407
G1 X41.483 Y70.058 E4.15203
G1 X42.118 Y70.012 E4.19223
G1 X42.842 Y69.981 E4.23798
G1 X43.799 Y69.972 E4.29840
G1 X146.200 Y69.972 E10.76458
G1 X147.389 Y69.989 E10.83967
G1 X147.979 Y70.018 E10.87697
G1 X148.805 Y70.087 E10.92932
G1 X149.623 Y70.193 E10.98141
G1 X150.309 Y70.320 E11.02546
G1 X151.138 Y70.534 E11.07954
G1 X151.864 Y70.786 E11.12806
G1 X152.567 Y71.098 E11.17661
G1 X153.243 Y71.472 E11.22536
G1 X153.890 Y71.909 E11.27467
G1 X154.492 Y72.399 E11.32372
G1 X155.050 Y72.941 E11.37281
G1 X155.430 Y73.371 E11.40906
G1 X155.900 Y73.995 E11.45839
G1 X156.323 Y74.673 E11.50881
G1 X156.632 Y75.275 E11.55156
G1 X156.891 Y75.889 E11.59366
G1 X157.107 Y76.522 E11.63590
G1 X157.209 Y76.881 E11.65942
G1 X157.374 Y77.606 E11.70644
G1 X157.515 Y78.506 E11.76392
G1 X157.617 Y79.680 E11.83833
G1 X157.658 Y81.026 E11.92337
G1 X157.662 Y118.236 E14.27301
G1 X157.644 Y119.695 E14.36517
G1 X157.609 Y120.464 E14.41377
G1 X157.506 Y121.570 E14.48389
G1 X157.402 Y122.246 E14.52710
G1 X157.256 Y122.935 E14.57159
G1 X157.059 Y123.631 E14.61722
G1 X156.816 Y124.301 E14.66225
G1 X156.605 Y124.779 E14.69524
G1 X156.363 Y125.255 E14.72895
