; generated by Slic3r 0.9.9 on 2014-04-09 at 20:23:21

; layer_height = 0.2
; perimeters = 3
; top_solid_layers = 3
; bottom_solid_layers = 3
; fill_density = 0.2
; perimeter_speed = 36
; infill_speed = 60
; travel_speed = 130
; nozzle_diameter = 0.35
; filament_diameter = 1.75
; extrusion_multiplier = 1
; perimeters extrusion width = 0.52mm
; infill extrusion width = 0.52mm
; solid infill extrusion width = 0.52mm
; top infill extrusion width = 0.52mm
; support material extrusion width = 0.52mm
; first layer extrusion width = 0.60mm

G21 ; set units to millimeters
M107 ; disable fan
M190 S100 ; wait for bed temperature to be reached
M104 S225 ; set temperature
G28 ; home all axes
G1 Z5 F5000 ; lift nozzle
M109 S225 ; wait for temperature to be reached
G90 ; use absolute coordinates
G92 E0 ; reset extrusion distance
M82 ; use absolute distances for extrusion
G1 F1800.000 E-1.00000 ; retract
G92 E0 ; reset extrusion distance
G1 Z0.300 F7800.000 ; move to next layer (0)
G1 X45.525 Y50.877 ; move to first skirt point
G1 F1800.000 E1.00000 ; compensate retraction
G1 X46.005 Y50.497 F756.000 E1.04172 ; skirt
G1 X46.175 Y50.387 E1.05552 ; skirt
G1 X46.545 Y50.207 E1.08355 ; skirt
G1 X46.935 Y50.067 E1.11179 ; skirt
G1 X47.135 Y50.017 E1.12584 ; skirt
G1 X47.535 Y49.947 E1.15351 ; skirt
G1 X47.945 Y49.917 E1.18152 ; skirt
G1 X69.115 Y49.917 E2.62413 ; skirt
G1 X156.545 Y51.987 E8.58360 ; skirt
G1 X156.745 Y51.997 E8.59725 ; skirt
G1 X157.325 Y52.097 E8.63735 ; skirt
G1 X157.695 Y52.207 E8.66366 ; skirt
G1 X158.055 Y52.367 E8.69050 ; skirt
G1 X158.395 Y52.557 E8.71705 ; skirt
G1 X158.715 Y52.787 E8.74390 ; skirt
G1 X159.135 Y53.197 E8.78390 ; skirt
G1 X159.485 Y53.667 E8.82383 ; skirt
G1 X159.665 Y54.017 E8.85065 ; skirt
G1 X159.815 Y54.377 E8.87722 ; skirt
G1 X159.965 Y54.947 E8.91739 ; skirt
G1 X160.015 Y55.527 E8.95706 ; skirt
G1 X160.165 Y107.457 E12.49578 ; skirt
G1 X160.155 Y107.747 E12.51555 ; skirt
G1 X160.115 Y108.037 E12.53550 ; skirt
G1 X159.555 Y110.747 E12.72407 ; skirt
G1 X159.435 Y111.177 E12.75449 ; skirt
G1 X159.265 Y111.597 E12.78537 ; skirt
G1 X159.155 Y111.797 E12.80092 ; skirt
G1 X139.785 Y145.487 E15.44909 ; skirt
G1 X138.835 Y146.927 E15.56664 ; skirt
G1 X138.445 Y147.367 E15.60671 ; skirt
G1 X138.145 Y147.627 E15.63376 ; skirt
G1 X137.815 Y147.857 E15.66117 ; skirt
G1 X137.275 Y148.117 E15.70201 ; skirt
G1 X136.895 Y148.237 E15.72917 ; skirt
G1 X136.505 Y148.317 E15.75630 ; skirt
G1 X135.915 Y148.357 E15.79659 ; skirt
G1 X68.115 Y146.787 E20.41798 ; skirt
G1 X67.695 Y146.747 E20.44673 ; skirt
G1 X67.275 Y146.667 E20.47586 ; skirt
G1 X66.685 Y146.447 E20.51877 ; skirt
G1 X66.135 Y146.127 E20.56213 ; skirt
G1 X65.965 Y145.997 E20.57671 ; skirt
G1 X65.655 Y145.707 E20.60564 ; skirt
G1 X64.565 Y144.457 E20.71866 ; skirt
G1 X64.235 Y144.017 E20.75614 ; skirt
G1 X44.825 Y110.127 E23.41748 ; skirt
G1 X44.645 Y109.777 E23.44430 ; skirt
G1 X44.455 Y109.207 E23.48524 ; skirt
G1 X43.825 Y106.627 E23.66622 ; skirt
G1 X43.745 Y106.117 E23.70140 ; skirt
G1 X43.725 Y105.767 E23.72528 ; skirt
G1 X43.995 Y54.527 E27.21702 ; skirt
G1 X44.035 Y54.037 E27.25052 ; skirt
G1 X44.145 Y53.547 E27.28474 ; skirt
G1 X44.615 Y52.237 E27.37958 ; skirt
G1 X44.785 Y51.857 E27.40795 ; skirt
G1 X45.105 Y51.337 E27.44955 ; skirt
G1 X45.467 Y50.935 E27.48642 ; skirt
G1 F1800.000 E26.48642 ; retract
G92 E0 ; reset extrusion distance
G1 X47.057 Y52.636 F7800.000 ; move to first brim point
G1 F1800.000 E1.00000 ; compensate retraction
G1 X47.479 Y52.342 F756.000 E1.03504 ; brim
G1 X49.840 Y52.342 E1.19591 ; brim
G1 X50.320 Y52.822 E1.24217 ; brim
G1 X50.320 Y53.611 E1.29592 ; brim
G1 X66.691 Y53.611 E2.41148 ; brim
G1 X66.691 Y52.824 E2.46509 ; brim
G1 X67.171 Y52.344 E2.51136 ; brim
G1 X69.509 Y52.344 E2.67068 ; brim
G1 X69.933 Y52.641 E2.70593 ; brim
G1 X70.221 Y53.437 E2.76361 ; brim
G1 X70.676 Y53.437 E2.79461 ; brim
G1 X71.156 Y53.917 E2.84088 ; brim
G1 X71.156 Y55.196 E2.92803 ; brim
G1 X70.676 Y55.676 E2.97429 ; brim
G1 X70.438 Y55.676 E2.99054 ; brim
G1 X70.264 Y55.850 E3.00732 ; brim
G1 X70.144 Y55.850 E3.01546 ; brim
G1 X70.158 Y87.484 E5.17116 ; brim
G1 X70.279 Y87.484 E5.17937 ; brim
G1 X70.759 Y87.964 E5.22563 ; brim
G1 X70.759 Y88.577 E5.26738 ; brim
G1 X97.911 Y88.577 E7.11767 ; brim
G1 X97.911 Y87.964 E7.15942 ; brim
G1 X98.391 Y87.484 E7.20568 ; brim
G1 X101.388 Y87.484 E7.40990 ; brim
G1 X101.869 Y87.967 E7.45630 ; brim
G1 X101.861 Y89.767 E7.57894 ; brim
G1 X102.244 Y90.150 E7.61587 ; brim
G1 X102.244 Y90.189 E7.61856 ; brim
G1 X102.565 Y89.305 E7.68268 ; brim
G1 X102.989 Y89.008 E7.71792 ; brim
G1 X105.327 Y89.008 E7.87725 ; brim
G1 X105.807 Y89.488 E7.92351 ; brim
G1 X105.807 Y90.153 E7.96885 ; brim
G1 X133.240 Y90.153 E9.83825 ; brim
G1 X133.240 Y89.541 E9.88000 ; brim
G1 X133.720 Y89.061 E9.92626 ; brim
G1 X133.841 Y89.061 E9.93447 ; brim
G1 X133.854 Y57.426 E12.09017 ; brim
G1 X133.478 Y57.426 E12.11576 ; brim
G1 X132.986 Y56.809 E12.16951 ; brim
G1 X133.522 Y54.452 E12.33423 ; brim
G1 X133.970 Y54.094 E12.37335 ; brim
G1 X136.982 Y54.094 E12.57859 ; brim
G1 X137.462 Y54.574 E12.62486 ; brim
G1 X137.462 Y55.187 E12.66660 ; brim
G1 X154.547 Y55.187 E13.83078 ; brim
G1 X154.514 Y55.050 E13.84041 ; brim
G1 X155.006 Y54.425 E13.89458 ; brim
G1 X157.710 Y54.425 E14.07884 ; brim
G1 X158.190 Y54.905 E14.12510 ; brim
G1 X158.190 Y56.184 E14.21225 ; brim
G1 X157.766 Y56.608 E14.25309 ; brim
G1 X157.766 Y57.277 E14.29868 ; brim
G1 X157.286 Y57.757 E14.34494 ; brim
G1 X157.166 Y57.757 E14.35313 ; brim
G1 X157.166 Y87.968 E16.41181 ; brim
G1 X157.286 Y87.968 E16.41999 ; brim
G1 X157.766 Y88.448 E16.46625 ; brim
G1 X157.766 Y89.727 E16.55340 ; brim
G1 X157.286 Y90.207 E16.59966 ; brim
G1 X157.166 Y90.207 E16.60784 ; brim
G1 X157.166 Y97.802 E17.12541 ; brim
G1 X157.286 Y97.802 E17.13358 ; brim
G1 X157.766 Y98.282 E17.17984 ; brim
G1 X157.766 Y99.561 E17.26699 ; brim
G1 X157.286 Y100.041 E17.31326 ; brim
G1 X157.166 Y100.041 E17.32143 ; brim
G1 X157.166 Y101.080 E17.39223 ; brim
G1 X157.286 Y101.080 E17.40041 ; brim
G1 X157.766 Y101.560 E17.44667 ; brim
G1 X157.766 Y102.839 E17.53382 ; brim
G1 X157.286 Y103.319 E17.58008 ; brim
G1 X157.166 Y103.319 E17.58826 ; brim
G1 X157.166 Y106.350 E17.79481 ; brim
G1 X157.858 Y106.350 E17.84195 ; brim
G1 X158.338 Y106.831 E17.88822 ; brim
G1 X158.338 Y108.109 E17.97537 ; brim
G1 X157.899 Y108.548 E18.01763 ; brim
G1 X157.899 Y109.579 E18.08786 ; brim
G1 X157.805 Y109.672 E18.09688 ; brim
G1 X157.805 Y110.671 E18.16496 ; brim
G1 X157.325 Y111.151 E18.21123 ; brim
G1 X156.194 Y111.151 E18.28835 ; brim
G1 X154.179 Y114.637 E18.56267 ; brim
G1 X154.215 Y114.673 E18.56614 ; brim
G1 X154.215 Y115.952 E18.65329 ; brim
G1 X153.735 Y116.432 E18.69955 ; brim
G1 X153.142 Y116.432 E18.73999 ; brim
G1 X152.284 Y117.915 E18.85673 ; brim
G1 X152.320 Y117.951 E18.86020 ; brim
G1 X152.320 Y119.230 E18.94735 ; brim
G1 X151.840 Y119.710 E18.99361 ; brim
G1 X151.247 Y119.710 E19.03405 ; brim
G1 X145.337 Y129.935 E19.83882 ; brim
G1 X145.373 Y129.971 E19.84229 ; brim
G1 X145.373 Y131.249 E19.92944 ; brim
G1 X144.893 Y131.730 E19.97570 ; brim
G1 X144.299 Y131.730 E20.01615 ; brim
G1 X143.442 Y133.213 E20.13288 ; brim
G1 X143.478 Y133.249 E20.13635 ; brim
G1 X143.478 Y134.528 E20.22350 ; brim
G1 X142.998 Y135.008 E20.26976 ; brim
G1 X142.404 Y135.008 E20.31020 ; brim
G1 X137.887 Y142.824 E20.92539 ; brim
G1 X138.232 Y143.466 E20.97511 ; brim
G1 X137.715 Y144.246 E21.03887 ; brim
G1 X137.715 Y145.455 E21.12119 ; brim
G1 X137.235 Y145.935 E21.16746 ; brim
G1 X134.946 Y145.935 E21.32341 ; brim
G1 X134.483 Y145.071 E21.39021 ; brim
G1 X134.637 Y144.837 E21.40930 ; brim
G1 X134.431 Y144.778 E21.42394 ; brim
G1 X131.711 Y143.073 E21.64273 ; brim
G1 X131.551 Y142.656 E21.67310 ; brim
G1 X131.024 Y142.656 E21.70904 ; brim
G1 X130.816 Y142.601 E21.72370 ; brim
G1 X127.913 Y140.931 E21.95191 ; brim
G1 X127.721 Y140.471 E21.98588 ; brim
G1 X127.224 Y140.471 E22.01980 ; brim
G1 X127.016 Y140.416 E22.03445 ; brim
G1 X124.113 Y138.746 E22.26267 ; brim
G1 X123.921 Y138.286 E22.29664 ; brim
G1 X123.424 Y138.286 E22.33056 ; brim
G1 X123.216 Y138.230 E22.34521 ; brim
G1 X121.657 Y137.334 E22.46773 ; brim
G1 X119.790 Y137.334 E22.59499 ; brim
G1 X119.300 Y136.778 E22.64549 ; brim
G1 X119.369 Y136.241 E22.68234 ; brim
G1 X118.919 Y136.241 E22.71303 ; brim
G1 X118.439 Y135.761 E22.75930 ; brim
G1 X118.439 Y134.482 E22.84645 ; brim
G1 X118.919 Y134.002 E22.89271 ; brim
G1 X120.057 Y134.002 E22.97028 ; brim
G1 X125.722 Y124.246 E23.73908 ; brim
G1 X125.787 Y124.208 E23.74422 ; brim
G1 X126.889 Y122.080 E23.90750 ; brim
G1 X126.972 Y122.030 E23.91405 ; brim
G1 X127.559 Y119.986 E24.05902 ; brim
G1 X127.597 Y119.957 E24.06223 ; brim
G1 X127.698 Y117.922 E24.20108 ; brim
G1 X127.722 Y117.900 E24.20325 ; brim
G1 X127.371 Y115.868 E24.34376 ; brim
G1 X127.383 Y115.854 E24.34503 ; brim
G1 X126.550 Y113.878 E24.49115 ; brim
G1 X125.198 Y112.013 E24.64814 ; brim
G1 X125.070 Y111.968 E24.65734 ; brim
G1 X122.812 Y110.161 E24.85445 ; brim
G1 X122.730 Y109.876 E24.87469 ; brim
G1 X120.720 Y109.876 E25.01167 ; brim
G1 X120.240 Y109.395 E25.05794 ; brim
G1 X120.240 Y108.783 E25.09968 ; brim
G1 X105.551 Y108.783 E26.10067 ; brim
G1 X105.551 Y109.499 E26.14947 ; brim
G1 X105.071 Y109.979 E26.19573 ; brim
G1 X103.395 Y109.979 E26.30992 ; brim
G1 X102.989 Y109.716 E26.34288 ; brim
G1 X102.615 Y108.886 E26.40490 ; brim
G1 X101.493 Y108.886 E26.48137 ; brim
G1 X101.013 Y108.406 E26.52764 ; brim
G1 X101.013 Y108.315 E26.53386 ; brim
G1 X99.257 Y108.315 E26.65352 ; brim
G1 X98.773 Y107.566 E26.71431 ; brim
G1 X98.934 Y107.207 E26.74115 ; brim
G1 X83.488 Y107.207 E27.79369 ; brim
G1 X83.488 Y107.819 E27.83544 ; brim
G1 X83.008 Y108.299 E27.88170 ; brim
G1 X81.349 Y108.299 E27.99480 ; brim
G1 X78.845 Y110.387 E28.21694 ; brim
G1 X78.747 Y110.422 E28.22400 ; brim
G1 X77.408 Y112.270 E28.37952 ; brim
G1 X76.597 Y114.282 E28.52734 ; brim
G1 X76.279 Y116.328 E28.66843 ; brim
G1 X76.426 Y118.386 E28.80908 ; brim
G1 X76.446 Y118.401 E28.81077 ; brim
G1 X77.077 Y120.461 E28.95758 ; brim
G1 X77.142 Y120.501 E28.96277 ; brim
G1 X78.272 Y122.638 E29.12751 ; brim
G1 X78.327 Y122.669 E29.13183 ; brim
G1 X83.944 Y132.343 E29.89407 ; brim
G1 X85.079 Y132.343 E29.97142 ; brim
G1 X85.559 Y132.823 E30.01769 ; brim
G1 X85.559 Y134.102 E30.10484 ; brim
G1 X85.214 Y134.446 E30.13803 ; brim
G1 X85.214 Y135.194 E30.18902 ; brim
G1 X84.734 Y135.675 E30.23528 ; brim
G1 X82.922 Y135.675 E30.35879 ; brim
G1 X82.689 Y135.470 E30.37988 ; brim
G1 X80.634 Y136.654 E30.54150 ; brim
G1 X80.426 Y136.710 E30.55617 ; brim
G1 X79.931 Y136.710 E30.58995 ; brim
G1 X79.740 Y137.169 E30.62385 ; brim
G1 X76.840 Y138.839 E30.85190 ; brim
G1 X76.632 Y138.895 E30.86657 ; brim
G1 X76.136 Y138.895 E30.90035 ; brim
G1 X75.945 Y139.354 E30.93425 ; brim
G1 X73.046 Y141.025 E31.16230 ; brim
G1 X72.837 Y141.080 E31.17697 ; brim
G1 X72.272 Y141.080 E31.21553 ; brim
G1 X72.498 Y141.317 E31.23788 ; brim
G1 X72.498 Y142.596 E31.32503 ; brim
G1 X72.018 Y143.076 E31.37129 ; brim
G1 X69.924 Y143.076 E31.51400 ; brim
G1 X69.924 Y143.878 E31.56865 ; brim
G1 X69.444 Y144.358 E31.61492 ; brim
G1 X67.890 Y144.358 E31.72077 ; brim
G1 X67.567 Y144.212 E31.74494 ; brim
G1 X65.624 Y141.988 E31.94619 ; brim
G1 X66.049 Y141.052 E32.01624 ; brim
G1 X61.644 Y133.431 E32.61604 ; brim
G1 X61.051 Y133.431 E32.65648 ; brim
G1 X60.571 Y132.951 E32.70274 ; brim
G1 X60.571 Y131.672 E32.78989 ; brim
G1 X60.607 Y131.636 E32.79336 ; brim
G1 X59.750 Y130.153 E32.91010 ; brim
G1 X59.156 Y130.153 E32.95054 ; brim
G1 X58.676 Y129.673 E32.99680 ; brim
G1 X58.676 Y128.394 E33.08395 ; brim
G1 X58.712 Y128.358 E33.08742 ; brim
G1 X47.804 Y109.487 E34.57272 ; brim
G1 X47.247 Y109.487 E34.61072 ; brim
G1 X46.762 Y108.980 E34.65853 ; brim
G1 X46.790 Y108.395 E34.69844 ; brim
G1 X46.591 Y108.395 E34.71202 ; brim
G1 X46.111 Y107.915 E34.75829 ; brim
G1 X46.111 Y106.909 E34.82685 ; brim
G1 X46.026 Y106.909 E34.83260 ; brim
G1 X45.546 Y106.428 E34.87887 ; brim
G1 X45.546 Y105.150 E34.96602 ; brim
G1 X46.026 Y104.669 E35.01228 ; brim
G1 X46.832 Y104.669 E35.06721 ; brim
G1 X46.832 Y101.743 E35.26662 ; brim
G1 X46.712 Y101.743 E35.27480 ; brim
G1 X46.232 Y101.263 E35.32106 ; brim
G1 X46.232 Y99.984 E35.40821 ; brim
G1 X46.712 Y99.504 E35.45447 ; brim
G1 X46.832 Y99.504 E35.46265 ; brim
G1 X46.832 Y98.465 E35.53345 ; brim
G1 X46.712 Y98.465 E35.54162 ; brim
G1 X46.232 Y97.985 E35.58789 ; brim
G1 X46.232 Y96.706 E35.67504 ; brim
G1 X46.712 Y96.226 E35.72130 ; brim
G1 X46.832 Y96.226 E35.72948 ; brim
G1 X46.832 Y88.631 E36.24704 ; brim
G1 X46.712 Y88.631 E36.25522 ; brim
G1 X46.232 Y88.151 E36.30148 ; brim
G1 X46.232 Y86.872 E36.38863 ; brim
G1 X46.712 Y86.392 E36.43489 ; brim
G1 X46.832 Y86.392 E36.44307 ; brim
G1 X46.832 Y55.674 E38.53630 ; brim
G1 X46.681 Y55.674 E38.54660 ; brim
G1 X46.192 Y54.971 E38.60495 ; brim
G1 X47.029 Y52.713 E38.76907 ; brim
G1 F1800.000 E37.76907 ; retract
G92 E0 ; reset extrusion distance
G1 X129.984 Y132.822 F7800.000 ; move to first brim point
G1 F1800.000 E1.00000 ; compensate retraction
G1 X130.340 Y132.822 F756.000 E1.02424 ; brim
G1 X130.504 Y132.659 E1.04001 ; brim
G1 X130.667 Y132.822 E1.05578 ; brim
G1 X131.025 Y132.822 E1.08016 ; brim
G1 X130.600 Y133.861 E1.15667 ; brim
G1 X130.408 Y133.861 E1.16975 ; brim
G1 X130.015 Y132.898 E1.24062 ; brim
G1 F1800.000 E0.24062 ; retract
G92 E0 ; reset extrusion distance
G1 X73.971 Y131.246 F7800.000 ; move to first brim point
G1 F1800.000 E1.00000 ; compensate retraction
G1 X73.498 Y132.243 F756.000 E1.07518 ; brim
G1 X73.015 Y131.246 E1.15068 ; brim
G1 X73.266 Y131.246 E1.16778 ; brim
G1 X73.494 Y131.018 E1.18971 ; brim
G1 X73.721 Y131.246 E1.21164 ; brim
G1 X73.889 Y131.246 E1.22309 ; brim
G1 F1800.000 E0.22309 ; retract
G92 E0 ; reset extrusion distance
G1 X138.501 Y118.563 F7800.000 ; move to first brim point
G1 F1800.000 E1.00000 ; compensate retraction
G1 X138.447 Y117.524 F756.000 E1.07090 ; brim
G1 X139.562 Y117.524 E1.14692 ; brim
G1 X139.508 Y118.563 E1.21783 ; brim
G1 X138.583 Y118.563 E1.28081 ; brim
G1 F1800.000 E0.28081 ; retract
G92 E0 ; reset extrusion distance
G1 X65.566 Y115.948 F7800.000 ; move to first brim point
G1 F1800.000 E1.00000 ; compensate retraction
G1 X65.460 Y116.987 F756.000 E1.07117 ; brim
G1 X65.120 Y116.987 E1.09433 ; brim
G1 X65.120 Y116.375 E1.13607 ; brim
G1 X65.022 Y116.276 E1.14553 ; brim
G1 X65.022 Y115.948 E1.16790 ; brim
G1 X65.484 Y115.948 E1.19941 ; brim
G1 F1800.000 E0.19941 ; retract
G92 E0 ; reset extrusion distance
G1 X101.653 Y104.983 F7800.000 ; move to first brim point
G1 F1800.000 E1.00000 ; compensate retraction
G1 X101.645 Y91.909 F756.000 E1.89093 ; brim
G1 X101.764 Y91.909 E1.89906 ; brim
G1 X101.847 Y91.826 E1.90702 ; brim
G1 X102.207 Y92.340 E1.94975 ; brim
G1 X102.354 Y92.340 E1.95975 ; brim
G1 X102.346 Y104.983 E2.82133 ; brim
G1 X101.735 Y104.983 E2.86296 ; brim
G1 F1800.000 E1.86296 ; retract
G92 E0 ; reset extrusion distance
G1 X145.328 Y101.134 F7800.000 ; move to first brim point
G1 F1800.000 E1.00000 ; compensate retraction
G1 X145.472 Y101.134 F756.000 E1.00981 ; brim
G1 X145.757 Y100.849 E1.03726 ; brim
G1 X146.042 Y101.134 E1.06472 ; brim
G1 X146.166 Y101.134 E1.07319 ; brim
G1 X145.742 Y101.871 E1.13115 ; brim
G1 X145.368 Y101.205 E1.18321 ; brim
G1 F1800.000 E0.18321 ; retract
G92 E0 ; reset extrusion distance
G1 X111.166 Y101.134 F7800.000 ; move to first brim point
G1 F1800.000 E1.00000 ; compensate retraction
G1 X110.742 Y101.871 F756.000 E1.05796 ; brim
G1 X110.328 Y101.134 E1.11560 ; brim
G1 X110.472 Y101.134 E1.12541 ; brim
G1 X110.760 Y100.845 E1.15323 ; brim
G1 X111.049 Y101.134 E1.18105 ; brim
G1 X111.084 Y101.134 E1.18342 ; brim
G1 F1800.000 E0.18342 ; retract
G92 E0 ; reset extrusion distance
G1 X127.672 Y101.080 F7800.000 ; move to first brim point
G1 F1800.000 E1.00000 ; compensate retraction
G1 X127.866 Y100.041 F756.000 E1.07202 ; brim
G1 X128.658 Y100.041 E1.12598 ; brim
G1 X128.833 Y101.080 E1.19778 ; brim
G1 X127.754 Y101.080 E1.27125 ; brim
