; generated by Slic3r 0.9.9 on 2014-04-09 at 11:43:12

; layer_height = 0.2
; perimeters = 3
; top_solid_layers = 3
; bottom_solid_layers = 3
; fill_density = 0.2
; perimeter_speed = 36
; infill_speed = 60
; travel_speed = 130
; nozzle_diameter = 0.35
; filament_diameter = 1.75
; extrusion_multiplier = 1
; perimeters extrusion width = 0.52mm
; infill extrusion width = 0.52mm
; solid infill extrusion width = 0.52mm
; top infill extrusion width = 0.52mm
; support material extrusion width = 0.52mm
; first layer extrusion width = 0.60mm

G21 ; set units to millimeters
M107 ; disable fan
M190 S95 ; wait for bed temperature to be reached
M104 S225 ; set temperature
G28 ; home all axes
G1 Z5 F5000 ; lift nozzle
M109 S225 ; wait for temperature to be reached
G90 ; use absolute coordinates
G92 E0 ; reset extrusion distance
M82 ; use absolute distances for extrusion
G1 F1800.000 E-1.00000 ; retract
G92 E0 ; reset extrusion distance
G1 Z0.300 F7800.000 ; move to next layer (0)
G1 X58.681 Y35.553 ; move to first skirt point
G1 F1800.000 E1.00000 ; compensate retraction
G1 X58.911 Y35.223 F756.000 E1.02741 ; skirt
G1 X59.171 Y34.923 E1.05446 ; skirt
G1 X59.631 Y34.533 E1.09556 ; skirt
G1 X59.791 Y34.423 E1.10879 ; skirt
G1 X60.141 Y34.233 E1.13593 ; skirt
G1 X60.511 Y34.073 E1.16340 ; skirt
G1 X60.701 Y34.013 E1.17697 ; skirt
G1 X61.091 Y33.923 E1.20425 ; skirt
G1 X61.691 Y33.873 E1.24528 ; skirt
G1 X133.781 Y33.873 E6.15776 ; skirt
G1 X134.361 Y33.923 E6.19743 ; skirt
G1 X134.551 Y33.963 E6.21066 ; skirt
G1 X135.111 Y34.133 E6.25054 ; skirt
G1 X135.471 Y34.303 E6.27767 ; skirt
G1 X135.801 Y34.503 E6.30396 ; skirt
G1 X136.111 Y34.743 E6.33068 ; skirt
G1 X136.521 Y35.163 E6.37068 ; skirt
G1 X136.851 Y35.643 E6.41037 ; skirt
G1 X137.031 Y35.993 E6.43719 ; skirt
G1 X137.221 Y36.553 E6.47749 ; skirt
G1 X137.291 Y36.933 E6.50382 ; skirt
G1 X137.331 Y37.513 E6.54343 ; skirt
G1 X133.851 Y170.463 E15.60624 ; skirt
G1 X133.811 Y170.893 E15.63567 ; skirt
G1 X133.661 Y171.523 E15.67980 ; skirt
G1 X133.491 Y171.923 E15.70942 ; skirt
G1 X133.281 Y172.293 E15.73841 ; skirt
G1 X132.361 Y173.563 E15.84527 ; skirt
G1 X131.951 Y174.033 E15.88778 ; skirt
G1 X131.461 Y174.413 E15.93003 ; skirt
G1 X131.101 Y174.623 E15.95843 ; skirt
G1 X130.721 Y174.793 E15.98680 ; skirt
G1 X130.321 Y174.913 E16.01526 ; skirt
G1 X129.911 Y174.983 E16.04360 ; skirt
G1 X129.501 Y175.013 E16.07161 ; skirt
G1 X94.411 Y175.013 E18.46278 ; skirt
G1 X93.961 Y174.983 E18.49351 ; skirt
G1 X93.511 Y174.893 E18.52478 ; skirt
G1 X93.081 Y174.753 E18.55560 ; skirt
G1 X92.871 Y174.653 E18.57145 ; skirt
G1 X92.471 Y174.433 E18.60256 ; skirt
G1 X90.801 Y173.343 E18.73845 ; skirt
G1 X90.421 Y173.053 E18.77102 ; skirt
G1 X90.081 Y172.723 E18.80331 ; skirt
G1 X89.931 Y172.543 E18.81928 ; skirt
G1 X89.671 Y172.143 E18.85179 ; skirt
G1 X55.611 Y112.983 E23.50356 ; skirt
G1 X55.051 Y111.893 E23.58706 ; skirt
G1 X54.861 Y111.473 E23.61848 ; skirt
G1 X54.731 Y111.023 E23.65040 ; skirt
G1 X54.691 Y110.793 E23.66630 ; skirt
G1 X54.651 Y110.333 E23.69777 ; skirt
G1 X58.161 Y37.053 E28.69707 ; skirt
G1 X58.231 Y36.663 E28.72407 ; skirt
G1 X58.331 Y36.273 E28.75150 ; skirt
G1 X58.401 Y36.083 E28.76530 ; skirt
G1 X58.639 Y35.623 E28.80057 ; skirt
G1 F1800.000 E27.80057 ; retract
G92 E0 ; reset extrusion distance
G1 X57.263 Y109.160 F7800.000 ; move to first brim point
G1 F1800.000 E1.00000 ; compensate retraction
G1 X131.542 Y109.160 F756.000 E6.06166 ; brim
G1 X132.022 Y109.640 E6.10793 ; brim
G1 X132.022 Y112.012 E6.26954 ; brim
G1 X131.542 Y112.492 E6.31580 ; brim
G1 X131.422 Y112.492 E6.32397 ; brim
G1 X131.422 Y117.901 E6.69262 ; brim
G1 X131.542 Y117.901 E6.70079 ; brim
G1 X132.022 Y118.382 E6.74706 ; brim
G1 X132.022 Y120.753 E6.90867 ; brim
G1 X131.542 Y121.233 E6.95493 ; brim
G1 X131.422 Y121.233 E6.96311 ; brim
G1 X131.422 Y126.643 E7.33175 ; brim
G1 X131.542 Y126.643 E7.33993 ; brim
G1 X132.022 Y127.123 E7.38619 ; brim
G1 X132.022 Y129.495 E7.54780 ; brim
G1 X131.542 Y129.975 E7.59406 ; brim
G1 X131.422 Y129.975 E7.60224 ; brim
G1 X131.422 Y135.385 E7.97088 ; brim
G1 X131.542 Y135.385 E7.97906 ; brim
G1 X132.022 Y135.865 E8.02532 ; brim
G1 X132.022 Y137.144 E8.11247 ; brim
G1 X131.542 Y137.624 E8.15873 ; brim
G1 X131.422 Y137.624 E8.16691 ; brim
G1 X131.422 Y153.961 E9.28016 ; brim
G1 X131.542 Y153.961 E9.28833 ; brim
G1 X132.022 Y154.441 E9.33460 ; brim
G1 X132.022 Y155.720 E9.42175 ; brim
G1 X131.542 Y156.200 E9.46801 ; brim
G1 X131.422 Y156.200 E9.47618 ; brim
G1 X131.422 Y157.239 E9.54699 ; brim
G1 X131.542 Y157.239 E9.55516 ; brim
G1 X132.022 Y157.719 E9.60142 ; brim
G1 X132.022 Y158.998 E9.68857 ; brim
G1 X131.542 Y159.478 E9.73484 ; brim
G1 X131.422 Y159.478 E9.74301 ; brim
G1 X131.422 Y169.308 E10.41292 ; brim
G1 X131.821 Y169.645 E10.44849 ; brim
G1 X131.978 Y170.569 E10.51235 ; brim
G1 X131.673 Y171.086 E10.55322 ; brim
G1 X131.229 Y171.240 E10.58524 ; brim
G1 X131.229 Y172.110 E10.64449 ; brim
G1 X130.749 Y172.590 E10.69076 ; brim
G1 X126.110 Y172.590 E11.00684 ; brim
G1 X125.652 Y172.203 E11.04770 ; brim
G1 X125.533 Y171.497 E11.09648 ; brim
G1 X97.864 Y171.497 E12.98190 ; brim
G1 X97.864 Y172.110 E13.02365 ; brim
G1 X97.384 Y172.590 E13.06991 ; brim
G1 X93.176 Y172.590 E13.35666 ; brim
G1 X92.696 Y172.110 E13.40292 ; brim
G1 X92.696 Y171.497 E13.44467 ; brim
G1 X92.356 Y171.497 E13.46789 ; brim
G1 X91.975 Y171.277 E13.49784 ; brim
G1 X87.067 Y162.756 E14.16797 ; brim
G1 X86.474 Y162.756 E14.20834 ; brim
G1 X85.994 Y162.276 E14.25460 ; brim
G1 X85.994 Y160.997 E14.34175 ; brim
G1 X86.032 Y160.959 E14.34537 ; brim
G1 X85.179 Y159.478 E14.46188 ; brim
G1 X84.586 Y159.478 E14.50224 ; brim
G1 X84.106 Y158.998 E14.54851 ; brim
G1 X84.106 Y157.719 E14.63566 ; brim
G1 X84.144 Y157.681 E14.63928 ; brim
G1 X79.387 Y149.423 E15.28866 ; brim
G1 X75.738 Y143.087 E15.78693 ; brim
G1 X75.146 Y143.087 E15.82730 ; brim
G1 X74.665 Y142.607 E15.87356 ; brim
G1 X74.665 Y141.994 E15.91531 ; brim
G1 X74.516 Y141.994 E15.92548 ; brim
G1 X74.036 Y141.514 E15.97175 ; brim
G1 X74.036 Y140.235 E16.05890 ; brim
G1 X74.074 Y140.198 E16.06252 ; brim
G1 X57.989 Y112.272 E18.25860 ; brim
G1 X57.951 Y112.249 E18.26158 ; brim
G1 X56.783 Y109.941 E18.43788 ; brim
G1 X57.220 Y109.230 E18.49474 ; brim
G1 F1800.000 E17.49474 ; retract
G92 E0 ; reset extrusion distance
G1 X119.188 Y160.570 F7800.000 ; move to first brim point
G1 F1800.000 E1.00000 ; compensate retraction
G1 X120.331 Y160.570 F756.000 E1.07784 ; brim
G1 X120.220 Y161.609 E1.14905 ; brim
G1 X119.300 Y161.609 E1.21176 ; brim
G1 X119.197 Y160.652 E1.27739 ; brim
G1 F1800.000 E0.27739 ; retract
G92 E0 ; reset extrusion distance
G1 X98.079 Y157.292 F7800.000 ; move to first brim point
G1 F1800.000 E1.00000 ; compensate retraction
G1 X97.804 Y158.331 F756.000 E1.07324 ; brim
G1 X97.215 Y158.331 E1.11334 ; brim
G1 X96.942 Y157.292 E1.18656 ; brim
G1 X97.997 Y157.292 E1.25844 ; brim
G1 F1800.000 E0.25844 ; retract
G92 E0 ; reset extrusion distance
G1 X119.760 Y141.789 F7800.000 ; move to first brim point
G1 F1800.000 E1.00000 ; compensate retraction
G1 X119.307 Y140.902 F756.000 E1.06791 ; brim
G1 X119.499 Y140.902 E1.08099 ; brim
G1 X119.760 Y140.641 E1.10613 ; brim
G1 X120.021 Y140.902 E1.13127 ; brim
G1 X120.213 Y140.902 E1.14436 ; brim
G1 X119.797 Y141.716 E1.20668 ; brim
G1 F1800.000 E0.20668 ; retract
G92 E0 ; reset extrusion distance
G1 X87.322 Y138.716 F7800.000 ; move to first brim point
G1 F1800.000 E1.00000 ; compensate retraction
G1 X87.071 Y139.540 F756.000 E1.05870 ; brim
G1 X87.071 Y139.143 E1.08579 ; brim
G1 X86.740 Y138.812 E1.11768 ; brim
G1 X86.740 Y138.688 E1.12613 ; brim
G1 X86.760 Y138.669 E1.12800 ; brim
G1 X86.808 Y138.716 E1.13261 ; brim
G1 X87.240 Y138.716 E1.16208 ; brim
G1 F1800.000 E0.16208 ; retract
G92 E0 ; reset extrusion distance
G1 X98.494 Y134.682 F7800.000 ; move to first brim point
G1 F1800.000 E1.00000 ; compensate retraction
G1 X98.481 Y134.212 F756.000 E1.03200 ; brim
G1 X100.079 Y136.022 E1.19652 ; brim
G1 X100.400 Y136.167 E1.22054 ; brim
G1 X107.258 Y136.167 E1.68783 ; brim
G1 X107.051 Y136.477 E1.71326 ; brim
G1 X99.691 Y136.477 E2.21481 ; brim
G1 X98.539 Y134.750 E2.35627 ; brim
G1 F1800.000 E1.35627 ; retract
G92 E0 ; reset extrusion distance
G1 X98.452 Y131.797 F7800.000 ; move to first brim point
G1 F1800.000 E1.00000 ; compensate retraction
G1 X98.452 Y131.067 F756.000 E1.04972 ; brim
G1 X108.289 Y131.067 E1.72004 ; brim
G1 X108.301 Y132.785 E1.83707 ; brim
G1 X108.247 Y134.682 E1.96637 ; brim
G1 X107.747 Y135.433 E2.02786 ; brim
G1 X107.747 Y134.961 E2.05999 ; brim
G1 X108.114 Y134.594 E2.09538 ; brim
G1 X108.114 Y132.222 E2.25699 ; brim
G1 X107.634 Y131.742 E2.30325 ; brim
G1 X98.511 Y131.742 E2.92490 ; brim
G1 F1800.000 E1.92490 ; retract
G92 E0 ; reset extrusion distance
G1 X99.622 Y127.736 F7800.000 ; move to first brim point
G1 F1800.000 E1.00000 ; compensate retraction
G1 X98.486 Y125.951 F756.000 E1.14413 ; brim
G1 X98.443 Y124.041 E1.27435 ; brim
G1 X98.452 Y122.326 E1.39122 ; brim
G1 X98.627 Y122.326 E1.40313 ; brim
G1 X98.627 Y123.843 E1.50653 ; brim
G1 X98.612 Y123.859 E1.50801 ; brim
G1 X98.668 Y126.230 E1.66965 ; brim
G1 X99.146 Y126.697 E1.71514 ; brim
G1 X103.378 Y126.697 E2.00355 ; brim
G1 X103.673 Y126.401 E2.03202 ; brim
G1 X103.975 Y126.697 E2.06081 ; brim
G1 X107.781 Y126.697 E2.32015 ; brim
G1 X107.120 Y127.736 E2.40408 ; brim
G1 X99.703 Y127.736 E2.90945 ; brim
G1 F1800.000 E1.90945 ; retract
G92 E0 ; reset extrusion distance
G1 X108.114 Y124.458 F7800.000 ; move to first brim point
G1 F1800.000 E1.00000 ; compensate retraction
G1 X108.114 Y123.419 F756.000 E1.07080 ; brim
G1 X108.234 Y123.419 E1.07898 ; brim
G1 X108.289 Y123.364 E1.08426 ; brim
G1 X108.288 Y124.537 E1.16420 ; brim
G1 X108.196 Y124.458 E1.17243 ; brim
G1 F1800.000 E0.17243 ; retract
G92 E0 ; reset extrusion distance
G1 X76.563 Y120.140 F7800.000 ; move to first brim point
G1 F1800.000 E1.00000 ; compensate retraction
G1 X76.204 Y121.180 F756.000 E1.07491 ; brim
G1 X75.815 Y121.180 E1.10145 ; brim
G1 X75.458 Y120.140 E1.17632 ; brim
G1 X75.923 Y120.140 E1.20806 ; brim
G1 X76.010 Y120.054 E1.21638 ; brim
G1 X76.096 Y120.140 E1.22470 ; brim
G1 X76.481 Y120.140 E1.25093 ; brim
G1 F1800.000 E0.25093 ; retract
G92 E0 ; reset extrusion distance
G1 X119.185 Y120.087 F7800.000 ; move to first brim point
G1 F1800.000 E1.00000 ; compensate retraction
G1 X119.407 Y119.048 F756.000 E1.07240 ; brim
G1 X120.112 Y119.048 E1.12047 ; brim
G1 X120.334 Y120.087 E1.19286 ; brim
G1 X119.267 Y120.087 E1.26556 ; brim
G1 F1800.000 E0.26556 ; retract
G92 E0 ; reset extrusion distance
G1 X107.350 Y118.693 F7800.000 ; move to first brim point
G1 F1800.000 E1.00000 ; compensate retraction
G1 X107.163 Y118.994 F756.000 E1.02414 ; brim
G1 X98.452 Y118.994 E1.61774 ; brim
G1 X98.452 Y117.955 E1.68854 ; brim
G1 X102.775 Y117.955 E1.98308 ; brim
G1 X103.253 Y117.485 E2.02879 ; brim
G1 X103.265 Y116.768 E2.07761 ; brim
G1 X104.911 Y118.632 E2.24704 ; brim
G1 X105.232 Y118.777 E2.27105 ; brim
G1 X107.267 Y118.777 E2.40969 ; brim
G1 X107.292 Y118.751 E2.41214 ; brim
G1 X107.747 Y118.055 F7800.000 ; move to first brim point
G1 X107.747 Y117.571 F756.000 E2.44513 ; brim
G1 X108.114 Y117.204 E2.48052 ; brim
G1 X108.114 Y114.832 E2.64213 ; brim
G1 X107.634 Y114.352 E2.68840 ; brim
G1 X103.339 Y114.352 E2.98107 ; brim
G1 X102.939 Y114.753 E3.01967 ; brim
G1 X102.811 Y114.623 E3.03204 ; brim
G1 X98.452 Y114.623 E3.32908 ; brim
G1 X98.452 Y113.584 E3.39989 ; brim
G1 X108.289 Y113.584 E4.07020 ; brim
G1 X108.297 Y115.297 E4.18692 ; brim
G1 X108.263 Y117.225 E4.31829 ; brim
G1 X107.790 Y117.986 E4.37936 ; brim
G1 F1800.000 E3.37936 ; retract
G92 E0 ; reset extrusion distance
G1 X98.824 Y99.738 F7800.000 ; move to first brim point
G1 F1800.000 E1.00000 ; compensate retraction
G1 X94.127 Y99.738 F756.000 E1.32003 ; brim
G1 X93.664 Y99.332 E1.36201 ; brim
G1 X93.572 Y98.645 E1.40923 ; brim
G1 X65.955 Y98.645 E3.29115 ; brim
G1 X65.955 Y99.258 E3.33290 ; brim
G1 X65.475 Y99.738 E3.37916 ; brim
G1 X61.251 Y99.738 E3.66700 ; brim
G1 X60.771 Y99.258 E3.71327 ; brim
G1 X60.771 Y98.358 E3.77455 ; brim
G1 X60.578 Y98.165 E3.79319 ; brim
G1 X60.578 Y89.903 E4.35616 ; brim
G1 X60.458 Y89.903 E4.36433 ; brim
G1 X59.978 Y89.423 E4.41059 ; brim
G1 X59.978 Y88.144 E4.49774 ; brim
G1 X60.458 Y87.664 E4.54401 ; brim
G1 X60.578 Y87.664 E4.55218 ; brim
G1 X60.578 Y86.625 E4.62299 ; brim
G1 X60.458 Y86.625 E4.63116 ; brim
G1 X59.978 Y86.145 E4.67742 ; brim
G1 X59.978 Y84.866 E4.76457 ; brim
G1 X60.458 Y84.386 E4.81084 ; brim
G1 X60.578 Y84.386 E4.81901 ; brim
G1 X60.578 Y36.788 E8.06256 ; brim
G1 X61.058 Y36.307 E8.10882 ; brim
G1 X135.030 Y36.307 E13.14958 ; brim
G1 X135.510 Y36.788 E13.19584 ; brim
G1 X135.510 Y38.066 E13.28299 ; brim
G1 X135.030 Y38.547 E13.32926 ; brim
G1 X134.957 Y38.547 E13.33423 ; brim
G1 X134.957 Y39.159 E13.37598 ; brim
G1 X134.477 Y39.639 E13.42224 ; brim
G1 X133.885 Y39.639 E13.46261 ; brim
G1 X130.514 Y45.492 E13.92283 ; brim
G1 X130.551 Y45.529 E13.92645 ; brim
G1 X130.551 Y46.808 E14.01360 ; brim
G1 X130.071 Y47.288 E14.05986 ; brim
G1 X129.922 Y47.288 E14.07004 ; brim
G1 X129.922 Y47.901 E14.11179 ; brim
G1 X129.442 Y48.381 E14.15805 ; brim
G1 X128.850 Y48.381 E14.19841 ; brim
G1 X125.479 Y54.233 E14.65863 ; brim
G1 X125.516 Y54.271 E14.66226 ; brim
G1 X125.516 Y55.550 E14.74941 ; brim
G1 X125.036 Y56.030 E14.79567 ; brim
G1 X124.887 Y56.030 E14.80585 ; brim
G1 X124.887 Y56.642 E14.84759 ; brim
G1 X124.407 Y57.122 E14.89386 ; brim
G1 X123.815 Y57.122 E14.93422 ; brim
G1 X120.444 Y62.975 E15.39444 ; brim
G1 X120.481 Y63.012 E15.39807 ; brim
G1 X120.481 Y64.291 E15.48522 ; brim
G1 X120.001 Y64.771 E15.53148 ; brim
G1 X119.409 Y64.771 E15.57184 ; brim
G1 X109.744 Y81.551 E16.89135 ; brim
G1 X109.782 Y81.588 E16.89498 ; brim
G1 X109.782 Y82.867 E16.98213 ; brim
G1 X109.302 Y83.347 E17.02839 ; brim
G1 X108.710 Y83.347 E17.06875 ; brim
G1 X107.856 Y84.829 E17.18526 ; brim
G1 X107.894 Y84.866 E17.18888 ; brim
G1 X107.894 Y86.145 E17.27603 ; brim
G1 X107.414 Y86.625 E17.32230 ; brim
G1 X106.821 Y86.625 E17.36266 ; brim
G1 X100.838 Y97.014 E18.17961 ; brim
G1 X100.943 Y97.806 E18.23405 ; brim
G1 X100.602 Y98.319 E18.27604 ; brim
G1 X99.304 Y98.671 E18.36772 ; brim
G1 X99.304 Y99.258 E18.40768 ; brim
G1 X98.882 Y99.680 E18.44836 ; brim
G1 F1800.000 E17.44836 ; retract
G92 E0 ; reset extrusion distance
G1 X72.700 Y88.757 F7800.000 ; move to first brim point
G1 F1800.000 E1.00000 ; compensate retraction
G1 X71.780 Y88.757 F756.000 E1.06271 ; brim
G1 X71.669 Y87.718 E1.13392 ; brim
G1 X72.812 Y87.718 E1.21178 ; brim
G1 X72.709 Y88.676 E1.27740 ; brim
G1 F1800.000 E0.27740 ; retract
G92 E0 ; reset extrusion distance
G1 X93.921 Y84.440 F7800.000 ; move to first brim point
G1 F1800.000 E1.00000 ; compensate retraction
G1 X95.059 Y84.440 F756.000 E1.07753 ; brim
G1 X94.784 Y85.479 E1.15077 ; brim
G1 X94.196 Y85.479 E1.19086 ; brim
G1 X93.942 Y84.519 E1.25851 ; brim
G1 F1800.000 E0.25851 ; retract
G92 E0 ; reset extrusion distance
G1 X72.583 Y68.265 F7800.000 ; move to first brim point
G1 F1800.000 E1.00000 ; compensate retraction
G1 X72.314 Y67.996 F756.000 E1.02597 ; brim
G1 X71.665 Y67.996 E1.07019 ; brim
G1 X71.877 Y66.957 E1.14245 ; brim
G1 X72.021 Y66.957 E1.15227 ; brim
G1 X72.021 Y67.569 E1.19402 ; brim
G1 X72.501 Y68.049 E1.24028 ; brim
G1 X72.694 Y68.049 E1.25340 ; brim
G1 X72.621 Y68.192 E1.26434 ; brim
G1 F1800.000 E0.26434 ; retract
G92 E0 ; reset extrusion distance
G1 X105.219 Y65.958 F7800.000 ; move to first brim point
G1 F1800.000 E1.00000 ; compensate retraction
G1 X105.219 Y65.837 F756.000 E1.00822 ; brim
G1 X105.240 Y65.816 E1.01025 ; brim
G1 X105.288 Y65.864 E1.01487 ; brim
G1 X105.801 Y65.864 E1.04984 ; brim
G1 X105.552 Y66.688 E1.10854 ; brim
G1 X105.552 Y66.290 E1.13566 ; brim
G1 X105.277 Y66.016 E1.16212 ; brim
G1 F1800.000 E0.16212 ; retract
G92 E0 ; reset extrusion distance
G1 X92.561 Y63.064 F7800.000 ; move to first brim point
G1 F1800.000 E1.00000 ; compensate retraction
