; generated by Slic3r 0.9.9 on 2014-04-09 at 15:01:32

; layer_height = 0.2
; perimeters = 3
; top_solid_layers = 3
; bottom_solid_layers = 3
; fill_density = 0.2
; perimeter_speed = 36
; infill_speed = 60
; travel_speed = 130
; nozzle_diameter = 0.35
; filament_diameter = 1.75
; extrusion_multiplier = 1
; perimeters extrusion width = 0.52mm
; infill extrusion width = 0.52mm
; solid infill extrusion width = 0.52mm
; top infill extrusion width = 0.52mm
; support material extrusion width = 0.52mm
; first layer extrusion width = 0.60mm

G21 ; set units to millimeters
M107 ; disable fan
M190 S95 ; wait for bed temperature to be reached
M104 S225 ; set temperature
G28 ; home all axes
G1 Z5 F5000 ; lift nozzle
M109 S225 ; wait for temperature to be reached
G90 ; use absolute coordinates
G92 E0 ; reset extrusion distance
M82 ; use absolute distances for extrusion
G1 F1800.000 E-1.00000 ; retract
G92 E0 ; reset extrusion distance
G1 Z0.300 F7800.000 ; move to next layer (0)
G1 X85.175 Y73.170 ; move to first skirt point
G1 F1800.000 E1.00000 ; compensate retraction
G1 X85.595 Y72.730 F756.000 E1.04145 ; skirt
G1 X85.925 Y72.490 E1.06926 ; skirt
G1 X86.265 Y72.280 E1.09649 ; skirt
G1 X86.635 Y72.110 E1.12423 ; skirt
G1 X86.835 Y72.040 E1.13867 ; skirt
G1 X87.225 Y71.940 E1.16611 ; skirt
G1 X92.715 Y70.850 E1.54752 ; skirt
G1 X93.125 Y70.790 E1.57576 ; skirt
G1 X93.405 Y70.780 E1.59485 ; skirt
G1 X132.415 Y70.780 E4.25314 ; skirt
G1 X146.395 Y71.910 E5.20889 ; skirt
G1 X146.795 Y71.980 E5.23656 ; skirt
G1 X147.175 Y72.100 E5.26372 ; skirt
G1 X147.715 Y72.360 E5.30456 ; skirt
G1 X148.045 Y72.580 E5.33159 ; skirt
G1 X148.205 Y72.710 E5.34564 ; skirt
G1 X148.495 Y72.980 E5.37264 ; skirt
G1 X148.625 Y73.130 E5.38616 ; skirt
G1 X148.975 Y73.620 E5.42720 ; skirt
G1 X149.155 Y73.970 E5.45402 ; skirt
G1 X149.295 Y74.350 E5.48161 ; skirt
G1 X149.355 Y74.540 E5.49519 ; skirt
G1 X149.425 Y74.930 E5.52219 ; skirt
G1 X149.465 Y75.330 E5.54958 ; skirt
G1 X149.715 Y85.160 E6.21965 ; skirt
G1 X149.715 Y119.120 E8.53381 ; skirt
G1 X149.455 Y123.700 E8.84641 ; skirt
G1 X149.415 Y124.100 E8.87381 ; skirt
G1 X149.325 Y124.480 E8.90042 ; skirt
G1 X149.195 Y124.860 E8.92779 ; skirt
G1 X148.915 Y125.390 E8.96863 ; skirt
G1 X148.685 Y125.710 E8.99549 ; skirt
G1 X148.425 Y126.010 E9.02254 ; skirt
G1 X148.275 Y126.150 E9.03652 ; skirt
G1 X147.805 Y126.500 E9.07645 ; skirt
G1 X147.455 Y126.700 E9.10392 ; skirt
G1 X147.085 Y126.850 E9.13113 ; skirt
G1 X146.705 Y126.960 E9.15809 ; skirt
G1 X146.505 Y127.000 E9.17199 ; skirt
G1 X146.115 Y127.040 E9.19870 ; skirt
G1 X128.405 Y127.050 E10.40553 ; skirt
G1 X127.955 Y127.020 E10.43626 ; skirt
G1 X127.735 Y126.980 E10.45150 ; skirt
G1 X127.295 Y126.870 E10.48240 ; skirt
G1 X127.085 Y126.790 E10.49772 ; skirt
G1 X124.575 Y125.600 E10.68701 ; skirt
G1 X124.235 Y125.420 E10.71322 ; skirt
G1 X123.775 Y125.080 E10.75220 ; skirt
G1 X86.075 Y92.300 E14.15654 ; skirt
G1 X85.775 Y92.000 E14.18545 ; skirt
G1 X85.505 Y91.670 E14.21450 ; skirt
G1 X85.185 Y91.120 E14.25786 ; skirt
G1 X84.595 Y89.620 E14.36770 ; skirt
G1 X84.535 Y89.400 E14.38324 ; skirt
G1 X84.485 Y89.180 E14.39862 ; skirt
G1 X84.435 Y88.720 E14.43015 ; skirt
G1 X84.365 Y87.440 E14.51750 ; skirt
G1 X84.375 Y75.220 E15.35022 ; skirt
G1 X84.465 Y74.610 E15.39223 ; skirt
G1 X84.575 Y74.220 E15.41985 ; skirt
G1 X84.825 Y73.670 E15.46102 ; skirt
G1 X85.123 Y73.234 E15.49704 ; skirt
G1 F1800.000 E14.49704 ; retract
G92 E0 ; reset extrusion distance
G1 X86.796 Y74.782 F7800.000 ; move to first brim point
G1 F1800.000 E1.00000 ; compensate retraction
G1 X87.276 Y74.302 F756.000 E1.04626 ; brim
G1 X91.687 Y74.302 E1.34687 ; brim
G1 X91.687 Y73.689 E1.38862 ; brim
G1 X92.167 Y73.209 E1.43488 ; brim
G1 X98.663 Y73.209 E1.87754 ; brim
G1 X99.143 Y73.689 E1.92381 ; brim
G1 X99.143 Y74.302 E1.96555 ; brim
G1 X126.685 Y74.302 E3.84236 ; brim
G1 X126.685 Y73.689 E3.88411 ; brim
G1 X127.165 Y73.209 E3.93037 ; brim
G1 X133.663 Y73.209 E4.37317 ; brim
G1 X134.143 Y73.689 E4.41943 ; brim
G1 X134.143 Y74.302 E4.46118 ; brim
G1 X147.155 Y74.302 E5.34783 ; brim
G1 X147.635 Y74.782 E5.39410 ; brim
G1 X147.635 Y77.153 E5.55571 ; brim
G1 X147.155 Y77.633 E5.60197 ; brim
G1 X147.035 Y77.633 E5.61014 ; brim
G1 X147.035 Y83.710 E6.02419 ; brim
G1 X146.973 Y83.771 E6.03014 ; brim
G1 X147.442 Y85.753 E6.16890 ; brim
G1 X147.293 Y85.941 E6.18521 ; brim
G1 X147.293 Y118.444 E8.40012 ; brim
G1 X147.442 Y118.632 E8.41642 ; brim
G1 X146.973 Y120.613 E8.55518 ; brim
G1 X147.035 Y120.675 E8.56113 ; brim
G1 X147.035 Y122.380 E8.67734 ; brim
G1 X147.155 Y122.380 E8.68551 ; brim
G1 X147.635 Y122.861 E8.73177 ; brim
G1 X147.635 Y124.139 E8.81892 ; brim
G1 X147.155 Y124.620 E8.86519 ; brim
G1 X128.251 Y124.620 E10.15332 ; brim
G1 X128.073 Y124.579 E10.16576 ; brim
G1 X124.720 Y122.986 E10.41876 ; brim
G1 X124.468 Y122.470 E10.45793 ; brim
G1 X124.556 Y122.080 E10.48514 ; brim
G1 X124.497 Y122.028 E10.49050 ; brim
G1 X124.182 Y119.662 E10.65319 ; brim
G1 X124.218 Y119.620 E10.65693 ; brim
G1 X124.054 Y117.441 E10.80584 ; brim
G1 X124.086 Y117.406 E10.80909 ; brim
G1 X123.354 Y113.693 E11.06704 ; brim
G1 X122.923 Y113.693 E11.09639 ; brim
G1 X122.443 Y113.212 E11.14265 ; brim
G1 X122.443 Y111.934 E11.22980 ; brim
G1 X122.696 Y111.681 E11.25416 ; brim
G1 X122.212 Y110.189 E11.36102 ; brim
G1 X122.161 Y110.157 E11.36512 ; brim
G1 X121.086 Y107.840 E11.53919 ; brim
G1 X121.098 Y107.821 E11.54075 ; brim
G1 X119.979 Y105.865 E11.69429 ; brim
G1 X119.928 Y105.836 E11.69827 ; brim
G1 X118.657 Y103.779 E11.86304 ; brim
G1 X118.484 Y103.696 E11.87614 ; brim
G1 X116.872 Y101.673 E12.05240 ; brim
G1 X116.091 Y101.673 E12.10564 ; brim
G1 X115.611 Y101.193 E12.15190 ; brim
G1 X115.611 Y100.430 E12.20389 ; brim
G1 X113.523 Y98.395 E12.40259 ; brim
G1 X112.446 Y98.395 E12.47592 ; brim
G1 X111.966 Y97.915 E12.52219 ; brim
G1 X111.966 Y97.274 E12.56584 ; brim
G1 X111.854 Y97.243 E12.57380 ; brim
G1 X109.033 Y95.558 E12.79773 ; brim
G1 X108.856 Y95.117 E12.83011 ; brim
G1 X108.239 Y95.117 E12.87213 ; brim
G1 X108.071 Y95.081 E12.88382 ; brim
G1 X104.538 Y93.515 E13.14722 ; brim
G1 X104.273 Y92.997 E13.18679 ; brim
G1 X104.287 Y92.931 E13.19140 ; brim
G1 X101.041 Y92.931 E13.41263 ; brim
G1 X100.561 Y92.451 E13.45890 ; brim
G1 X100.561 Y91.839 E13.50064 ; brim
G1 X88.464 Y91.839 E14.32498 ; brim
G1 X87.984 Y91.358 E14.37125 ; brim
G1 X87.984 Y90.746 E14.41299 ; brim
G1 X87.954 Y90.746 E14.41501 ; brim
G1 X87.536 Y90.460 E14.44951 ; brim
G1 X86.625 Y88.129 E14.62009 ; brim
G1 X86.796 Y87.879 E14.64073 ; brim
G1 X86.796 Y74.864 E15.52762 ; brim
G1 F1800.000 E14.52762 ; retract
G92 E0 ; reset extrusion distance
G1 X129.161 Y104.928 F7800.000 ; move to first brim point
G1 F1800.000 E1.00000 ; compensate retraction
G1 X129.273 Y104.899 F756.000 E1.00788 ; brim
G1 X132.266 Y103.246 E1.24087 ; brim
G1 X132.414 Y102.903 E1.26634 ; brim
G1 X132.562 Y103.246 E1.29181 ; brim
G1 X135.554 Y104.899 E1.52477 ; brim
G1 X135.667 Y104.928 E1.53271 ; brim
G1 X136.650 Y106.819 E1.67790 ; brim
G1 X136.800 Y108.628 E1.80160 ; brim
G1 X136.103 Y110.455 E1.93490 ; brim
G1 X136.064 Y110.471 E1.93778 ; brim
G1 X133.775 Y112.546 E2.14832 ; brim
G1 X131.050 Y112.546 E2.33399 ; brim
G1 X128.765 Y110.471 E2.54436 ; brim
G1 X128.725 Y110.455 E2.54728 ; brim
G1 X128.030 Y108.632 E2.68030 ; brim
G1 X128.179 Y106.818 E2.80431 ; brim
G1 X129.123 Y105.001 E2.94386 ; brim
G1 F1800.000 E1.94386 ; retract
G92 E0 ; reset extrusion distance
G1 X131.083 Y97.248 F7800.000 ; move to first brim point
G1 F1800.000 E1.00000 ; compensate retraction
G1 X124.745 Y97.248 F756.000 E1.43190 ; brim
G1 X124.603 Y96.858 E1.46021 ; brim
G1 X121.982 Y95.132 E1.67407 ; brim
G1 X121.849 Y95.092 E1.68353 ; brim
G1 X120.322 Y93.051 E1.85724 ; brim
G1 X120.162 Y92.971 E1.86938 ; brim
G1 X119.436 Y90.988 E2.01335 ; brim
G1 X119.311 Y90.901 E2.02367 ; brim
G1 X119.089 Y88.924 E2.15923 ; brim
G1 X119.011 Y88.854 E2.16640 ; brim
G1 X119.221 Y86.864 E2.30275 ; brim
G1 X119.180 Y86.819 E2.30689 ; brim
G1 X119.849 Y84.817 E2.45070 ; brim
G1 X119.831 Y84.792 E2.45279 ; brim
G1 X120.976 Y82.969 E2.59951 ; brim
G1 X123.033 Y80.912 E2.79775 ; brim
G1 X123.220 Y80.912 E2.81047 ; brim
G1 X123.358 Y80.888 E2.82006 ; brim
G1 X127.530 Y79.399 E3.12192 ; brim
G1 X127.832 Y78.882 E3.16267 ; brim
G1 X127.805 Y78.726 E3.17345 ; brim
G1 X128.024 Y78.726 E3.18838 ; brim
G1 X127.997 Y78.882 E3.19916 ; brim
G1 X128.298 Y79.399 E3.23991 ; brim
G1 X132.470 Y80.888 E3.54174 ; brim
G1 X132.609 Y80.912 E3.55134 ; brim
G1 X132.795 Y80.912 E3.56406 ; brim
G1 X134.852 Y82.969 E3.76230 ; brim
G1 X135.997 Y84.792 E3.90902 ; brim
G1 X135.979 Y84.817 E3.91111 ; brim
G1 X136.648 Y86.819 E4.05497 ; brim
G1 X136.608 Y86.864 E4.05909 ; brim
G1 X136.782 Y88.507 E4.17164 ; brim
G1 X136.416 Y88.507 E4.19662 ; brim
G1 X135.936 Y88.987 E4.24289 ; brim
G1 X135.936 Y89.600 E4.28463 ; brim
G1 X135.785 Y89.600 E4.29490 ; brim
G1 X135.305 Y90.080 E4.34117 ; brim
G1 X135.305 Y91.358 E4.42832 ; brim
G1 X135.785 Y91.839 E4.47458 ; brim
G1 X136.081 Y91.839 E4.49473 ; brim
G1 X135.666 Y92.971 E4.57694 ; brim
G1 X135.506 Y93.051 E4.58908 ; brim
G1 X133.979 Y95.092 E4.76279 ; brim
G1 X133.846 Y95.132 E4.77225 ; brim
G1 X131.225 Y96.858 E4.98611 ; brim
G1 X131.111 Y97.171 E5.00884 ; brim
G1 F1800.000 E4.00884 ; retract
G92 E0 ; reset extrusion distance
G1 X113.096 Y85.439 F7800.000 ; move to first brim point
G1 F1800.000 E1.00000 ; compensate retraction
G1 X111.837 Y87.414 F756.000 E1.15964 ; brim
G1 X110.725 Y87.414 E1.23537 ; brim
G1 X110.245 Y87.894 E1.28163 ; brim
G1 X110.245 Y88.507 E1.32338 ; brim
G1 X107.584 Y88.507 E1.50472 ; brim
G1 X107.584 Y87.894 E1.54646 ; brim
G1 X107.104 Y87.414 E1.59273 ; brim
G1 X105.991 Y87.414 E1.66856 ; brim
G1 X104.732 Y85.438 E1.82823 ; brim
G1 X104.510 Y83.738 E1.94507 ; brim
G1 X105.046 Y81.868 E2.07762 ; brim
G1 X106.943 Y79.819 E2.26791 ; brim
G1 X108.703 Y79.819 E2.38788 ; brim
G1 X108.914 Y79.608 E2.40818 ; brim
G1 X109.125 Y79.819 E2.42848 ; brim
G1 X110.887 Y79.819 E2.54854 ; brim
G1 X112.782 Y81.868 E2.73875 ; brim
G1 X113.320 Y83.741 E2.87155 ; brim
G1 X113.107 Y85.357 E2.98264 ; brim
G1 F1800.000 E1.98264 ; retract
G92 E0 ; reset extrusion distance
G1 X98.834 Y82.518 F7800.000 ; move to first brim point
G1 F1800.000 E1.00000 ; compensate retraction
G1 X98.331 Y84.231 F756.000 E1.12165 ; brim
G1 X95.914 Y85.688 E1.31398 ; brim
G1 X93.496 Y84.231 E1.50635 ; brim
G1 X92.995 Y82.518 E1.62794 ; brim
G1 X93.474 Y80.812 E1.74869 ; brim
G1 X95.914 Y79.278 E1.94513 ; brim
G1 X98.354 Y80.812 E2.14152 ; brim
G1 X98.812 Y82.439 E2.25671 ; brim
G1 F1800.000 E1.25671 ; retract
G92 E0 ; reset extrusion distance
G1 X98.490 Y74.848 F7800.000 ; move to first brim point
G1 F1800.000 E1.00000 ; compensate retraction
G1 X127.338 Y74.848 F756.000 E2.96577 ; brim
G1 X127.231 Y74.742 E2.97602 ; brim
G1 X127.231 Y73.915 E3.03232 ; brim
G1 X127.391 Y73.755 E3.04775 ; brim
G1 X133.437 Y73.755 E3.45970 ; brim
G1 X133.597 Y73.915 E3.47512 ; brim
G1 X133.597 Y74.742 E3.53143 ; brim
G1 X133.490 Y74.848 E3.54168 ; brim
G1 X146.928 Y74.848 E4.45739 ; brim
G1 X147.088 Y75.008 E4.47281 ; brim
G1 X147.088 Y75.834 E4.52912 ; brim
G1 X146.955 Y75.968 E4.54195 ; brim
G1 X147.088 Y76.101 E4.55479 ; brim
G1 X147.088 Y76.927 E4.61110 ; brim
G1 X146.928 Y77.087 E4.62652 ; brim
G1 X146.382 Y77.087 E4.66375 ; brim
G1 X146.488 Y77.193 E4.67400 ; brim
G1 X146.488 Y79.112 E4.80477 ; brim
G1 X146.355 Y79.246 E4.81760 ; brim
G1 X146.488 Y79.379 E4.83044 ; brim
G1 X146.488 Y81.298 E4.96121 ; brim
G1 X146.355 Y81.431 E4.97404 ; brim
G1 X146.488 Y81.564 E4.98688 ; brim
G1 X146.488 Y83.483 E5.11765 ; brim
G1 X146.315 Y83.643 E5.13371 ; brim
G1 X146.397 Y83.708 E5.14076 ; brim
G1 X146.849 Y85.621 E5.27477 ; brim
G1 X146.685 Y85.829 E5.29279 ; brim
G1 X146.640 Y85.829 E5.29583 ; brim
G1 X146.747 Y85.935 E5.30608 ; brim
G1 X146.747 Y87.854 E5.43685 ; brim
G1 X146.614 Y87.987 E5.44968 ; brim
G1 X146.747 Y88.120 E5.46252 ; brim
G1 X146.747 Y90.039 E5.59329 ; brim
G1 X146.614 Y90.173 E5.60612 ; brim
G1 X146.747 Y90.306 E5.61896 ; brim
G1 X146.747 Y92.225 E5.74973 ; brim
G1 X146.614 Y92.358 E5.76257 ; brim
G1 X146.747 Y92.491 E5.77540 ; brim
G1 X146.747 Y94.410 E5.90617 ; brim
G1 X146.614 Y94.543 E5.91901 ; brim
G1 X146.747 Y94.677 E5.93184 ; brim
G1 X146.747 Y96.596 E6.06261 ; brim
G1 X146.614 Y96.729 E6.07545 ; brim
G1 X146.747 Y96.862 E6.08828 ; brim
G1 X146.747 Y98.781 E6.21905 ; brim
G1 X146.614 Y98.914 E6.23189 ; brim
G1 X146.747 Y99.047 E6.24472 ; brim
G1 X146.747 Y100.966 E6.37549 ; brim
G1 X146.614 Y101.100 E6.38833 ; brim
G1 X146.747 Y101.233 E6.40116 ; brim
G1 X146.747 Y103.152 E6.53193 ; brim
G1 X146.614 Y103.285 E6.54477 ; brim
G1 X146.747 Y103.418 E6.55760 ; brim
G1 X146.747 Y105.337 E6.68837 ; brim
G1 X146.614 Y105.470 E6.70121 ; brim
G1 X146.747 Y105.604 E6.71404 ; brim
G1 X146.747 Y107.523 E6.84481 ; brim
G1 X146.614 Y107.656 E6.85765 ; brim
G1 X146.747 Y107.789 E6.87048 ; brim
G1 X146.747 Y109.708 E7.00125 ; brim
G1 X146.614 Y109.841 E7.01409 ; brim
G1 X146.747 Y109.974 E7.02692 ; brim
G1 X146.747 Y111.893 E7.15769 ; brim
G1 X146.614 Y112.027 E7.17053 ; brim
G1 X146.747 Y112.160 E7.18337 ; brim
G1 X146.747 Y114.079 E7.31413 ; brim
G1 X146.614 Y114.212 E7.32697 ; brim
G1 X146.747 Y114.345 E7.33981 ; brim
G1 X146.747 Y116.264 E7.47057 ; brim
G1 X146.614 Y116.397 E7.48341 ; brim
G1 X146.747 Y116.531 E7.49625 ; brim
G1 X146.747 Y118.450 E7.62701 ; brim
G1 X146.640 Y118.556 E7.63727 ; brim
G1 X146.685 Y118.556 E7.64030 ; brim
G1 X146.849 Y118.763 E7.65832 ; brim
G1 X146.397 Y120.677 E7.79233 ; brim
G1 X146.315 Y120.741 E7.79939 ; brim
G1 X146.488 Y120.901 E7.81545 ; brim
G1 X146.488 Y122.820 E7.94621 ; brim
G1 X146.382 Y122.927 E7.95646 ; brim
G1 X146.928 Y122.927 E7.99370 ; brim
G1 X147.088 Y123.087 E8.00912 ; brim
G1 X147.088 Y123.913 E8.06542 ; brim
G1 X146.928 Y124.073 E8.08085 ; brim
G1 X128.312 Y124.073 E9.34942 ; brim
G1 X128.253 Y124.060 E9.35356 ; brim
G1 X125.127 Y122.575 E9.58937 ; brim
G1 X125.043 Y122.403 E9.60242 ; brim
G1 X125.145 Y121.954 E9.63379 ; brim
G1 X125.227 Y121.888 E9.64099 ; brim
G1 X125.166 Y121.888 E9.64517 ; brim
G1 X125.011 Y121.752 E9.65916 ; brim
G1 X124.756 Y119.835 E9.79097 ; brim
G1 X124.893 Y119.679 E9.80512 ; brim
G1 X124.761 Y119.557 E9.81738 ; brim
G1 X124.617 Y117.638 E9.94848 ; brim
G1 X124.756 Y117.488 E9.96246 ; brim
G1 X124.641 Y117.393 E9.97266 ; brim
G1 X124.263 Y115.477 E10.10569 ; brim
G1 X124.383 Y115.332 E10.11855 ; brim
G1 X124.361 Y115.332 E10.12004 ; brim
G1 X124.210 Y115.207 E10.13338 ; brim
G1 X123.832 Y113.292 E10.26641 ; brim
G1 X123.952 Y113.146 E10.27926 ; brim
G1 X123.150 Y113.146 E10.33392 ; brim
G1 X122.990 Y112.986 E10.34935 ; brim
G1 X122.990 Y112.160 E10.40565 ; brim
G1 X123.150 Y112.000 E10.42107 ; brim
G1 X123.427 Y112.000 E10.44000 ; brim
G1 X123.358 Y111.949 E10.44588 ; brim
G1 X122.738 Y110.040 E10.58269 ; brim
G1 X122.862 Y109.868 E10.59714 ; brim
G1 X122.724 Y109.868 E10.60656 ; brim
G1 X122.589 Y109.782 E10.61743 ; brim
G1 X121.707 Y107.881 E10.76023 ; brim
G1 X121.834 Y107.683 E10.77630 ; brim
G1 X121.733 Y107.683 E10.78316 ; brim
G1 X121.606 Y107.609 E10.79318 ; brim
G1 X120.524 Y105.716 E10.94178 ; brim
G1 X120.651 Y105.497 E10.95900 ; brim
G1 X120.443 Y105.497 E10.97317 ; brim
G1 X120.319 Y105.428 E10.98284 ; brim
G1 X119.151 Y103.539 E11.13421 ; brim
G1 X119.277 Y103.312 E11.15189 ; brim
G1 X118.946 Y103.312 E11.17446 ; brim
G1 X118.834 Y103.258 E11.18296 ; brim
G1 X117.339 Y101.382 E11.34639 ; brim
G1 X117.462 Y101.126 E11.36572 ; brim
G1 X116.317 Y101.126 E11.44374 ; brim
G1 X116.157 Y100.966 E11.45917 ; brim
G1 X116.157 Y100.140 E11.51547 ; brim
G1 X116.264 Y100.034 E11.52572 ; brim
G1 X116.045 Y100.034 E11.54063 ; brim
G1 X115.946 Y99.994 E11.54791 ; brim
G1 X114.039 Y98.135 E11.72934 ; brim
G1 X114.156 Y97.848 E11.75045 ; brim
G1 X112.673 Y97.848 E11.85150 ; brim
G1 X112.513 Y97.688 E11.86692 ; brim
G1 X112.513 Y96.862 E11.92323 ; brim
G1 X112.619 Y96.756 E11.93348 ; brim
G1 X112.142 Y96.756 E11.96601 ; brim
