; generated by Slic3r 1.0.0RC3 on 2014-04-17 at 20:56:59

; layer_height = 0.25
; perimeters = 3
; top_solid_layers = 3
; bottom_solid_layers = 3
; fill_density = 0.4
; perimeter_speed = 50
; infill_speed = 60
; travel_speed = 130
; nozzle_diameter = 0.35
; filament_diameter = 1.75
; extrusion_multiplier = 1
; perimeters extrusion width = 0.35mm
; infill extrusion width = 0.39mm
; solid infill extrusion width = 0.39mm
; top infill extrusion width = 0.39mm
; support material extrusion width = 0.35mm
; first layer extrusion width = 0.70mm

G21 ; set units to millimeters
M107
M190 S100 ; wait for bed temperature to be reached
M104 S235 ; set temperature
G28 ; home all axes
G1 Z5 F5000 ; lift nozzle
M109 S235 ; wait for temperature to be reached
G90 ; use absolute coordinates
G92 E0
M82 ; use absolute distances for extrusion
G1 F1800.000 E-1.00000
G92 E0
G1 Z0.350 F7800.000
G1 X84.017 Y89.867 F7800.000
G1 E1.00000 F1800.000
G1 X90.427 Y83.627 E1.81343 F900.000
G1 X91.427 Y82.827 E1.92988
G1 X92.557 Y82.237 E2.04579
G1 X93.777 Y81.877 E2.16145
G1 X95.047 Y81.757 E2.27745
G1 X104.747 Y81.757 E3.15946
G1 X106.367 Y81.957 E3.30789
G1 X107.887 Y82.547 E3.45615
G1 X109.217 Y83.487 E3.60424
G1 X116.047 Y89.727 E4.44546
G1 X117.107 Y90.957 E4.59310
G1 X117.827 Y92.417 E4.74112
G1 X118.267 Y93.667 E4.86162
G1 X118.547 Y94.777 E4.96572
G1 X118.637 Y95.917 E5.06970
G1 X118.567 Y104.667 E5.86536
G1 X118.317 Y106.427 E6.02700
G1 X117.607 Y108.057 E6.18867
G1 X116.847 Y109.307 E6.32169
G1 X116.507 Y109.817 E6.37742
G1 X116.107 Y110.297 E6.43424
G1 X111.607 Y115.297 E7.04590
G1 X110.577 Y116.227 E7.17209
G1 X109.387 Y116.917 E7.29717
G1 X108.067 Y117.347 E7.42340
G1 X106.687 Y117.487 E7.54953
G1 X93.297 Y117.487 E8.76708
G1 X91.917 Y117.347 E8.89321
G1 X90.597 Y116.917 E9.01944
G1 X89.397 Y116.217 E9.14576
G1 X88.367 Y115.287 E9.27195
G1 X83.887 Y110.287 E9.88240
G1 X83.507 Y109.827 E9.93665
G1 X83.177 Y109.337 E9.99037
G1 X82.407 Y108.087 E10.12387
G1 X81.847 Y106.957 E10.23854
G1 X81.517 Y105.737 E10.35347
G1 X81.427 Y104.477 E10.46833
G1 X81.617 Y95.727 E11.26415
G1 X81.707 Y94.777 E11.35092
G1 X81.927 Y93.847 E11.43782
G1 X82.327 Y92.597 E11.55716
G1 X83.007 Y91.127 E11.70443
G1 X83.959 Y89.940 E11.84275
G1 F1800.000 E10.84275
G92 E0
G1 X87.373 Y92.083 F7800.000
G1 E1.00000 F1800.000
G1 X89.696 Y92.083 E1.21120 F900.000
G1 X90.001 Y91.891 E1.24398
G1 X90.619 Y90.605 E1.37372
G1 X91.686 Y89.933 E1.48843
G1 X92.151 Y89.933 E1.53068
G1 X92.517 Y89.567 E1.57775
G1 X92.517 Y87.115 E1.80069
G1 X93.798 Y85.834 E1.96544
G1 X106.011 Y85.834 E3.07598
G1 X107.293 Y87.115 E3.24073
G1 X107.293 Y89.567 E3.46367
G1 X107.659 Y89.933 E3.51074
G1 X108.314 Y89.933 E3.57028
G1 X109.381 Y90.605 E3.68499
G1 X109.999 Y91.891 E3.81474
G1 X110.304 Y92.083 E3.84751
G1 X112.028 Y92.083 E4.00429
G1 X112.675 Y92.289 E4.06599
G1 X113.411 Y92.809 E4.14793
G1 X113.820 Y93.350 E4.20964
G1 X114.649 Y95.698 E4.43601
G1 X114.502 Y96.752 E4.53284
G1 X114.135 Y97.273 E4.59077
G1 X114.076 Y97.457 E4.60840
G1 X114.076 Y98.551 E4.70787
G1 X114.112 Y98.699 E4.72167
G1 X114.335 Y99.123 E4.76529
G1 X114.300 Y100.271 E4.86972
G1 X114.198 Y100.441 E4.88777
G1 X114.152 Y100.606 E4.90331
G1 X114.152 Y102.260 E5.05376
G1 X114.122 Y102.357 E5.06298
G1 X114.568 Y104.803 E5.28905
G1 X114.320 Y105.744 E5.37753
G1 X113.802 Y106.365 E5.45102
G1 X113.727 Y106.571 E5.47097
G1 X113.727 Y107.124 E5.52126
G1 X112.446 Y108.405 E5.68601
G1 X110.070 Y108.405 E5.90211
G1 X109.765 Y108.597 E5.93489
G1 X109.233 Y109.673 E6.04399
G1 X109.233 Y112.123 E6.26681
G1 X107.951 Y113.404 E6.43156
G1 X100.448 Y113.404 E7.11381
G1 X100.259 Y113.215 E7.13819
G1 X99.741 Y113.215 E7.18527
G1 X99.551 Y113.404 E7.20966
G1 X92.048 Y113.404 E7.89190
G1 X90.767 Y112.123 E8.05665
G1 X90.767 Y109.673 E8.27947
G1 X90.235 Y108.597 E8.38858
G1 X89.930 Y108.405 E8.42135
G1 X88.057 Y108.405 E8.59168
G1 X87.074 Y107.866 E8.69361
G1 X86.266 Y106.597 E8.83047
G1 X86.262 Y106.537 E8.83591
G1 X86.188 Y106.353 E8.85395
G1 X85.680 Y105.744 E8.92601
G1 X85.433 Y104.803 E9.01449
G1 X85.868 Y102.411 E9.23558
G1 X86.255 Y101.748 E9.30543
G1 X87.040 Y101.093 E9.39833
G1 X87.762 Y100.831 E9.46817
G1 X88.541 Y100.831 E9.53899
G1 X88.698 Y99.763 E9.63717
G1 X87.728 Y99.472 E9.72920
G1 X87.017 Y99.004 E9.80666
G1 X86.605 Y98.511 E9.86503
G1 X85.610 Y96.190 E10.09469
G1 X85.707 Y95.091 E10.19498
G1 X86.039 Y94.588 E10.24980
G1 X86.092 Y94.412 E10.26648
G1 X86.092 Y93.364 E10.36177
G1 X87.307 Y92.149 E10.51800
G1 X87.632 Y92.708 F7800.000
G1 X89.643 Y92.708 E10.70088 F900.000
G1 X89.893 Y92.802 E10.72513
G1 X90.344 Y92.621 E10.76931
G1 X91.104 Y91.038 E10.92900
G1 X91.867 Y90.558 E11.01093
G1 X93.241 Y90.558 E11.13587
G1 X93.560 Y89.786 E11.21180
G1 X93.142 Y89.368 E11.26557
G1 X93.142 Y87.374 E11.44690
G1 X94.057 Y86.459 E11.56458
G1 X97.543 Y86.459 E11.88153
G1 X97.575 Y86.491 E11.88566
G1 X98.093 Y86.491 E11.93273
G1 X98.125 Y86.459 E11.93686
G1 X101.875 Y86.459 E12.27790
G1 X102.002 Y86.586 E12.29426
G1 X102.520 Y86.586 E12.34133
G1 X102.647 Y86.459 E12.35768
G1 X105.753 Y86.459 E12.64005
G1 X106.668 Y87.374 E12.75773
G1 X106.668 Y89.368 E12.93906
G1 X106.250 Y89.786 E12.99283
G1 X106.569 Y90.558 E13.06876
G1 X108.133 Y90.558 E13.21099
G1 X108.896 Y91.038 E13.29292
G1 X109.606 Y92.516 E13.44203
G1 X109.911 Y92.708 E13.47480
G1 X111.931 Y92.708 E13.65851
G1 X112.393 Y92.855 E13.70259
G1 X112.971 Y93.263 E13.76690
G1 X113.263 Y93.650 E13.81097
G1 X114.009 Y95.762 E14.01470
G1 X113.904 Y96.516 E14.08386
G1 X113.510 Y97.074 E14.14602
G1 X113.451 Y97.259 E14.16365
G1 X113.451 Y98.117 E14.24168
G1 X113.402 Y98.166 E14.24803
G1 X113.340 Y98.572 E14.28534
G1 X113.706 Y99.269 E14.35689
G1 X113.681 Y100.089 E14.43148
G1 X113.573 Y100.267 E14.45045
G1 X113.527 Y100.432 E14.46600
G1 X113.527 Y101.866 E14.59643
G1 X113.441 Y101.952 E14.60745
G1 X113.387 Y102.374 E14.64617
G1 X113.536 Y102.631 E14.67321
G1 X113.928 Y104.778 E14.87169
G1 X113.751 Y105.451 E14.93489
G1 X113.177 Y106.138 E15.01633
G1 X113.103 Y106.345 E15.03628
G1 X113.103 Y106.865 E15.08362
G1 X112.187 Y107.780 E15.20130
G1 X110.359 Y107.780 E15.36754
G1 X109.908 Y107.611 E15.41137
G1 X109.458 Y107.793 E15.45548
G1 X108.896 Y108.962 E15.57346
G1 X108.570 Y109.167 E15.60848
G1 X108.503 Y109.765 E15.66319
G1 X108.608 Y109.870 E15.67669
G1 X108.608 Y111.864 E15.85802
G1 X107.693 Y112.779 E15.97570
G1 X100.707 Y112.779 E16.61087
G1 X100.259 Y112.331 E16.66854
G1 X99.741 Y112.331 E16.71561
G1 X99.293 Y112.779 E16.77329
G1 X92.307 Y112.779 E17.40846
G1 X91.392 Y111.864 E17.52614
G1 X91.392 Y109.870 E17.70747
G1 X91.497 Y109.765 E17.72097
G1 X91.430 Y109.167 E17.77568
G1 X91.104 Y108.962 E17.81070
G1 X90.629 Y107.972 E17.91056
G1 X90.323 Y107.780 E17.94333
G1 X88.217 Y107.780 E18.13484
G1 X87.515 Y107.395 E18.20765
G1 X86.879 Y106.396 E18.31538
G1 X86.872 Y106.293 E18.32477
G1 X86.798 Y106.109 E18.34282
G1 X86.249 Y105.451 E18.42074
G1 X86.072 Y104.779 E18.48394
G1 X86.463 Y102.631 E18.68242
G1 X86.740 Y102.157 E18.73231
G1 X87.356 Y101.643 E18.80526
G1 X87.872 Y101.456 E18.85514
G1 X89.966 Y101.456 E19.04561
G1 X90.332 Y101.090 E19.09269
G1 X90.332 Y99.398 E19.24657
G1 X89.966 Y99.032 E19.29364
G1 X88.435 Y99.032 E19.43292
G1 X87.996 Y98.900 E19.47461
G1 X87.437 Y98.532 E19.53540
G1 X87.143 Y98.181 E19.57709
G1 X86.246 Y96.088 E19.78409
G1 X86.316 Y95.304 E19.85572
G1 X86.664 Y94.775 E19.91326
G1 X86.717 Y94.600 E19.92994
G1 X86.717 Y93.623 E20.01874
G1 X87.566 Y92.774 E20.12790
G1 F1800.000 E19.12790
G92 E0
G1 X93.767 Y89.110 F7800.000
G1 E1.00000 F1800.000
G1 X93.767 Y87.633 E1.13426 F900.000
G1 X94.316 Y87.084 E1.20487
G1 X97.284 Y87.084 E1.47475
G1 X97.575 Y87.375 E1.51216
G1 X98.093 Y87.375 E1.55923
G1 X98.384 Y87.084 E1.59664
G1 X101.616 Y87.084 E1.89061
G1 X102.002 Y87.470 E1.94025
G1 X102.520 Y87.470 E1.98732
G1 X102.906 Y87.084 E2.03696
G1 X105.494 Y87.084 E2.27226
G1 X106.043 Y87.633 E2.34287
G1 X106.043 Y89.110 E2.47712
G1 X105.494 Y89.659 E2.54773
G1 X102.906 Y89.659 E2.78303
G1 X102.520 Y89.273 E2.83267
G1 X102.002 Y89.273 E2.87974
G1 X101.616 Y89.659 E2.92938
G1 X98.384 Y89.659 E3.22334
G1 X98.093 Y89.368 E3.26076
G1 X97.575 Y89.368 E3.30783
G1 X97.284 Y89.659 E3.34524
G1 X94.316 Y89.659 E3.61512
G1 X93.833 Y89.176 E3.67721
G1 F1800.000 E2.67721
G92 E0
G1 X102.982 Y88.851 F7800.000
G1 E1.00000 F1800.000
G1 X102.982 Y87.892 E1.08719 F900.000
G1 X103.165 Y87.709 E1.11072
G1 X105.235 Y87.709 E1.29894
G1 X105.418 Y87.892 E1.32248
G1 X105.418 Y88.851 E1.40967
G1 X105.235 Y89.034 E1.43320
G1 X103.165 Y89.034 E1.62142
G1 X103.048 Y88.917 E1.63644
G1 X101.541 Y88.851 F7800.000
G1 X101.358 Y89.034 E1.65997 F900.000
G1 X98.642 Y89.034 E1.90686
G1 X98.459 Y88.851 E1.93040
G1 X98.459 Y87.892 E2.01759
G1 X98.642 Y87.709 E2.04112
G1 X101.358 Y87.709 E2.28802
G1 X101.541 Y87.892 E2.31155
G1 X101.541 Y88.757 E2.39021
G1 F1800.000 E1.39021
G92 E0
G1 X97.208 Y88.851 F7800.000
G1 E1.00000 F1800.000
G1 X97.025 Y89.034 E1.02354 F900.000
G1 X94.575 Y89.034 E1.24634
G1 X94.392 Y88.851 E1.26988
G1 X94.392 Y87.892 E1.35707
G1 X94.575 Y87.709 E1.38060
G1 X97.025 Y87.709 E1.60341
G1 X97.208 Y87.892 E1.62694
G1 X97.208 Y88.757 E1.70561
G1 F1800.000 E0.70561
G92 E0
G1 X92.047 Y91.183 F7800.000
G1 E1.00000 F1800.000
G1 X107.953 Y91.183 E2.44635 F900.000
G1 X108.411 Y91.471 E2.49551
G1 X108.996 Y92.689 E2.61842
G1 X109.139 Y93.316 E2.67685
G1 X109.847 Y93.520 E2.74391
G1 X110.034 Y93.333 E2.76801
G1 X111.834 Y93.333 E2.93167
G1 X112.112 Y93.421 E2.95812
G1 X112.531 Y93.717 E3.00480
G1 X112.706 Y93.949 E3.03124
G1 X113.369 Y95.827 E3.21232
G1 X113.306 Y96.279 E3.25382
G1 X112.885 Y96.875 E3.32021
G1 X112.826 Y97.060 E3.33784
G1 X112.826 Y97.858 E3.41040
G1 X112.635 Y98.049 E3.43502
G1 X112.573 Y98.455 E3.47233
G1 X113.076 Y99.414 E3.57077
G1 X113.061 Y99.906 E3.61553
G1 X112.948 Y100.093 E3.63542
G1 X112.902 Y100.258 E3.65096
G1 X112.902 Y101.607 E3.77370
G1 X112.610 Y101.899 E3.81122
G1 X112.635 Y102.450 E3.86133
G1 X112.775 Y102.567 E3.87795
G1 X112.941 Y102.851 E3.90788
G1 X113.288 Y104.754 E4.08375
G1 X113.182 Y105.157 E4.12167
G1 X112.552 Y105.912 E4.21106
G1 X112.478 Y106.118 E4.23101
G1 X112.478 Y106.606 E4.27540
G1 X111.929 Y107.155 E4.34601
G1 X110.472 Y107.155 E4.47843
G1 X110.155 Y107.037 E4.50926
G1 X109.760 Y106.693 E4.55684
G1 X109.086 Y106.913 E4.62126
G1 X108.996 Y107.311 E4.65834
G1 X108.411 Y108.529 E4.78124
G1 X107.574 Y109.055 E4.87109
G1 X107.507 Y109.653 E4.92580
G1 X107.983 Y110.129 E4.98697
G1 X107.983 Y111.606 E5.12123
G1 X107.434 Y112.155 E5.19184
G1 X100.966 Y112.155 E5.77994
G1 X100.259 Y111.447 E5.87090
G1 X99.741 Y111.447 E5.91797
G1 X99.034 Y112.155 E6.00893
G1 X92.566 Y112.155 E6.59703
G1 X92.017 Y111.606 E6.66764
G1 X92.017 Y110.129 E6.80190
G1 X92.493 Y109.653 E6.86307
G1 X92.426 Y109.055 E6.91777
G1 X91.589 Y108.529 E7.00762
G1 X90.859 Y107.008 E7.16109
G1 X90.222 Y106.899 E7.21983
G1 X89.966 Y107.155 E7.25278
G1 X88.377 Y107.155 E7.39719
G1 X87.956 Y106.924 E7.44087
G1 X87.492 Y106.195 E7.51947
G1 X87.482 Y106.049 E7.53281
G1 X87.408 Y105.865 E7.55086
G1 X86.818 Y105.157 E7.63465
G1 X86.712 Y104.754 E7.67257
G1 X87.059 Y102.851 E7.84843
G1 X87.224 Y102.567 E7.87836
G1 X87.672 Y102.193 E7.93136
G1 X87.981 Y102.081 E7.96129
G1 X89.966 Y102.081 E8.14171
G1 X90.186 Y102.302 E8.17004
G1 X90.957 Y101.982 E8.24597
G1 X90.957 Y98.506 E8.56201
G1 X90.186 Y98.187 E8.63794
G1 X89.966 Y98.407 E8.66627
G1 X88.526 Y98.407 E8.79713
G1 X88.263 Y98.328 E8.82215
G1 X87.858 Y98.061 E8.86625
G1 X87.681 Y97.850 E8.89127
G1 X86.882 Y95.987 E9.07560
G1 X86.924 Y95.516 E9.11858
G1 X87.289 Y94.963 E9.17884
G1 X87.342 Y94.787 E9.19552
G1 X87.342 Y93.882 E9.27783
G1 X87.891 Y93.333 E9.34844
G1 X89.529 Y93.333 E9.49744
G1 X89.849 Y93.453 E9.52845
G1 X90.223 Y93.781 E9.57377
G1 X90.957 Y93.449 E9.64703
G1 X90.957 Y92.895 E9.69743
G1 X91.004 Y92.689 E9.71659
G1 X91.589 Y91.471 E9.83949
G1 X91.967 Y91.233 E9.88013
G1 F1800.000 E8.88013
G92 E0
G1 X89.522 Y93.998 F7800.000
G1 E1.00000 F1800.000
G1 X89.806 Y94.246 E1.03429 F900.000
G1 X89.859 Y94.347 E1.04462
G1 X90.079 Y96.007 E1.19695
G1 X90.039 Y96.137 E1.20923
G1 X89.970 Y96.216 E1.21884
G1 X89.890 Y96.429 E1.23951
G1 X89.890 Y97.599 E1.34593
G1 X89.707 Y97.782 E1.36946
G1 X88.618 Y97.782 E1.46845
G1 X88.530 Y97.756 E1.47679
G1 X88.278 Y97.590 E1.50422
G1 X88.220 Y97.519 E1.51255
G1 X87.519 Y95.885 E1.67422
G1 X87.533 Y95.728 E1.68855
G1 X87.914 Y95.150 E1.75152
G1 X87.967 Y94.975 E1.76820
G1 X87.967 Y94.141 E1.84402
G1 X88.150 Y93.958 E1.86756
G1 X89.434 Y93.965 E1.98439
G1 F1800.000 E0.98439
G92 E0
G1 X109.955 Y95.720 F7800.000
G1 E1.00000 F1800.000
G1 X110.110 Y95.342 E1.03715 F900.000
G1 X110.110 Y94.141 E1.14637
G1 X110.293 Y93.958 E1.16991
G1 X111.737 Y93.958 E1.30122
G1 X111.830 Y93.987 E1.31003
G1 X112.091 Y94.172 E1.33908
G1 X112.149 Y94.249 E1.34790
G1 X112.729 Y95.892 E1.50633
G1 X112.708 Y96.042 E1.52017
G1 X112.411 Y96.462 E1.56694
G1 X112.383 Y96.477 E1.56982
G1 X112.201 Y96.776 E1.60167
G1 X112.201 Y97.599 E1.67649
G1 X111.868 Y97.933 E1.71939
G1 X111.806 Y98.338 E1.75670
G1 X112.446 Y99.559 E1.88204
G1 X112.441 Y99.723 E1.89696
G1 X112.323 Y99.919 E1.91777
G1 X112.277 Y100.083 E1.93331
G1 X112.277 Y101.348 E2.04835
G1 X112.094 Y101.531 E2.07188
G1 X111.701 Y101.531 E2.10763
G1 X111.520 Y102.565 E2.20305
G1 X112.012 Y102.744 E2.25067
G1 X112.291 Y102.976 E2.28371
G1 X112.346 Y103.071 E2.29368
G1 X112.649 Y104.729 E2.44694
G1 X112.613 Y104.864 E2.45958
G1 X112.314 Y105.222 E2.50201
G1 X112.048 Y105.347 E2.52874
G1 X111.853 Y105.653 E2.56182
G1 X111.853 Y106.348 E2.62493
G1 X111.670 Y106.531 E2.64847
G1 X110.585 Y106.531 E2.74708
G1 X110.479 Y106.491 E2.75735
G1 X110.197 Y106.245 E2.79144
G1 X110.143 Y106.146 E2.80172
G1 X109.910 Y104.485 E2.95418
G1 X109.949 Y104.355 E2.96651
G1 X110.031 Y104.260 E2.97792
G1 X110.110 Y104.049 E2.99848
G1 X110.110 Y102.889 E3.10391
G1 X110.293 Y102.706 E3.12745
G1 X110.781 Y102.706 E3.17179
G1 X110.976 Y101.692 E3.26567
G1 X110.462 Y101.487 E3.31602
G1 X110.172 Y101.212 E3.35234
G1 X110.122 Y101.103 E3.36326
G1 X110.035 Y99.439 E3.51473
G1 X110.139 Y99.157 E3.54213
G1 X110.110 Y99.025 E3.55439
G1 X110.110 Y97.890 E3.65759
G1 X110.184 Y97.478 E3.69569
G1 X110.135 Y97.382 E3.70549
G1 X109.965 Y95.813 E3.84897
G1 F1800.000 E2.84897
G92 E0
G1 X89.890 Y102.889 F7800.000
G1 E1.00000 F1800.000
G1 X89.890 Y104.073 E1.10768 F900.000
G1 X89.940 Y104.245 E1.12390
G1 X90.097 Y104.492 E1.15056
G1 X90.108 Y104.652 E1.16512
G1 X89.919 Y105.056 E1.20564
G1 X89.890 Y105.189 E1.21809
G1 X89.890 Y106.348 E1.32341
G1 X89.707 Y106.531 E1.34695
G1 X88.538 Y106.531 E1.45326
G1 X88.397 Y106.454 E1.46782
G1 X88.105 Y105.995 E1.51730
G1 X88.079 Y105.598 E1.55347
G1 X87.886 Y105.316 E1.58454
G1 X87.686 Y105.222 E1.60463
G1 X87.387 Y104.864 E1.64706
G1 X87.352 Y104.729 E1.65970
G1 X87.654 Y103.071 E1.81295
G1 X87.709 Y102.976 E1.82293
G1 X87.988 Y102.744 E1.85597
G1 X88.091 Y102.706 E1.86594
G1 X89.707 Y102.706 E2.01285
G1 X89.823 Y102.823 E2.02786
G1 F1800.000 E1.02786
G92 E0
G1 X91.582 Y107.035 F7800.000
G1 E1.00000 F1800.000
G1 X91.582 Y92.965 E2.27940 F900.000
G1 X91.598 Y92.896 E2.28579
G1 X92.074 Y91.904 E2.38592
G1 X92.227 Y91.808 E2.40230
G1 X102.608 Y91.808 E3.34623
G1 X107.773 Y91.808 E3.81588
G1 X107.925 Y91.904 E3.83227
G1 X108.402 Y92.896 E3.93240
G1 X108.418 Y92.965 E3.93879
G1 X108.418 Y107.035 E5.21819
G1 X108.402 Y107.104 E5.22457
G1 X107.925 Y108.096 E5.32471
G1 X107.773 Y108.192 E5.34109
G1 X92.227 Y108.192 E6.75467
G1 X92.074 Y108.096 E6.77106
G1 X91.608 Y107.125 E6.86906
G1 F1800.000 E5.86906
G92 E0
G1 X99.043 Y109.589 F7800.000
G1 E1.00000 F1800.000
G1 X99.362 Y108.817 E1.07593 F900.000
G1 X100.638 Y108.817 E1.19194
G1 X100.957 Y109.589 E1.26787
G1 X100.259 Y110.287 E1.35771
G1 X99.741 Y110.287 E1.40478
G1 X99.109 Y109.655 E1.48609
G1 F1800.000 E0.48609
G92 E0
G1 X101.042 Y110.388 F7800.000
G1 E1.00000 F1800.000
G1 X101.225 Y110.205 E1.02354 F900.000
G1 X107.175 Y110.205 E1.56456
G1 X107.358 Y110.388 E1.58810
G1 X107.358 Y111.347 E1.67529
G1 X107.175 Y111.530 E1.69882
