; generated by Slic3r 1.0.0RC3 on 2014-05-05 at 18:10:00

; layer_height = 0.25
; perimeters = 3
; top_solid_layers = 3
; bottom_solid_layers = 3
; fill_density = 0.4
; perimeter_speed = 50
; infill_speed = 60
; travel_speed = 130
; nozzle_diameter = 0.35
; filament_diameter = 1.75
; extrusion_multiplier = 1
; perimeters extrusion width = 0.35mm
; infill extrusion width = 0.39mm
; solid infill extrusion width = 0.39mm
; top infill extrusion width = 0.39mm
; support material extrusion width = 0.35mm
; first layer extrusion width = 0.70mm

G21 ; set units to millimeters
M107
M190 S100 ; wait for bed temperature to be reached
M104 S235 ; set temperature
G28 ; home all axes
G1 Z5 F5000 ; lift nozzle
M109 S235 ; wait for temperature to be reached
G90 ; use absolute coordinates
G92 E0
M82 ; use absolute distances for extrusion
G1 F1800.000 E-1.00000
G92 E0
G1 Z0.350 F7800.000
G1 X92.530 Y88.150 F7800.000
G1 E1.00000 F1800.000
G1 X93.570 Y87.190 E1.12870 F900.000
G1 X94.780 Y86.480 E1.25626
G1 X96.120 Y86.040 E1.38451
G1 X97.520 Y85.890 E1.51254
G1 X102.460 Y85.890 E1.96173
G1 X103.860 Y86.030 E2.08967
G1 X105.190 Y86.480 E2.21734
G1 X106.410 Y87.190 E2.34569
G1 X107.440 Y88.140 E2.47310
G1 X112.910 Y94.380 E3.22765
G1 X113.740 Y95.570 E3.35957
G1 X114.300 Y96.920 E3.49247
G1 X114.660 Y98.170 E3.61075
G1 X114.910 Y100.000 E3.77870
G1 X114.660 Y101.830 E3.94665
G1 X114.300 Y103.080 E4.06493
G1 X113.760 Y104.400 E4.19461
G1 X112.950 Y105.580 E4.32475
G1 X111.910 Y106.550 E4.45407
G1 X110.680 Y107.280 E4.58413
G1 X105.200 Y109.780 E5.13182
G1 X103.860 Y110.220 E5.26007
G1 X102.450 Y110.370 E5.38901
G1 X97.520 Y110.370 E5.83729
G1 X96.110 Y110.220 E5.96622
G1 X94.760 Y109.770 E6.09562
G1 X89.310 Y107.270 E6.64083
G1 X88.100 Y106.550 E6.76886
G1 X87.060 Y105.590 E6.89756
G1 X86.260 Y104.430 E7.02569
G1 X85.720 Y103.130 E7.15369
G1 X85.350 Y101.880 E7.27223
G1 X85.110 Y100.630 E7.38797
G1 X85.110 Y99.370 E7.50254
G1 X85.350 Y98.120 E7.61828
G1 X85.720 Y96.870 E7.73681
G1 X86.270 Y95.560 E7.86600
G1 X87.080 Y94.390 E7.99540
G1 X92.468 Y88.221 E8.74022
G1 F1800.000 E7.74022
G92 E0
G1 X94.989 Y91.248 F7800.000
G1 E1.00000 F1800.000
G1 X96.271 Y89.967 E1.16475 F900.000
G1 X103.719 Y89.967 E1.84205
G1 X105.001 Y91.248 E2.00681
G1 X105.001 Y93.760 E2.23521
G1 X104.572 Y94.189 E2.29037
G1 X104.593 Y94.735 E2.34006
G1 X106.234 Y96.138 E2.53644
G1 X106.444 Y96.216 E2.55675
G1 X108.409 Y96.216 E2.73548
G1 X109.084 Y96.441 E2.80019
G1 X109.840 Y97.010 E2.88617
G1 X110.244 Y97.596 E2.95088
G1 X110.926 Y99.963 E3.17488
G1 X110.739 Y100.977 E3.26861
G1 X110.535 Y101.247 E3.29941
G1 X110.471 Y101.440 E3.31789
G1 X110.471 Y102.508 E3.41502
G1 X109.190 Y103.790 E3.57977
G1 X106.561 Y103.790 E3.81883
G1 X106.331 Y103.885 E3.84143
G1 X105.176 Y105.039 E3.98991
G1 X105.100 Y105.039 E3.99687
G1 X104.870 Y105.134 E4.01948
G1 X103.715 Y106.289 E4.16796
G1 X97.271 Y106.289 E4.75391
G1 X96.888 Y106.220 E4.78938
G1 X96.404 Y106.040 E4.83629
G1 X96.068 Y105.842 E4.87175
G1 X93.778 Y103.868 E5.14670
G1 X93.567 Y103.790 E5.16712
G1 X91.597 Y103.790 E5.34629
G1 X90.926 Y103.567 E5.41052
G1 X90.174 Y103.006 E5.49586
G1 X89.769 Y102.428 E5.56009
G1 X89.064 Y100.063 E5.78444
G1 X89.244 Y99.043 E5.87866
G1 X89.463 Y98.750 E5.91188
G1 X89.526 Y98.558 E5.93023
G1 X89.526 Y97.497 E6.02675
G1 X90.807 Y96.216 E6.19150
G1 X93.433 Y96.216 E6.43028
G1 X93.663 Y96.121 E6.45289
G1 X94.818 Y94.966 E6.60137
G1 X95.104 Y94.966 E6.62744
G1 X95.424 Y94.194 E6.70337
G1 X94.989 Y93.760 E6.75925
G1 X94.989 Y91.342 E6.97913
G1 X95.614 Y91.507 F7800.000
G1 X96.530 Y90.592 E7.09681 F900.000
G1 X103.460 Y90.592 E7.72704
G1 X104.376 Y91.507 E7.84472
G1 X104.376 Y93.501 E8.02605
G1 X103.652 Y94.225 E8.11912
G1 X103.673 Y94.771 E8.16881
G1 X105.727 Y96.527 E8.41453
G1 X105.741 Y96.580 E8.41949
G1 X106.079 Y96.841 E8.45829
G1 X108.308 Y96.841 E8.66099
G1 X108.790 Y97.002 E8.70721
G1 X109.383 Y97.448 E8.77471
G1 X109.671 Y97.867 E8.82093
G1 X110.285 Y99.995 E9.02230
G1 X110.151 Y100.719 E9.08924
G1 X109.910 Y101.039 E9.12564
G1 X109.846 Y101.231 E9.14413
G1 X109.846 Y102.250 E9.23671
G1 X108.931 Y103.165 E9.35439
G1 X106.302 Y103.165 E9.59345
G1 X106.072 Y103.260 E9.61605
G1 X104.918 Y104.414 E9.76453
G1 X104.841 Y104.414 E9.77149
G1 X104.611 Y104.510 E9.79410
G1 X103.457 Y105.664 E9.94258
G1 X97.327 Y105.664 E10.49993
G1 X97.053 Y105.615 E10.52526
G1 X96.674 Y105.474 E10.56204
G1 X96.434 Y105.332 E10.58737
G1 X94.276 Y103.472 E10.84646
G1 X94.264 Y103.427 E10.85071
G1 X93.926 Y103.165 E10.88960
G1 X91.698 Y103.165 E11.09221
G1 X91.219 Y103.006 E11.13809
G1 X90.628 Y102.566 E11.20508
G1 X90.339 Y102.152 E11.25096
G1 X89.705 Y100.026 E11.45267
G1 X89.834 Y99.298 E11.51997
G1 X90.088 Y98.957 E11.55857
G1 X90.151 Y98.766 E11.57693
G1 X90.151 Y97.756 E11.66875
G1 X91.066 Y96.841 E11.78643
G1 X93.692 Y96.841 E12.02521
G1 X93.922 Y96.746 E12.04782
G1 X95.077 Y95.591 E12.19630
G1 X95.514 Y95.591 E12.23607
G1 X95.804 Y95.423 E12.26652
G1 X96.305 Y94.557 E12.35755
G1 X96.249 Y94.136 E12.39612
G1 X95.614 Y93.501 E12.47776
G1 X95.614 Y91.601 E12.65057
G1 X96.239 Y91.766 F7800.000
G1 X96.788 Y91.217 E12.72118 F900.000
G1 X103.202 Y91.217 E13.30434
G1 X103.751 Y91.766 E13.37494
G1 X103.751 Y93.242 E13.50920
G1 X103.202 Y93.791 E13.57981
G1 X102.487 Y93.791 E13.64482
G1 X102.303 Y94.821 E13.73996
G1 X103.047 Y95.096 E13.81212
G1 X103.190 Y95.180 E13.82723
G1 X105.172 Y96.874 E14.06429
G1 X105.258 Y97.205 E14.09532
G1 X105.596 Y97.466 E14.13412
G1 X108.206 Y97.466 E14.37149
G1 X108.495 Y97.562 E14.39922
G1 X108.926 Y97.886 E14.44823
G1 X109.099 Y98.137 E14.47596
G1 X109.643 Y100.026 E14.65470
G1 X109.563 Y100.461 E14.69487
G1 X109.286 Y100.830 E14.73687
G1 X109.221 Y101.023 E14.75535
G1 X109.221 Y101.991 E14.84339
G1 X108.672 Y102.540 E14.91399
G1 X105.574 Y102.540 E15.19572
G1 X105.208 Y102.906 E15.24279
G1 X105.208 Y103.240 E15.27322
G1 X104.659 Y103.790 E15.34383
G1 X104.113 Y103.790 E15.39345
G1 X103.747 Y104.156 E15.44052
G1 X103.747 Y104.490 E15.47095
G1 X103.198 Y105.039 E15.54156
G1 X97.383 Y105.039 E16.07031
G1 X97.218 Y105.010 E16.08551
G1 X96.944 Y104.908 E16.11215
G1 X96.800 Y104.823 E16.12735
G1 X94.832 Y103.127 E16.36356
G1 X94.749 Y102.802 E16.39405
G1 X94.411 Y102.540 E16.43294
G1 X91.799 Y102.540 E16.67044
G1 X91.511 Y102.444 E16.69796
G1 X91.083 Y102.125 E16.74660
G1 X90.909 Y101.877 E16.77413
G1 X90.346 Y99.990 E16.95320
G1 X90.423 Y99.552 E16.99358
G1 X90.713 Y99.164 E17.03757
G1 X90.776 Y98.973 E17.05592
G1 X90.776 Y98.015 E17.14305
G1 X91.325 Y97.466 E17.21366
G1 X94.420 Y97.466 E17.49511
G1 X94.786 Y97.099 E17.54218
G1 X94.786 Y96.765 E17.57261
G1 X95.335 Y96.216 E17.64322
G1 X95.875 Y96.216 E17.69226
G1 X96.165 Y96.048 E17.72271
G1 X96.645 Y95.217 E17.80999
G1 X97.510 Y94.718 E17.90082
G1 X97.262 Y93.791 E17.98802
G1 X96.788 Y93.791 E18.03107
G1 X96.239 Y93.242 E18.10168
G1 X96.239 Y91.859 E18.22741
G1 X96.864 Y92.025 F7800.000
G1 X97.047 Y91.842 E18.25095 F900.000
G1 X102.943 Y91.842 E18.78703
G1 X103.126 Y92.025 E18.81057
G1 X103.126 Y92.983 E18.89776
G1 X102.943 Y93.166 E18.92129
G1 X97.047 Y93.166 E19.45738
G1 X96.864 Y92.983 E19.48092
G1 X96.864 Y92.118 E19.55958
G1 F1800.000 E18.55958
G92 E0
G1 X97.247 Y95.591 F7800.000
G1 E1.00000 F1800.000
G1 X102.609 Y95.601 E1.48758 F900.000
G1 X102.826 Y95.691 E1.50897
G1 X104.617 Y97.222 E1.72315
G1 X104.666 Y97.412 E1.74099
G1 X104.613 Y97.555 E1.75489
G1 X104.986 Y98.090 E1.81421
G1 X108.104 Y98.090 E2.09775
G1 X108.201 Y98.123 E2.10700
G1 X108.469 Y98.324 E2.13751
G1 X108.527 Y98.408 E2.14676
G1 X109.002 Y100.058 E2.30286
G1 X108.975 Y100.203 E2.31625
G1 X108.661 Y100.621 E2.36385
G1 X108.596 Y100.814 E2.38234
G1 X108.596 Y101.732 E2.46582
G1 X108.413 Y101.915 E2.48936
G1 X105.799 Y101.915 E2.72705
G1 X105.678 Y101.861 E2.73913
G1 X105.385 Y101.535 E2.77896
G1 X104.583 Y101.843 E2.85706
G1 X104.583 Y102.982 E2.96059
G1 X104.400 Y103.165 E2.98412
G1 X103.488 Y103.165 E3.06703
G1 X103.122 Y103.531 E3.11410
G1 X103.122 Y104.231 E3.17782
G1 X102.939 Y104.414 E3.20135
G1 X97.439 Y104.414 E3.70150
G1 X97.166 Y104.313 E3.72798
G1 X95.389 Y102.781 E3.94132
G1 X95.340 Y102.591 E3.95913
G1 X95.392 Y102.451 E3.97273
G1 X95.019 Y101.915 E4.03213
G1 X91.900 Y101.915 E4.31576
G1 X91.804 Y101.883 E4.32493
G1 X91.537 Y101.684 E4.35522
G1 X91.479 Y101.601 E4.36439
G1 X90.987 Y99.953 E4.52083
G1 X91.013 Y99.807 E4.53429
G1 X91.337 Y99.372 E4.58367
G1 X91.401 Y99.180 E4.60202
G1 X91.401 Y98.273 E4.68446
G1 X91.584 Y98.090 E4.70799
G1 X94.199 Y98.090 E4.94580
G1 X94.321 Y98.144 E4.95787
G1 X94.610 Y98.465 E4.99714
G1 X95.411 Y98.157 E5.07522
G1 X95.411 Y97.024 E5.17829
G1 X95.594 Y96.841 E5.20183
G1 X96.450 Y96.841 E5.27967
G1 X96.816 Y96.475 E5.32674
G1 X96.816 Y96.170 E5.35448
G1 X97.102 Y95.675 E5.40645
G1 X97.166 Y95.638 E5.41315
G1 F1800.000 E4.41315
G92 E0
G1 X97.081 Y98.352 F7800.000
G1 E1.00000 F1800.000
G1 X97.401 Y98.400 E1.02941 F720.000
G1 X97.705 Y98.508 E1.05882
G1 X97.983 Y98.675 E1.08823
G1 X98.223 Y98.892 E1.11764
G1 X98.415 Y99.152 E1.14705
G1 X98.524 Y99.369 E1.16912
G1 X98.618 Y99.678 E1.19853
G1 X98.650 Y100.000 E1.22794
G1 X98.618 Y100.322 E1.25735
G1 X98.524 Y100.631 E1.28676
G1 X98.372 Y100.917 E1.31617
G1 X98.167 Y101.167 E1.34558
G1 X97.917 Y101.372 E1.37499
G1 X97.631 Y101.524 E1.40440
G1 X97.322 Y101.618 E1.43381
G1 X97.000 Y101.650 E1.46322
G1 X96.678 Y101.618 E1.49263
G1 X96.369 Y101.524 E1.52204
G1 X96.083 Y101.372 E1.55145
G1 X95.833 Y101.167 E1.58086
G1 X95.628 Y100.917 E1.61027
G1 X95.476 Y100.631 E1.63968
G1 X95.382 Y100.322 E1.66909
G1 X95.350 Y100.000 E1.69850
G1 X95.382 Y99.678 E1.72791
G1 X95.476 Y99.369 E1.75732
G1 X95.628 Y99.083 E1.78673
G1 X95.833 Y98.833 E1.81614
G1 X96.083 Y98.628 E1.84555
G1 X96.369 Y98.476 E1.87496
G1 X96.678 Y98.382 E1.90437
G1 X96.987 Y98.350 E1.93262
G1 X97.222 Y98.643 F7800.000
G1 X97.150 Y98.986 F7800.000
G1 X97.345 Y99.035 E1.95090 F720.000
G1 X97.527 Y99.121 E1.96916
G1 X97.650 Y99.208 E1.98288
G1 X97.792 Y99.350 E2.00114
G1 X97.904 Y99.517 E2.01941
G1 X97.981 Y99.703 E2.03768
G1 X98.020 Y99.900 E2.05594
G1 X98.020 Y100.100 E2.07421
G1 X97.981 Y100.297 E2.09248
G1 X97.904 Y100.483 E2.11075
G1 X97.792 Y100.650 E2.12902
G1 X97.650 Y100.792 E2.14728
G1 X97.483 Y100.904 E2.16555
G1 X97.297 Y100.981 E2.18382
G1 X97.100 Y101.020 E2.20209
G1 X96.900 Y101.020 E2.22035
G1 X96.703 Y100.981 E2.23862
G1 X96.517 Y100.904 E2.25689
G1 X96.350 Y100.792 E2.27516
G1 X96.208 Y100.650 E2.29342
G1 X96.096 Y100.483 E2.31169
G1 X96.019 Y100.297 E2.32996
G1 X95.980 Y100.100 E2.34823
G1 X95.980 Y99.900 E2.36649
G1 X96.019 Y99.702 E2.38476
G1 X96.096 Y99.517 E2.40303
G1 X96.208 Y99.350 E2.42129
G1 X96.350 Y99.208 E2.43956
G1 X96.517 Y99.096 E2.45783
G1 X96.703 Y99.019 E2.47610
G1 X96.900 Y98.980 E2.49437
G1 X97.057 Y98.977 E2.50870
G1 X97.020 Y99.601 F7800.000
G1 X97.171 Y99.639 E2.52287 F720.000
G1 X97.296 Y99.732 E2.53707
G1 X97.376 Y99.865 E2.55124
G1 X97.400 Y100.000 E2.56367
G1 X97.376 Y100.135 E2.57610
G1 X97.296 Y100.268 E2.59027
G1 X97.171 Y100.361 E2.60447
G1 X97.020 Y100.399 E2.61864
G1 X96.865 Y100.376 E2.63283
G1 X96.746 Y100.309 E2.64526
G1 X96.647 Y100.188 E2.65944
G1 X96.602 Y100.039 E2.67362
G1 X96.617 Y99.884 E2.68780
G1 X96.679 Y99.762 E2.70023
G1 X96.794 Y99.657 E2.71441
G1 X96.926 Y99.607 E2.72723
G1 F1800.000 E1.72723
G92 E0
G1 X101.352 Y99.919 F7800.000
G1 E1.00000 F1800.000
G1 X101.400 Y99.599 E1.02941 F720.000
G1 X101.508 Y99.295 E1.05882
G1 X101.675 Y99.017 E1.08823
G1 X101.892 Y98.777 E1.11764
G1 X102.152 Y98.585 E1.14705
G1 X102.369 Y98.476 E1.16912
G1 X102.678 Y98.382 E1.19853
G1 X103.000 Y98.350 E1.22794
G1 X103.322 Y98.382 E1.25735
G1 X103.631 Y98.476 E1.28676
G1 X103.917 Y98.628 E1.31617
G1 X104.167 Y98.833 E1.34558
G1 X104.372 Y99.083 E1.37500
G1 X104.524 Y99.369 E1.40440
G1 X104.618 Y99.678 E1.43381
G1 X104.650 Y100.000 E1.46322
G1 X104.618 Y100.322 E1.49263
G1 X104.524 Y100.631 E1.52204
G1 X104.372 Y100.917 E1.55144
G1 X104.167 Y101.167 E1.58086
G1 X103.917 Y101.372 E1.61027
G1 X103.631 Y101.524 E1.63968
G1 X103.322 Y101.618 E1.66909
G1 X103.000 Y101.650 E1.69850
G1 X102.678 Y101.618 E1.72791
G1 X102.369 Y101.524 E1.75732
G1 X102.083 Y101.372 E1.78673
G1 X101.833 Y101.167 E1.81614
G1 X101.628 Y100.917 E1.84555
G1 X101.476 Y100.631 E1.87496
G1 X101.382 Y100.322 E1.90437
G1 X101.350 Y100.013 E1.93262
G1 X101.643 Y99.778 F7800.000
G1 X101.986 Y99.850 F7800.000
G1 X102.035 Y99.655 E1.95089 F720.000
G1 X102.121 Y99.473 E1.96916
G1 X102.241 Y99.312 E1.98742
G1 X102.389 Y99.177 E2.00568
G1 X102.562 Y99.074 E2.02397
G1 X102.751 Y99.006 E2.04223
G1 X102.950 Y98.976 E2.06050
G1 X103.150 Y98.986 E2.07877
G1 X103.345 Y99.035 E2.09704
G1 X103.527 Y99.121 E2.11529
G1 X103.688 Y99.241 E2.13356
G1 X103.823 Y99.389 E2.15183
G1 X103.927 Y99.562 E2.17014
G1 X103.994 Y99.751 E2.18838
G1 X104.020 Y99.899 E2.20206
G1 X104.020 Y100.101 E2.22037
G1 X103.981 Y100.297 E2.23861
G1 X103.904 Y100.483 E2.25690
G1 X103.792 Y100.650 E2.27516
G1 X103.650 Y100.792 E2.29343
G1 X103.483 Y100.904 E2.31169
G1 X103.297 Y100.981 E2.32996
G1 X103.100 Y101.020 E2.34823
G1 X102.900 Y101.020 E2.36649
G1 X102.703 Y100.981 E2.38476
G1 X102.517 Y100.904 E2.40303
G1 X102.350 Y100.792 E2.42130
G1 X102.208 Y100.650 E2.43957
G1 X102.096 Y100.483 E2.45783
G1 X102.019 Y100.297 E2.47610
G1 X101.980 Y100.100 E2.49437
G1 X101.977 Y99.943 E2.50870
G1 X102.601 Y99.980 F7800.000
G1 X102.639 Y99.829 E2.52287 F720.000
G1 X102.732 Y99.704 E2.53708
G1 X102.865 Y99.624 E2.55123
G1 X103.000 Y99.600 E2.56367
G1 X103.135 Y99.624 E2.57611
G1 X103.268 Y99.704 E2.59027
G1 X103.362 Y99.830 E2.60452
G1 X103.399 Y99.980 E2.61862
G1 X103.383 Y100.116 E2.63106
G1 X103.309 Y100.254 E2.64527
G1 X103.188 Y100.353 E2.65944
G1 X103.039 Y100.398 E2.67362
G1 X102.884 Y100.383 E2.68780
G1 X102.762 Y100.321 E2.70025
G1 X102.657 Y100.206 E2.71441
G1 X102.607 Y100.074 E2.72724
G1 X101.027 Y101.252 F7800.000
G1 X98.973 Y101.252 E2.91402 F1080.000
G1 X99.341 Y100.003 E3.03250
G1 X100.659 Y100.003 E3.15228
G1 X101.024 Y98.753 E3.27068
G1 X98.976 Y98.753 E3.45695
G1 X97.533 Y96.253 E3.71938
G1 X102.465 Y96.253 E4.16780
G1 X103.926 Y97.503 E4.34268
G1 X96.074 Y97.503 E5.05671
G1 F1800.000 E4.05671
G92 E0
G1 X92.063 Y98.753 F7800.000
G1 E1.00000 F1800.000
G1 X93.977 Y98.753 E1.17402 F1080.000
G1 X93.847 Y100.003 E1.28828
G1 X91.693 Y100.003 E1.48415
G1 X92.066 Y101.252 E1.60274
G1 X93.979 Y101.252 E1.77662
G1 F1800.000 E0.77662
G92 E0
G1 X102.460 Y103.752 F7800.000
G1 E1.00000 F1800.000
G1 X97.529 Y103.752 E1.44830 F1080.000
G1 X96.080 Y102.502 E1.62235
G1 X103.920 Y102.502 E2.33531
G1 F1800.000 E1.33531
G92 E0
G1 X107.934 Y101.252 F7800.000
G1 E1.00000 F1800.000
G1 X106.021 Y101.252 E1.17389 F1080.000
G1 X106.153 Y100.003 E1.28816
G1 X108.297 Y100.003 E1.48313
G1 X107.937 Y98.753 E1.60140
G1 X106.023 Y98.753 E1.77542
G1 F1800.000 E0.77542
G92 E0
G1 X102.463 Y92.504 F7800.000
G1 E1.00000 F1800.000
G1 X97.527 Y92.504 E1.44890 F1080.000
M106 S255
M104 S230 ; set temperature
G1 F1800.000 E0.44890
G92 E0
G1 Z0.525 F7800.000
G1 X98.849 Y91.853 F7800.000
G1 E1.00000 F1800.000
G1 X98.849 Y92.057 E1.00519 F600.000
G1 X98.325 Y92.085 E1.01856
G1 X98.325 Y92.135 E1.01983
G1 X97.537 Y92.213 E1.04001
G1 X97.537 Y93.613 E1.07566
G1 X98.332 Y93.323 E1.09722
G1 X98.332 Y93.544 E1.10286
G1 X98.687 Y93.456 E1.11217
G1 X98.687 Y93.278 E1.11670
G1 X99.328 Y93.183 E1.13320
G1 X100.001 Y93.150 E1.15038
G1 X100.404 Y93.163 E1.16064
G1 X101.006 Y93.224 E1.17604
G1 X101.313 Y93.285 E1.18403
G1 X101.313 Y93.463 E1.18857
G1 X101.668 Y93.539 E1.19781
G1 X101.668 Y93.323 E1.20331
G1 X102.463 Y93.613 E1.22487
G1 X102.463 Y92.213 E1.26052
G1 X101.675 Y92.135 E1.28071
G1 X101.675 Y92.080 E1.28209
G1 X101.150 Y92.055 E1.29546
G1 X101.150 Y91.853 E1.30060
G1 X100.000 Y91.968 E1.33003
G1 X98.849 Y91.853 E1.35948
G1 F1800.000 E0.35948
G92 E0
G1 X100.018 Y95.519 F7800.000
G1 E1.00000 F1800.000
G1 X99.358 Y95.563 E1.01687 F600.000
G1 X98.911 Y95.652 E1.02846
G1 X98.490 Y95.780 E1.03967
G1 X98.079 Y95.950 E1.05101
G1 X97.645 Y96.186 E1.06358
G1 X97.168 Y96.525 E1.07847
