; generated by Slic3r 0.9.9 on 2014-08-25 at 10:40:45

; layer_height = 0.2
; perimeters = 3
; top_solid_layers = 3
; bottom_solid_layers = 3
; fill_density = 0.4
; perimeter_speed = 60
; infill_speed = 65
; travel_speed = 130
; nozzle_diameter = 0.35
; filament_diameter = 1.75
; extrusion_multiplier = 1
; perimeters extrusion width = 0.52mm
; infill extrusion width = 0.52mm
; solid infill extrusion width = 0.52mm
; top infill extrusion width = 0.52mm
; support material extrusion width = 0.52mm
; first layer extrusion width = 0.40mm

G21 ; set units to millimeters
M107
M190 S80 ; wait for bed temperature to be reached
M104 S230 ; set temperature
G28 ; home all axes
G1 Z5 F5000 ; lift nozzle
M109 S230 ; wait for temperature to be reached
G90 ; use absolute coordinates
G92 E0
M82 ; use absolute distances for extrusion
G1 F3600.000 E-2.00000
G92 E0
G1 Z0.200 F7800.000
G1 X80.408 Y73.860
G1 F3600.000 E3.00000
G1 X82.308 Y71.960 F1080.000 E3.08697
G1 X82.788 Y71.570 E3.10699
G1 X83.048 Y71.390 E3.11723
G1 X83.578 Y71.070 E3.13727
G1 X88.288 Y68.840 E3.30594
G1 X88.568 Y68.730 E3.31568
G1 X89.138 Y68.560 E3.33493
G1 X89.728 Y68.430 E3.35449
G1 X98.938 Y66.940 E3.65647
G1 X99.958 Y66.860 E3.68959
G1 X109.858 Y66.860 E4.01003
G1 X110.348 Y66.880 E4.02591
G1 X111.378 Y66.960 E4.05935
G1 X111.938 Y67.030 E4.07761
G1 X120.418 Y68.440 E4.35586
G1 X120.958 Y68.550 E4.37370
G1 X121.488 Y68.710 E4.39162
G1 X121.748 Y68.810 E4.40063
G1 X122.488 Y69.170 E4.42727
G1 X123.188 Y69.620 E4.45421
G1 X123.818 Y70.150 E4.48085
G1 X124.198 Y70.560 E4.49895
G1 X124.888 Y71.360 E4.53314
G1 X125.208 Y71.800 E4.55075
G1 X125.608 Y72.490 E4.57657
G1 X125.828 Y72.980 E4.59395
G1 X126.008 Y73.490 E4.61146
G1 X126.138 Y74.010 E4.62881
G1 X126.228 Y74.540 E4.64621
G1 X126.258 Y74.800 E4.65468
G1 X126.278 Y75.340 E4.67217
G1 X126.278 Y85.240 E4.99261
G1 X126.218 Y86.070 E5.01955
G1 X126.128 Y86.620 E5.03759
G1 X126.058 Y86.890 E5.04662
G1 X125.888 Y87.430 E5.06494
G1 X125.558 Y88.190 E5.09176
G1 X125.278 Y88.670 E5.10975
G1 X124.958 Y89.130 E5.12789
G1 X124.778 Y89.350 E5.13709
G1 X124.398 Y89.770 E5.15542
G1 X123.758 Y90.330 E5.18294
G1 X123.528 Y90.500 E5.19220
G1 X123.038 Y90.800 E5.21080
G1 X122.538 Y91.060 E5.22904
G1 X121.738 Y91.360 E5.25670
G1 X121.468 Y91.440 E5.26581
G1 X120.908 Y91.560 E5.28435
G1 X111.708 Y93.060 E5.58606
G1 X110.678 Y93.140 E5.61950
G1 X99.668 Y93.140 E5.97588
G1 X98.668 Y93.060 E6.00835
G1 X89.158 Y91.560 E6.31997
G1 X88.538 Y91.430 E6.34048
G1 X87.938 Y91.240 E6.36085
G1 X87.638 Y91.120 E6.37131
G1 X87.068 Y90.840 E6.39186
G1 X83.518 Y88.880 E6.52312
G1 X83.008 Y88.570 E6.54243
G1 X82.128 Y87.960 E6.57709
G1 X81.498 Y87.430 E6.60374
G1 X80.598 Y86.480 E6.64610
G1 X80.278 Y86.070 E6.66293
G1 X79.978 Y85.640 E6.67990
G1 X79.558 Y84.960 E6.70577
G1 X79.278 Y84.450 E6.72461
G1 X79.048 Y83.920 E6.74331
G1 X78.668 Y82.810 E6.78128
G1 X78.568 Y82.500 E6.79182
G1 X78.418 Y81.860 E6.81310
G1 X78.348 Y81.200 E6.83458
G1 X78.258 Y79.850 E6.87838
G1 X78.278 Y79.200 E6.89943
G1 X78.368 Y78.560 E6.92035
G1 X78.518 Y77.930 E6.94131
G1 X78.978 Y76.370 E6.99395
G1 X79.168 Y75.820 E7.01279
G1 X79.408 Y75.290 E7.03162
G1 X79.698 Y74.780 E7.05061
G1 X80.028 Y74.300 E7.06946
G1 X80.368 Y73.903 E7.08639
G1 F3600.000 E5.08639
G92 E0
G1 X85.115 Y78.184 F7800.000
G1 F3600.000 E3.00000
G1 X86.589 Y76.710 F1080.000 E3.06745
G1 X88.134 Y76.266 E3.11950
G1 X84.653 Y79.746 E3.27882
G1 X84.721 Y80.780 E3.31234
G1 X89.167 Y76.334 E3.51586
G1 X89.887 Y75.613 F7800.000
G1 X90.751 Y74.750 F1080.000 E3.55539
G1 X91.852 Y74.750 E3.59102
G1 X84.998 Y81.604 E3.90476
G1 X85.419 Y82.284 E3.93064
G1 X92.953 Y74.750 E4.27550
G1 X94.054 Y74.750 E4.31113
G1 X85.954 Y82.849 E4.68189
G1 X86.611 Y83.294 E4.70755
G1 X95.155 Y74.750 E5.09866
G1 X96.256 Y74.750 E5.13430
G1 X87.396 Y83.610 E5.53986
G1 X88.364 Y83.743 E5.57148
G1 X97.357 Y74.750 E5.98313
G1 X98.458 Y74.750 F7800.000
G1 X89.695 Y83.513 F1080.000 E6.38426
G1 X89.887 Y84.421 E6.41432
G1 X101.059 Y73.250 E6.92570
G1 X102.160 Y73.250 E6.96134
G1 X90.160 Y85.250 E7.51065
G1 X91.261 Y85.250 E7.54629
G1 X103.261 Y73.250 E8.09560
G1 X104.362 Y73.250 E8.13124
G1 X92.362 Y85.250 E8.68055
G1 X93.463 Y85.250 E8.71619
G1 X105.463 Y73.250 E9.26550
G1 X106.564 Y73.250 E9.30114
G1 X94.564 Y85.250 E9.85045
G1 X95.665 Y85.250 E9.88608
G1 X107.665 Y73.250 E10.43540
G1 X108.766 Y73.250 E10.47103
G1 X96.766 Y85.250 E11.02034
G1 X97.867 Y85.250 E11.05598
G1 X109.867 Y73.250 E11.60529
G1 X110.888 Y73.330 E11.63842
G1 X98.887 Y85.331 E12.18774
G1 X98.887 Y86.432 E12.22337
G1 X110.888 Y74.432 E12.77268
G1 X111.670 Y74.750 F7800.000
G1 X99.670 Y86.750 F1080.000 E13.32200
G1 X100.771 Y86.750 E13.35763
G1 X112.771 Y74.750 E13.90694
G1 X113.872 Y74.750 E13.94258
G1 X101.872 Y86.750 E14.49189
G1 X102.973 Y86.750 E14.52753
G1 X114.973 Y74.750 E15.07684
G1 X116.074 Y74.750 E15.11248
G1 X104.074 Y86.750 E15.66179
G1 X105.175 Y86.750 E15.69743
G1 X117.175 Y74.750 E16.24674
G1 X118.276 Y74.750 E16.28238
G1 X106.276 Y86.750 E16.83169
G1 X107.377 Y86.750 E16.86733
G1 X119.377 Y74.750 E17.41664
G1 X119.888 Y75.341 E17.44190
G1 X108.478 Y86.750 E17.96417
G1 F3600.000 E15.96417
G92 E0
G1 X110.888 Y86.543 F7800.000
G1 F3600.000 E3.00000
G1 X110.680 Y86.750 F1080.000 E3.00949
G1 X109.579 Y86.750 E3.04513
G1 X110.888 Y85.442 E3.10502
G1 X111.079 Y85.250 F7800.000
G1 X119.888 Y76.442 F1080.000 E3.50822
G1 X119.888 Y77.543 E3.54386
G1 X112.180 Y85.250 E3.89667
G1 X113.281 Y85.250 E3.93231
G1 X119.888 Y78.644 E4.23471
G1 X119.888 Y79.745 E4.27035
G1 X114.382 Y85.250 E4.52236
G1 X115.483 Y85.250 E4.55799
G1 X119.888 Y80.846 E4.75960
G1 X119.888 Y81.947 E4.79524
G1 X116.584 Y85.250 E4.94645
G1 X117.685 Y85.250 E4.98208
G1 X119.888 Y83.048 E5.08289
G1 X119.888 Y84.149 E5.11853
G1 X118.786 Y85.250 E5.16894
G1 X119.888 Y85.250 E5.20458
G1 F3600.000 E3.20458
G92 E0
G1 X99.958 Y73.250 F7800.000
G1 F3600.000 E3.00000
G1 X98.887 Y74.320 F1080.000 E3.04901
M106 S255
G1 F3600.000 E1.04901
G92 E0
G1 Z0.250 F7800.000
G1 X90.146 Y76.086
G1 F3600.000 E3.00000
G1 X99.051 Y84.992 F712.948 E3.12594
G1 X99.146 Y85.086 F7800.000
G1 X100.551 Y86.492 F712.948 E3.14581
G1 X104.087 Y86.492 E3.18117
G1 X92.603 Y75.008 E3.34357
G1 X96.139 Y75.008 E3.37892
G1 X107.622 Y86.492 E3.54132
G1 X110.629 Y85.963 E3.57185
G1 X99.146 Y74.480 E3.73425
G1 X101.710 Y73.508 E3.76167
G1 X113.193 Y84.992 E3.92407
G1 X116.729 Y84.992 E3.95942
G1 X105.245 Y73.508 E4.12182
G1 X108.781 Y73.508 E4.15718
G1 X119.629 Y84.357 E4.31060
G1 X119.629 Y80.821 E4.34595
G1 X113.816 Y75.008 E4.42815
G1 X117.352 Y75.008 E4.46351
G1 X119.629 Y77.285 E4.49571
G1 F3600.000 E2.49571
G92 E0
G1 X90.146 Y83.157 F7800.000
G1 F3600.000 E3.00000
G1 X91.980 Y84.992 F712.948 E3.02594
G1 X95.516 Y84.992 E3.06129
G1 X87.231 Y76.707 E3.17845
G1 F3600.000 E1.17845
G92 E0
G1 X85.845 Y82.392 F7800.000
G1 F3600.000 E3.00000
G1 X85.326 Y78.337 F712.948 E3.04088
G1 X90.086 Y83.098 E3.10820
G1 F3600.000 E1.10820
G92 E0
G1 Z0.400 F7800.000
G1 X90.086 Y83.098
G1 F3600.000 E3.00000
G1 X85.326 Y78.337 F712.948 E3.26929
G1 X85.845 Y82.392 E3.43281
G1 F3600.000 E1.43281
G92 E0
G1 X90.146 Y83.157 F7800.000
G1 F3600.000 E3.00000
G1 X91.980 Y84.992 F712.948 E3.10376
G1 X95.516 Y84.992 E3.24518
G1 X87.231 Y76.707 E3.71382
G1 F3600.000 E1.71382
G92 E0
G1 X90.146 Y76.086 F7800.000
G1 F3600.000 E3.00000
G1 X99.051 Y84.992 F712.948 E3.50376
G1 X99.146 Y85.086 F7800.000
G1 X100.551 Y86.492 F712.948 E3.58325
G1 X104.087 Y86.492 E3.72467
G1 X92.603 Y75.008 E4.37427
G1 X96.139 Y75.008 E4.51569
G1 X107.622 Y86.492 E5.16528
G1 X110.629 Y85.963 E5.28741
G1 X99.146 Y74.480 E5.93700
G1 X101.710 Y73.508 E6.04668
G1 X113.193 Y84.992 E6.69628
G1 X116.729 Y84.992 E6.83770
G1 X105.245 Y73.508 E7.48729
G1 X108.781 Y73.508 E7.62871
G1 X119.629 Y84.357 E8.24238
G1 X119.629 Y80.821 E8.38380
G1 X113.816 Y75.008 E8.71262
G1 X117.352 Y75.008 E8.85404
G1 X119.629 Y77.285 E8.98285
G1 F3600.000 E6.98285
G92 E0
G1 Z0.600 F7800.000
G1 X118.685 Y75.953
G1 F3600.000 E3.00000
G1 X118.685 Y84.047 F2458.583 E3.32379
G1 X109.685 Y84.047 E3.68379
G1 X109.685 Y85.547 E3.74379
G1 X100.090 Y85.547 E4.12758
G1 X100.090 Y84.047 E4.18758
G1 X91.090 Y84.047 E4.54758
G1 X91.090 Y81.732 E4.64017
G1 X89.174 Y82.422 E4.72162
G1 X88.865 Y82.502 E4.73441
G1 X88.387 Y82.547 E4.75358
G1 X88.068 Y82.527 E4.76638
G1 X87.754 Y82.467 E4.77917
G1 X87.450 Y82.368 E4.79196
G1 X87.161 Y82.232 E4.80475
G1 X86.764 Y81.962 E4.82393
G1 X86.531 Y81.743 E4.83672
G1 X86.237 Y81.365 E4.85589
G1 X86.083 Y81.084 E4.86868
G1 X85.921 Y80.633 E4.88786
G1 X85.861 Y80.319 E4.90065
G1 X85.841 Y80.000 E4.91345
G1 X85.886 Y79.523 E4.93262
G1 X86.020 Y79.062 E4.95180
G1 X86.237 Y78.635 E4.97097
G1 X86.531 Y78.257 E4.99014
G1 X86.764 Y78.038 E5.00293
G1 X87.161 Y77.768 E5.02211
G1 X87.450 Y77.632 E5.03490
G1 X87.910 Y77.498 E5.05407
G1 X88.228 Y77.458 E5.06687
G1 X88.547 Y77.458 E5.07966
G1 X88.865 Y77.498 E5.09246
G1 X89.174 Y77.578 E5.10525
G1 X91.090 Y78.268 E5.18669
G1 X91.090 Y75.953 E5.27928
G1 X100.090 Y75.953 E5.63928
G1 X100.090 Y74.453 E5.69928
G1 X109.685 Y74.453 E6.08307
G1 X109.685 Y75.953 E6.14307
G1 X118.613 Y75.953 E6.50019
G1 X119.166 Y75.472 F7800.000
G1 X119.166 Y84.528 F2458.583 E6.86246
G1 X110.166 Y84.528 E7.22246
G1 X110.166 Y86.028 E7.28246
G1 X99.609 Y86.028 E7.70473
G1 X99.609 Y84.528 E7.76473
G1 X90.609 Y84.528 E8.12473
G1 X90.609 Y82.417 E8.20919
G1 X89.323 Y82.880 E8.26386
G1 X88.767 Y83.004 E8.28666
G1 X88.387 Y83.028 E8.30187
G1 X88.008 Y83.004 E8.31708
G1 X87.634 Y82.933 E8.33229
G1 X87.273 Y82.815 E8.34750
G1 X86.929 Y82.653 E8.36271
G1 X86.457 Y82.333 E8.38551
G1 X86.180 Y82.073 E8.40072
G1 X85.938 Y81.780 E8.41593
G1 X85.734 Y81.459 E8.43114
G1 X85.572 Y81.115 E8.44635
G1 X85.455 Y80.753 E8.46156
G1 X85.383 Y80.380 E8.47677
G1 X85.359 Y80.000 E8.49198
G1 X85.413 Y79.433 E8.51478
G1 X85.508 Y79.064 E8.52999
G1 X85.648 Y78.711 E8.54520
G1 X85.831 Y78.377 E8.56041
G1 X86.180 Y77.927 E8.58321
G1 X86.457 Y77.667 E8.59842
G1 X86.929 Y77.347 E8.62121
G1 X87.273 Y77.185 E8.63643
G1 X87.820 Y77.026 E8.65922
G1 X88.197 Y76.978 E8.67444
G1 X88.578 Y76.978 E8.68964
G1 X88.955 Y77.026 E8.70486
G1 X89.323 Y77.120 E8.72007
G1 X90.609 Y77.583 E8.77473
G1 X90.609 Y75.472 E8.85919
G1 X99.609 Y75.472 E9.21919
G1 X99.609 Y73.972 E9.27919
G1 X110.166 Y73.972 E9.70147
G1 X110.166 Y75.472 E9.76147
G1 X119.094 Y75.472 E10.11858
G1 X119.647 Y74.991 F7800.000
G1 X119.647 Y85.009 F1843.937 E10.51934
G1 X110.647 Y85.009 E10.87934
G1 X110.647 Y86.509 E10.93934
G1 X99.128 Y86.509 E11.40009
G1 X99.128 Y85.009 E11.46009
G1 X90.128 Y85.009 E11.82009
G1 X90.128 Y83.101 E11.89642
G1 X89.260 Y83.399 E11.93311
G1 X88.827 Y83.482 E11.95074
G1 X88.387 Y83.509 E11.96837
G1 X87.948 Y83.482 E11.98600
G1 X87.515 Y83.399 E12.00363
G1 X87.096 Y83.263 E12.02126
G1 X86.893 Y83.175 E12.03007
G1 X86.507 Y82.963 E12.04770
G1 X86.151 Y82.704 E12.06533
G1 X85.829 Y82.402 E12.08296
G1 X85.548 Y82.063 E12.10059
G1 X85.424 Y81.880 E12.10941
G1 X85.212 Y81.494 E12.12704
G1 X85.050 Y81.084 E12.14466
G1 X84.940 Y80.658 E12.16229
G1 X84.885 Y80.220 E12.17992
G1 X84.885 Y79.780 E12.19755
G1 X84.906 Y79.560 E12.20637
G1 X84.988 Y79.127 E12.22400
G1 X85.125 Y78.708 E12.24163
G1 X85.312 Y78.309 E12.25925
G1 X85.548 Y77.937 E12.27688
G1 X85.829 Y77.598 E12.29451
G1 X86.151 Y77.296 E12.31214
G1 X86.325 Y77.161 E12.32096
G1 X86.697 Y76.925 E12.33858
G1 X87.096 Y76.737 E12.35621
G1 X87.515 Y76.601 E12.37384
G1 X87.730 Y76.553 E12.38266
G1 X87.948 Y76.518 E12.39148
G1 X88.387 Y76.491 E12.40911
G1 X88.827 Y76.518 E12.42674
G1 X89.260 Y76.601 E12.44436
G1 X89.472 Y76.662 E12.45318
G1 X90.128 Y76.899 E12.48107
G1 X90.128 Y74.991 E12.55740
G1 X99.128 Y74.991 E12.91740
G1 X99.128 Y73.491 E12.97740
G1 X110.647 Y73.491 E13.43815
G1 X110.647 Y74.991 E13.49815
G1 X119.575 Y74.991 E13.85527
G1 X119.406 Y75.407 F7800.000
G1 X118.336 Y76.512
M106 S255
G1 X118.125 Y76.301 F3600.000 E13.86719
G1 X117.737 Y76.301 E13.88274
G1 X118.336 Y76.901 E13.91666
G1 X118.336 Y77.290 E13.93221
G1 X117.348 Y76.301 E13.98812
G1 X116.959 Y76.301 E14.00367
G1 X118.336 Y77.678 E14.08157
G1 X118.336 Y78.067 E14.09712
G1 X116.570 Y76.301 E14.19701
G1 X116.182 Y76.301 E14.21256
G1 X118.336 Y78.456 E14.33444
G1 X118.336 Y78.845 E14.34999
G1 X115.793 Y76.301 E14.49386
G1 X115.404 Y76.301 E14.50941
G1 X118.336 Y79.233 E14.67527
G1 X118.336 Y79.622 E14.69082
G1 X115.015 Y76.301 E14.87868
G1 X114.627 Y76.301 E14.89423
G1 X118.336 Y80.011 E15.10407
G1 X118.336 Y80.400 E15.11962
G1 X114.238 Y76.301 E15.35146
G1 X113.849 Y76.301 E15.36701
G1 X118.336 Y80.788 E15.62084
G1 X118.336 Y81.177 E15.63639
G1 X113.460 Y76.301 E15.91221
G1 X113.072 Y76.301 E15.92776
G1 X118.336 Y81.566 E16.22557
G1 X118.336 Y81.955 E16.24112
G1 X112.683 Y76.301 E16.56092
G1 X112.294 Y76.301 E16.57647
G1 X118.336 Y82.343 E16.91826
G1 X118.336 Y82.732 E16.93381
G1 X111.905 Y76.301 E17.29759
G1 X111.517 Y76.301 E17.31314
G1 X118.336 Y83.121 E17.69892
G1 X118.336 Y83.510 E17.71447
G1 X111.128 Y76.301 E18.12223
G1 X110.739 Y76.301 E18.13779
G1 X118.137 Y83.699 E18.55625
G1 X117.748 Y83.699 E18.57180
G1 X110.350 Y76.301 E18.99026
G1 X109.962 Y76.301 E19.00581
G1 X117.359 Y83.699 E19.42427
G1 X116.970 Y83.699 E19.43982
G1 X109.573 Y76.301 E19.85828
G1 X109.336 Y76.065 F7800.000
M106 S255
M106 S255
G1 X108.073 Y74.801 F3600.000 E19.92975
G1 X107.684 Y74.801 E19.94530
G1 X116.582 Y83.699 E20.44861
G1 X116.193 Y83.699 E20.46416
G1 X107.295 Y74.801 E20.96748
G1 X106.907 Y74.801 E20.98303
G1 X115.804 Y83.699 E21.48634
G1 X115.415 Y83.699 E21.50189
G1 X106.518 Y74.801 E22.00521
G1 X106.129 Y74.801 E22.02076
G1 X115.027 Y83.699 E22.52407
G1 X114.638 Y83.699 E22.53962
G1 X105.740 Y74.801 E23.04293
G1 X105.352 Y74.801 E23.05848
G1 X114.249 Y83.699 E23.56180
G1 X113.860 Y83.699 E23.57735
G1 X104.963 Y74.801 E24.08066
G1 X104.574 Y74.801 E24.09621
G1 X113.472 Y83.699 E24.59953
G1 X113.083 Y83.699 E24.61508
G1 X104.185 Y74.801 E25.11839
G1 X103.797 Y74.801 E25.13394
G1 X112.694 Y83.699 E25.63726
G1 X112.305 Y83.699 E25.65281
G1 X103.408 Y74.801 E26.15612
G1 X103.019 Y74.801 E26.17167
G1 X111.916 Y83.699 E26.67499
G1 X111.528 Y83.699 E26.69054
G1 X102.630 Y74.801 E27.19385
G1 X102.242 Y74.801 E27.20940
G1 X111.139 Y83.699 E27.71271
G1 X110.750 Y83.699 E27.72826
G1 X101.853 Y74.801 E28.23158
G1 X101.464 Y74.801 E28.24713
G1 X110.361 Y83.699 E28.75044
G1 X109.973 Y83.699 E28.76599
G1 X101.075 Y74.801 E29.26931
G1 X100.687 Y74.801 E29.28486
G1 X109.584 Y83.699 E29.78817
G1 X109.336 Y83.840 E29.79958
G1 X100.439 Y74.942 E30.30289
G1 X100.439 Y75.331 E30.31844
G1 X109.336 Y84.228 E30.82175
G1 X109.336 Y84.617 E30.83730
G1 X100.439 Y75.720 E31.34062
G1 X100.439 Y76.109 E31.35617
G1 X109.336 Y85.006 E31.85948
G1 X109.140 Y85.199 E31.87048
G1 X100.243 Y76.301 E32.37379
G1 X99.854 Y76.301 E32.38934
G1 X108.751 Y85.199 E32.89266
G1 X108.363 Y85.199 E32.90821
G1 X99.465 Y76.301 E33.41152
G1 X99.077 Y76.301 E33.42707
G1 X107.974 Y85.199 E33.93039
G1 X107.585 Y85.199 E33.94594
G1 X98.688 Y76.301 E34.44925
G1 X98.299 Y76.301 E34.46480
G1 X107.196 Y85.199 E34.96812
G1 X106.808 Y85.199 E34.98367
G1 X97.910 Y76.301 E35.48698
G1 X97.522 Y76.301 E35.50253
G1 X106.419 Y85.199 E36.00584
G1 X106.030 Y85.199 E36.02139
G1 X97.133 Y76.301 E36.52471
G1 X96.744 Y76.301 E36.54026
G1 X105.641 Y85.199 E37.04357
G1 X105.253 Y85.199 E37.05912
G1 X96.355 Y76.301 E37.56244
G1 X95.967 Y76.301 E37.57799
G1 X104.864 Y85.199 E38.08130
G1 X104.475 Y85.199 E38.09685
G1 X95.578 Y76.301 E38.60017
G1 X95.189 Y76.301 E38.61572
G1 X104.086 Y85.199 E39.11903
G1 X103.698 Y85.199 E39.13458
G1 X94.800 Y76.301 E39.63790
G1 X94.412 Y76.301 E39.65345
G1 X103.309 Y85.199 E40.15676
G1 X102.920 Y85.199 E40.17231
G1 X94.023 Y76.301 E40.67562
G1 X93.634 Y76.301 E40.69117
G1 X102.531 Y85.199 E41.19449
G1 X100.588 Y85.199 F7800.000
M106 S255
M106 S255
G1 X100.439 Y85.050 F3600.000 E41.20291
G1 X100.439 Y84.661 E41.21846
G1 X100.976 Y85.199 E41.24887
G1 X101.365 Y85.199 E41.26442
G1 X100.439 Y84.272 E41.31683
G1 X100.439 Y83.884 E41.33238
G1 X101.754 Y85.199 E41.40678
