; generated by Slic3r 0.9.9 on 2014-04-12 at 17:53:28

; layer_height = 0.2
; perimeters = 3
; top_solid_layers = 3
; bottom_solid_layers = 3
; fill_density = 0.2
; perimeter_speed = 36
; infill_speed = 60
; travel_speed = 130
; nozzle_diameter = 0.35
; filament_diameter = 1.75
; extrusion_multiplier = 1
; perimeters extrusion width = 0.52mm
; infill extrusion width = 0.52mm
; solid infill extrusion width = 0.52mm
; top infill extrusion width = 0.52mm
; support material extrusion width = 0.52mm
; first layer extrusion width = 0.60mm

G21 ; set units to millimeters
M107 ; disable fan
M190 S100 ; wait for bed temperature to be reached
M104 S225 ; set temperature
G28 ; home all axes
G1 Z5 F5000 ; lift nozzle
M109 S225 ; wait for temperature to be reached
G90 ; use absolute coordinates
G92 E0 ; reset extrusion distance
M82 ; use absolute distances for extrusion
G1 F1800.000 E-1.00000 ; retract
G92 E0 ; reset extrusion distance
G1 Z0.300 F7800.000 ; move to next layer (0)
G1 X71.990 Y72.720 ; move to first skirt point
G1 F1800.000 E1.00000 ; compensate retraction
G1 X72.290 Y72.460 F756.000 E1.02705 ; skirt
G1 X72.610 Y72.230 E1.05391 ; skirt
G1 X72.960 Y72.030 E1.08138 ; skirt
G1 X73.140 Y71.950 E1.09480 ; skirt
G1 X73.520 Y71.820 E1.12217 ; skirt
G1 X73.910 Y71.730 E1.14944 ; skirt
G1 X74.500 Y71.680 E1.18979 ; skirt
G1 X125.500 Y71.680 E4.66512 ; skirt
G1 X126.090 Y71.730 E4.70547 ; skirt
G1 X126.480 Y71.820 E4.73274 ; skirt
G1 X126.860 Y71.950 E4.76011 ; skirt
G1 X127.040 Y72.030 E4.77353 ; skirt
G1 X127.390 Y72.230 E4.80100 ; skirt
G1 X127.710 Y72.460 E4.82786 ; skirt
G1 X128.010 Y72.720 E4.85491 ; skirt
G1 X128.270 Y73.020 E4.88196 ; skirt
G1 X128.500 Y73.340 E4.90882 ; skirt
G1 X128.700 Y73.690 E4.93629 ; skirt
G1 X128.780 Y73.870 E4.94971 ; skirt
G1 X128.910 Y74.250 E4.97708 ; skirt
G1 X129.000 Y74.640 E5.00435 ; skirt
G1 X129.050 Y75.230 E5.04470 ; skirt
G1 X129.050 Y125.500 E8.47029 ; skirt
G1 X129.000 Y126.090 E8.51063 ; skirt
G1 X128.910 Y126.480 E8.53791 ; skirt
G1 X128.780 Y126.860 E8.56528 ; skirt
G1 X128.700 Y127.040 E8.57870 ; skirt
G1 X128.500 Y127.390 E8.60617 ; skirt
G1 X128.270 Y127.710 E8.63302 ; skirt
G1 X128.010 Y128.010 E8.66008 ; skirt
G1 X127.710 Y128.270 E8.68713 ; skirt
G1 X127.390 Y128.500 E8.71398 ; skirt
G1 X127.040 Y128.700 E8.74145 ; skirt
G1 X126.860 Y128.780 E8.75487 ; skirt
G1 X126.480 Y128.910 E8.78224 ; skirt
G1 X126.090 Y129.000 E8.80952 ; skirt
G1 X125.500 Y129.050 E8.84987 ; skirt
G1 X74.500 Y129.050 E12.32520 ; skirt
G1 X73.910 Y129.000 E12.36554 ; skirt
G1 X73.520 Y128.910 E12.39282 ; skirt
G1 X73.140 Y128.780 E12.42019 ; skirt
G1 X72.960 Y128.700 E12.43361 ; skirt
G1 X72.610 Y128.500 E12.46108 ; skirt
G1 X72.290 Y128.270 E12.48793 ; skirt
G1 X71.990 Y128.010 E12.51499 ; skirt
G1 X71.730 Y127.710 E12.54204 ; skirt
G1 X71.500 Y127.390 E12.56889 ; skirt
G1 X71.300 Y127.040 E12.59636 ; skirt
G1 X71.220 Y126.860 E12.60978 ; skirt
G1 X71.090 Y126.480 E12.63715 ; skirt
G1 X71.000 Y126.090 E12.66443 ; skirt
G1 X70.950 Y125.500 E12.70478 ; skirt
G1 X70.950 Y75.230 E16.13036 ; skirt
G1 X71.000 Y74.640 E16.17071 ; skirt
G1 X71.090 Y74.250 E16.19798 ; skirt
G1 X71.220 Y73.870 E16.22535 ; skirt
G1 X71.300 Y73.690 E16.23878 ; skirt
G1 X71.500 Y73.340 E16.26624 ; skirt
G1 X71.730 Y73.020 E16.29310 ; skirt
G1 X71.936 Y72.782 E16.31457 ; skirt
G1 X73.261 Y74.116 F7800.000 ; move to first brim point
G1 X126.139 Y74.116 F756.000 E19.91793 ; brim
G1 X126.620 Y74.596 E19.96420 ; brim
G1 X126.620 Y124.380 E23.35667 ; brim
G1 X126.739 Y124.380 E23.36484 ; brim
G1 X127.220 Y124.861 E23.41111 ; brim
G1 X127.220 Y126.139 E23.49826 ; brim
G1 X126.739 Y126.620 E23.54452 ; brim
G1 X73.861 Y126.620 E27.14789 ; brim
G1 X73.380 Y126.139 E27.19415 ; brim
G1 X73.380 Y76.355 E30.58662 ; brim
G1 X73.261 Y76.355 E30.59480 ; brim
G1 X72.780 Y75.875 E30.64106 ; brim
G1 X72.780 Y74.596 E30.72821 ; brim
G1 X73.203 Y74.174 E30.76889 ; brim
G1 X73.487 Y74.663 F7800.000 ; move to first brim point
G1 X125.913 Y74.663 F756.000 E34.34141 ; brim
G1 X126.073 Y74.823 E34.35683 ; brim
G1 X126.073 Y76.742 E34.48760 ; brim
G1 X125.940 Y76.875 E34.50044 ; brim
G1 X126.073 Y77.008 E34.51327 ; brim
G1 X126.073 Y78.927 E34.64404 ; brim
G1 X125.940 Y79.060 E34.65688 ; brim
G1 X126.073 Y79.193 E34.66972 ; brim
G1 X126.073 Y81.112 E34.80048 ; brim
G1 X125.940 Y81.246 E34.81332 ; brim
G1 X126.073 Y81.379 E34.82616 ; brim
G1 X126.073 Y83.298 E34.95692 ; brim
G1 X125.940 Y83.431 E34.96976 ; brim
G1 X126.073 Y83.564 E34.98260 ; brim
G1 X126.073 Y85.483 E35.11336 ; brim
G1 X125.940 Y85.616 E35.12620 ; brim
G1 X126.073 Y85.750 E35.13904 ; brim
G1 X126.073 Y87.669 E35.26980 ; brim
G1 X125.940 Y87.802 E35.28264 ; brim
G1 X126.073 Y87.935 E35.29548 ; brim
G1 X126.073 Y89.854 E35.42624 ; brim
G1 X125.940 Y89.987 E35.43908 ; brim
G1 X126.073 Y90.120 E35.45192 ; brim
G1 X126.073 Y92.039 E35.58269 ; brim
G1 X125.940 Y92.173 E35.59552 ; brim
G1 X126.073 Y92.306 E35.60836 ; brim
G1 X126.073 Y94.225 E35.73913 ; brim
G1 X125.940 Y94.358 E35.75196 ; brim
G1 X126.073 Y94.491 E35.76480 ; brim
G1 X126.073 Y96.410 E35.89557 ; brim
G1 X125.940 Y96.543 E35.90840 ; brim
G1 X126.073 Y96.677 E35.92124 ; brim
G1 X126.073 Y98.596 E36.05201 ; brim
G1 X125.940 Y98.729 E36.06484 ; brim
G1 X126.073 Y98.862 E36.07768 ; brim
G1 X126.073 Y100.781 E36.20845 ; brim
G1 X125.940 Y100.914 E36.22128 ; brim
G1 X126.073 Y101.047 E36.23412 ; brim
G1 X126.073 Y102.966 E36.36489 ; brim
G1 X125.940 Y103.100 E36.37772 ; brim
G1 X126.073 Y103.233 E36.39056 ; brim
G1 X126.073 Y105.152 E36.52133 ; brim
G1 X125.940 Y105.285 E36.53416 ; brim
G1 X126.073 Y105.418 E36.54700 ; brim
G1 X126.073 Y107.337 E36.67777 ; brim
G1 X125.940 Y107.470 E36.69060 ; brim
G1 X126.073 Y107.604 E36.70344 ; brim
G1 X126.073 Y109.523 E36.83421 ; brim
G1 X125.940 Y109.656 E36.84704 ; brim
G1 X126.073 Y109.789 E36.85988 ; brim
G1 X126.073 Y111.708 E36.99065 ; brim
G1 X125.940 Y111.841 E37.00349 ; brim
G1 X126.073 Y111.974 E37.01632 ; brim
G1 X126.073 Y113.893 E37.14709 ; brim
G1 X125.940 Y114.027 E37.15993 ; brim
G1 X126.073 Y114.160 E37.17276 ; brim
G1 X126.073 Y116.079 E37.30353 ; brim
G1 X125.940 Y116.212 E37.31637 ; brim
G1 X126.073 Y116.345 E37.32920 ; brim
G1 X126.073 Y118.264 E37.45997 ; brim
G1 X125.940 Y118.397 E37.47281 ; brim
G1 X126.073 Y118.531 E37.48564 ; brim
G1 X126.073 Y120.450 E37.61641 ; brim
G1 X125.940 Y120.583 E37.62925 ; brim
G1 X126.073 Y120.716 E37.64208 ; brim
G1 X126.073 Y122.635 E37.77285 ; brim
G1 X125.940 Y122.768 E37.78569 ; brim
G1 X126.073 Y122.901 E37.79852 ; brim
G1 X126.073 Y124.820 E37.92929 ; brim
G1 X125.967 Y124.927 E37.93954 ; brim
G1 X126.513 Y124.927 E37.97677 ; brim
G1 X126.673 Y125.087 E37.99219 ; brim
G1 X126.673 Y125.913 E38.04850 ; brim
G1 X126.513 Y126.073 E38.06392 ; brim
G1 X74.087 Y126.073 E41.63645 ; brim
G1 X73.927 Y125.913 E41.65187 ; brim
G1 X73.927 Y123.994 E41.78264 ; brim
G1 X74.060 Y123.861 E41.79547 ; brim
G1 X73.927 Y123.728 E41.80831 ; brim
G1 X73.927 Y121.809 E41.93908 ; brim
G1 X74.060 Y121.676 E41.95191 ; brim
G1 X73.927 Y121.542 E41.96475 ; brim
G1 X73.927 Y119.623 E42.09552 ; brim
G1 X74.060 Y119.490 E42.10835 ; brim
G1 X73.927 Y119.357 E42.12119 ; brim
G1 X73.927 Y117.438 E42.25196 ; brim
G1 X74.060 Y117.305 E42.26479 ; brim
G1 X73.927 Y117.172 E42.27763 ; brim
G1 X73.927 Y115.253 E42.40840 ; brim
G1 X74.060 Y115.119 E42.42123 ; brim
G1 X73.927 Y114.986 E42.43407 ; brim
G1 X73.927 Y113.067 E42.56484 ; brim
G1 X74.060 Y112.934 E42.57767 ; brim
G1 X73.927 Y112.801 E42.59051 ; brim
G1 X73.927 Y110.882 E42.72128 ; brim
G1 X74.060 Y110.749 E42.73411 ; brim
G1 X73.927 Y110.615 E42.74695 ; brim
G1 X73.927 Y108.696 E42.87772 ; brim
G1 X74.060 Y108.563 E42.89055 ; brim
G1 X73.927 Y108.430 E42.90339 ; brim
G1 X73.927 Y106.511 E43.03416 ; brim
G1 X74.060 Y106.378 E43.04699 ; brim
G1 X73.927 Y106.245 E43.05983 ; brim
G1 X73.927 Y104.326 E43.19060 ; brim
G1 X74.060 Y104.192 E43.20344 ; brim
G1 X73.927 Y104.059 E43.21627 ; brim
G1 X73.927 Y102.140 E43.34704 ; brim
G1 X74.060 Y102.007 E43.35988 ; brim
G1 X73.927 Y101.874 E43.37271 ; brim
G1 X73.927 Y99.955 E43.50348 ; brim
G1 X74.060 Y99.822 E43.51632 ; brim
G1 X73.927 Y99.688 E43.52915 ; brim
G1 X73.927 Y97.769 E43.65992 ; brim
G1 X74.060 Y97.636 E43.67276 ; brim
G1 X73.927 Y97.503 E43.68559 ; brim
G1 X73.927 Y95.584 E43.81636 ; brim
G1 X74.060 Y95.451 E43.82920 ; brim
G1 X73.927 Y95.318 E43.84203 ; brim
G1 X73.927 Y93.399 E43.97280 ; brim
G1 X74.060 Y93.265 E43.98564 ; brim
G1 X73.927 Y93.132 E43.99847 ; brim
G1 X73.927 Y91.213 E44.12924 ; brim
G1 X74.060 Y91.080 E44.14208 ; brim
G1 X73.927 Y90.947 E44.15491 ; brim
G1 X73.927 Y89.028 E44.28568 ; brim
G1 X74.060 Y88.895 E44.29852 ; brim
G1 X73.927 Y88.761 E44.31135 ; brim
G1 X73.927 Y86.842 E44.44212 ; brim
G1 X74.060 Y86.709 E44.45496 ; brim
G1 X73.927 Y86.576 E44.46779 ; brim
G1 X73.927 Y84.657 E44.59856 ; brim
G1 X74.060 Y84.524 E44.61140 ; brim
G1 X73.927 Y84.391 E44.62424 ; brim
G1 X73.927 Y82.472 E44.75500 ; brim
G1 X74.060 Y82.338 E44.76784 ; brim
G1 X73.927 Y82.205 E44.78068 ; brim
G1 X73.927 Y80.286 E44.91144 ; brim
G1 X74.060 Y80.153 E44.92428 ; brim
G1 X73.927 Y80.020 E44.93712 ; brim
G1 X73.927 Y78.101 E45.06788 ; brim
G1 X74.060 Y77.968 E45.08072 ; brim
G1 X73.927 Y77.834 E45.09356 ; brim
G1 X73.927 Y75.915 E45.22432 ; brim
G1 X74.033 Y75.809 E45.23458 ; brim
G1 X73.487 Y75.809 E45.27181 ; brim
G1 X73.327 Y75.649 E45.28723 ; brim
G1 X73.327 Y74.823 E45.34353 ; brim
G1 X73.429 Y74.721 E45.35337 ; brim
G1 X74.500 Y75.236 F7800.000 ; move to first support material point
G1 X125.500 Y75.236 F1260.000 E48.82870 ; support material
G1 X125.500 Y76.329 E48.90316 ; support material
G1 X74.500 Y76.329 E52.37849 ; support material
G1 X74.500 Y77.421 E52.45295 ; support material
G1 X125.500 Y77.421 E55.92828 ; support material
G1 X125.500 Y78.514 E56.00274 ; support material
G1 X74.500 Y78.514 E59.47807 ; support material
G1 X74.500 Y79.607 E59.55253 ; support material
G1 X125.500 Y79.607 E63.02786 ; support material
G1 X125.500 Y80.699 E63.10232 ; support material
G1 X74.500 Y80.699 E66.57765 ; support material
G1 X74.500 Y81.792 E66.65211 ; support material
G1 X125.500 Y81.792 E70.12744 ; support material
G1 X125.500 Y82.885 E70.20190 ; support material
G1 X74.500 Y82.885 E73.67723 ; support material
G1 X74.500 Y83.977 E73.75170 ; support material
G1 X125.500 Y83.977 E77.22702 ; support material
G1 X125.500 Y85.070 E77.30149 ; support material
G1 X74.500 Y85.070 E80.77682 ; support material
G1 X74.500 Y86.163 E80.85128 ; support material
G1 X125.500 Y86.163 E84.32661 ; support material
G1 X125.500 Y87.256 E84.40107 ; support material
G1 X74.500 Y87.256 E87.87640 ; support material
G1 X74.500 Y88.348 E87.95086 ; support material
G1 X125.500 Y88.348 E91.42619 ; support material
G1 X125.500 Y89.441 E91.50065 ; support material
G1 X74.500 Y89.441 E94.97598 ; support material
G1 X74.500 Y90.534 E95.05044 ; support material
G1 X125.500 Y90.534 E98.52577 ; support material
G1 X125.500 Y91.626 E98.60023 ; support material
G1 X74.500 Y91.626 E102.07556 ; support material
G1 X74.500 Y92.719 E102.15002 ; support material
G1 X125.500 Y92.719 E105.62535 ; support material
G1 X125.500 Y93.812 E105.69981 ; support material
G1 X74.500 Y93.812 E109.17514 ; support material
G1 X74.500 Y94.904 E109.24960 ; support material
G1 X125.500 Y94.904 E112.72493 ; support material
G1 X125.500 Y95.997 E112.79939 ; support material
G1 X74.500 Y95.997 E116.27472 ; support material
G1 X74.500 Y97.090 E116.34918 ; support material
G1 X125.500 Y97.090 E119.82451 ; support material
G1 X125.500 Y98.183 E119.89897 ; support material
G1 X74.500 Y98.183 E123.37430 ; support material
G1 X74.500 Y99.275 E123.44876 ; support material
G1 X125.500 Y99.275 E126.92409 ; support material
G1 X125.500 Y100.368 E126.99855 ; support material
G1 X74.500 Y100.368 E130.47388 ; support material
G1 X74.500 Y101.461 E130.54834 ; support material
G1 X125.500 Y101.461 E134.02367 ; support material
G1 X125.500 Y102.553 E134.09813 ; support material
G1 X74.500 Y102.553 E137.57346 ; support material
G1 X74.500 Y103.646 E137.64792 ; support material
G1 X125.500 Y103.646 E141.12325 ; support material
G1 X125.500 Y104.739 E141.19771 ; support material
G1 X74.500 Y104.739 E144.67304 ; support material
G1 X74.500 Y105.831 E144.74750 ; support material
G1 X125.500 Y105.831 E148.22283 ; support material
G1 X125.500 Y106.924 E148.29729 ; support material
G1 X74.500 Y106.924 E151.77262 ; support material
G1 X74.500 Y108.017 E151.84709 ; support material
G1 X125.500 Y108.017 E155.32242 ; support material
G1 X125.500 Y109.110 E155.39688 ; support material
G1 X74.500 Y109.110 E158.87221 ; support material
G1 X74.500 Y110.202 E158.94667 ; support material
G1 X125.500 Y110.202 E162.42200 ; support material
G1 X125.500 Y111.295 E162.49646 ; support material
G1 X74.500 Y111.295 E165.97179 ; support material
G1 X74.500 Y112.388 E166.04625 ; support material
G1 X125.500 Y112.388 E169.52158 ; support material
G1 X125.500 Y113.480 E169.59604 ; support material
G1 X74.500 Y113.480 E173.07137 ; support material
G1 X74.500 Y114.573 E173.14583 ; support material
G1 X125.500 Y114.573 E176.62116 ; support material
G1 X125.500 Y115.666 E176.69562 ; support material
G1 X74.500 Y115.666 E180.17095 ; support material
G1 X74.500 Y116.758 E180.24541 ; support material
G1 X125.500 Y116.758 E183.72074 ; support material
G1 X125.500 Y117.851 E183.79520 ; support material
G1 X74.500 Y117.851 E187.27053 ; support material
G1 X74.500 Y118.944 E187.34499 ; support material
G1 X125.500 Y118.944 E190.82032 ; support material
G1 X125.500 Y120.037 E190.89478 ; support material
G1 X74.500 Y120.037 E194.37011 ; support material
G1 X74.500 Y121.129 E194.44457 ; support material
G1 X125.500 Y121.129 E197.91990 ; support material
G1 X125.500 Y122.222 E197.99436 ; support material
G1 X74.500 Y122.222 E201.46969 ; support material
G1 X74.500 Y123.315 E201.54415 ; support material
G1 X125.500 Y123.315 E205.01948 ; support material
G1 X125.500 Y124.407 E205.09394 ; support material
G1 X74.500 Y124.407 E208.56927 ; support material
G1 X74.500 Y125.500 E208.64373 ; support material
G1 X125.500 Y125.500 E212.11906 ; support material
G1 F1800.000 E211.11906 ; retract
G92 E0 ; reset extrusion distance
G1 Z0.500 F7800.000 ; move to next layer (1)
G1 X124.297 Y124.297 ; move to first perimeter point
G1 F1800.000 E1.00000 ; compensate retraction
G1 X75.703 Y124.297 F2160.000 E2.94379 ; perimeter
G1 X75.703 Y75.703 E4.88758 ; perimeter
G1 X124.297 Y75.703 E6.83137 ; perimeter
G1 X124.297 Y124.225 E8.77227 ; perimeter
G1 X124.778 Y124.778 F7800.000 ; move to first perimeter point
G1 X75.222 Y124.778 F2160.000 E10.75454 ; perimeter
G1 X75.222 Y75.222 E12.73681 ; perimeter
G1 X124.778 Y75.222 E14.71909 ; perimeter
G1 X124.778 Y124.706 E16.69847 ; perimeter
G1 X125.259 Y125.259 F7800.000 ; move to first perimeter point
G1 X74.741 Y125.259 F1512.000 E18.71923 ; perimeter
G1 X74.741 Y74.741 E20.73999 ; perimeter
G1 X125.259 Y74.741 E22.76075 ; perimeter
G1 X125.259 Y125.187 E24.77862 ; perimeter
G1 X124.843 Y125.019 F7800.000 ; move inwards before travel
G1 X123.949 Y123.949 ; move to first fill point
M106 S255 ; enable fan
G1 X123.560 Y123.949 F3600.000 E24.79418 ; fill
G1 X123.949 Y123.560 E24.81618 ; fill
G1 X123.949 Y123.171 E24.83173 ; fill
G1 X123.171 Y123.949 E24.87572 ; fill
G1 X122.782 Y123.949 E24.89127 ; fill
G1 X123.949 Y122.782 E24.95726 ; fill
G1 X123.949 Y122.394 E24.97281 ; fill
G1 X122.394 Y123.949 E25.06078 ; fill
G1 X122.005 Y123.949 E25.07633 ; fill
G1 X123.949 Y122.005 E25.18630 ; fill
G1 X123.949 Y121.616 E25.20185 ; fill
G1 X121.616 Y123.949 E25.33381 ; fill
G1 X121.227 Y123.949 E25.34936 ; fill
G1 X123.949 Y121.227 E25.50331 ; fill
G1 X123.949 Y120.838 E25.51886 ; fill
G1 X120.838 Y123.949 E25.69480 ; fill
G1 X120.450 Y123.949 E25.71035 ; fill
G1 X123.949 Y120.450 E25.90828 ; fill
G1 X123.949 Y120.061 E25.92383 ; fill
G1 X120.061 Y123.949 E26.14375 ; fill
G1 X119.672 Y123.949 E26.15930 ; fill
G1 X123.949 Y119.672 E26.40122 ; fill
