; generated by Slic3r 0.9.9 on 2014-04-09 at 11:52:13

; layer_height = 0.2
; perimeters = 3
; top_solid_layers = 3
; bottom_solid_layers = 3
; fill_density = 0.2
; perimeter_speed = 36
; infill_speed = 60
; travel_speed = 130
; nozzle_diameter = 0.35
; filament_diameter = 1.75
; extrusion_multiplier = 1
; perimeters extrusion width = 0.52mm
; infill extrusion width = 0.52mm
; solid infill extrusion width = 0.52mm
; top infill extrusion width = 0.52mm
; support material extrusion width = 0.52mm
; first layer extrusion width = 0.60mm

G21 ; set units to millimeters
M107 ; disable fan
M190 S95 ; wait for bed temperature to be reached
M104 S225 ; set temperature
G28 ; home all axes
G1 Z5 F5000 ; lift nozzle
M109 S225 ; wait for temperature to be reached
G90 ; use absolute coordinates
G92 E0 ; reset extrusion distance
M82 ; use absolute distances for extrusion
G1 F1800.000 E-1.00000 ; retract
G92 E0 ; reset extrusion distance
G1 Z0.300 F7800.000 ; move to next layer (0)
G1 X68.659 Y39.214 ; move to first skirt point
G1 F1800.000 E1.00000 ; compensate retraction
G1 X68.969 Y38.714 F756.000 E1.04009 ; skirt
G1 X69.219 Y38.414 E1.06670 ; skirt
G1 X69.649 Y38.014 E1.10672 ; skirt
G1 X69.969 Y37.794 E1.13318 ; skirt
G1 X70.489 Y37.524 E1.17311 ; skirt
G1 X70.859 Y37.404 E1.19961 ; skirt
G1 X71.249 Y37.314 E1.22689 ; skirt
G1 X71.829 Y37.264 E1.26656 ; skirt
G1 X127.639 Y37.264 E5.06966 ; skirt
G1 X128.239 Y37.314 E5.11069 ; skirt
G1 X128.439 Y37.354 E5.12459 ; skirt
G1 X128.629 Y37.404 E5.13797 ; skirt
G1 X129.009 Y37.544 E5.16557 ; skirt
G1 X129.369 Y37.714 E5.19270 ; skirt
G1 X129.709 Y37.934 E5.22030 ; skirt
G1 X130.019 Y38.184 E5.24743 ; skirt
G1 X130.299 Y38.464 E5.27442 ; skirt
G1 X130.659 Y38.954 E5.31585 ; skirt
G1 X130.929 Y39.484 E5.35638 ; skirt
G1 X131.109 Y40.064 E5.39777 ; skirt
G1 X131.169 Y40.454 E5.42466 ; skirt
G1 X131.299 Y41.844 E5.51979 ; skirt
G1 X131.859 Y75.524 E7.81519 ; skirt
G1 X131.869 Y130.224 E11.54265 ; skirt
G1 X131.829 Y130.724 E11.57683 ; skirt
G1 X131.769 Y131.044 E11.59901 ; skirt
G1 X131.459 Y132.324 E11.68876 ; skirt
G1 X131.399 Y132.514 E11.70234 ; skirt
G1 X131.239 Y132.874 E11.72918 ; skirt
G1 X131.049 Y133.224 E11.75632 ; skirt
G1 X130.689 Y133.694 E11.79666 ; skirt
G1 X130.409 Y133.974 E11.82365 ; skirt
G1 X129.929 Y134.324 E11.86413 ; skirt
G1 X129.409 Y134.594 E11.90406 ; skirt
G1 X128.839 Y134.774 E11.94479 ; skirt
G1 X128.649 Y134.814 E11.95802 ; skirt
G1 X128.259 Y134.854 E11.98474 ; skirt
G1 X127.579 Y134.864 E12.03108 ; skirt
G1 X75.659 Y133.774 E15.56988 ; skirt
G1 X75.259 Y133.744 E15.59721 ; skirt
G1 X74.689 Y133.614 E15.63705 ; skirt
G1 X74.499 Y133.554 E15.65063 ; skirt
G1 X73.969 Y133.304 E15.69056 ; skirt
G1 X73.479 Y132.964 E15.73120 ; skirt
G1 X73.189 Y132.704 E15.75775 ; skirt
G1 X72.929 Y132.404 E15.78480 ; skirt
G1 X72.709 Y132.074 E15.81182 ; skirt
G1 X72.519 Y131.734 E15.83837 ; skirt
G1 X72.369 Y131.364 E15.86557 ; skirt
G1 X72.309 Y131.184 E15.87850 ; skirt
G1 X72.199 Y130.604 E15.91873 ; skirt
G1 X68.139 Y92.544 E18.52699 ; skirt
G1 X68.119 Y92.164 E18.55292 ; skirt
G1 X68.129 Y41.904 E21.97783 ; skirt
G1 X68.169 Y41.424 E22.01065 ; skirt
G1 X68.349 Y40.134 E22.09941 ; skirt
G1 X68.439 Y39.754 E22.12602 ; skirt
G1 X68.626 Y39.289 E22.16017 ; skirt
G1 F1800.000 E21.16017 ; retract
G92 E0 ; reset extrusion distance
G1 X105.520 Y74.950 F7800.000 ; move to first brim point
G1 F1800.000 E1.00000 ; compensate retraction
G1 X106.000 Y74.470 F756.000 E1.04626 ; brim
G1 X128.951 Y74.470 E2.61023 ; brim
G1 X129.431 Y74.950 E2.65649 ; brim
G1 X129.440 Y129.294 E6.35969 ; brim
G1 X129.804 Y129.941 E6.41027 ; brim
G1 X129.517 Y130.413 E6.44789 ; brim
G1 X129.782 Y130.678 E6.47344 ; brim
G1 X129.782 Y131.957 E6.56059 ; brim
G1 X129.302 Y132.437 E6.60686 ; brim
G1 X126.643 Y132.437 E6.78807 ; brim
G1 X126.173 Y131.601 E6.85341 ; brim
G1 X126.329 Y131.344 E6.87389 ; brim
G1 X75.098 Y131.344 E10.36496 ; brim
G1 X74.618 Y130.864 E10.41123 ; brim
G1 X74.619 Y122.603 E10.97419 ; brim
G1 X74.499 Y122.603 E10.98236 ; brim
G1 X74.019 Y122.123 E11.02862 ; brim
G1 X74.019 Y119.751 E11.19023 ; brim
G1 X74.499 Y119.271 E11.23650 ; brim
G1 X74.619 Y119.271 E11.24468 ; brim
G1 X74.620 Y111.676 E11.76225 ; brim
G1 X74.500 Y111.676 E11.77041 ; brim
G1 X74.020 Y111.196 E11.81668 ; brim
G1 X74.020 Y109.917 E11.90383 ; brim
G1 X74.500 Y109.437 E11.95009 ; brim
G1 X105.516 Y109.437 E14.06364 ; brim
G1 X105.516 Y108.824 E14.10538 ; brim
G1 X105.996 Y108.344 E14.15165 ; brim
G1 X106.116 Y108.344 E14.15983 ; brim
G1 X106.120 Y76.709 E16.31553 ; brim
G1 X106.000 Y76.709 E16.32369 ; brim
G1 X105.520 Y76.229 E16.36996 ; brim
G1 X105.520 Y75.032 E16.45152 ; brim
G1 F1800.000 E15.45152 ; retract
G92 E0 ; reset extrusion distance
G1 X83.598 Y120.417 F7800.000 ; move to first brim point
G1 F1800.000 E1.00000 ; compensate retraction
G1 X83.315 Y121.456 F756.000 E1.07338 ; brim
G1 X82.734 Y121.456 E1.11296 ; brim
G1 X82.458 Y120.417 E1.18622 ; brim
G1 X83.516 Y120.417 E1.25827 ; brim
G1 F1800.000 E0.25827 ; retract
G92 E0 ; reset extrusion distance
G1 X117.458 Y120.417 F7800.000 ; move to first brim point
G1 F1800.000 E1.00000 ; compensate retraction
G1 X118.598 Y120.417 F756.000 E1.07764 ; brim
G1 X118.315 Y121.456 E1.15103 ; brim
G1 X117.734 Y121.456 E1.19061 ; brim
G1 X117.479 Y120.497 E1.25827 ; brim
G1 F1800.000 E0.25827 ; retract
G92 E0 ; reset extrusion distance
G1 X101.030 Y120.364 F7800.000 ; move to first brim point
G1 F1800.000 E1.00000 ; compensate retraction
G1 X100.728 Y120.364 F756.000 E1.02056 ; brim
G1 X100.525 Y120.567 E1.04013 ; brim
G1 X100.322 Y120.364 E1.05969 ; brim
G1 X100.035 Y120.364 E1.07925 ; brim
G1 X100.508 Y119.325 E1.15704 ; brim
G1 X100.572 Y119.325 E1.16141 ; brim
G1 X100.997 Y120.289 E1.23320 ; brim
G1 F1800.000 E0.23320 ; retract
G92 E0 ; reset extrusion distance
G1 X93.750 Y94.385 F7800.000 ; move to first brim point
G1 F1800.000 E1.00000 ; compensate retraction
G1 X71.515 Y94.385 F756.000 E2.51520 ; brim
G1 X71.080 Y94.062 E2.55212 ; brim
G1 X70.369 Y91.716 E2.71919 ; brim
G1 X70.558 Y91.461 E2.74078 ; brim
G1 X70.559 Y87.829 E2.98830 ; brim
G1 X70.439 Y87.829 E2.99646 ; brim
G1 X69.959 Y87.349 E3.04272 ; brim
G1 X69.959 Y86.070 E3.12987 ; brim
G1 X70.439 Y85.590 E3.17614 ; brim
G1 X70.559 Y85.590 E3.18433 ; brim
G1 X70.559 Y84.551 E3.25513 ; brim
G1 X70.440 Y84.551 E3.26329 ; brim
G1 X69.959 Y84.071 E3.30955 ; brim
G1 X69.959 Y82.792 E3.39670 ; brim
G1 X70.440 Y82.312 E3.44297 ; brim
G1 X70.560 Y82.312 E3.45115 ; brim
G1 X70.562 Y70.346 E4.26656 ; brim
G1 X70.442 Y70.346 E4.27472 ; brim
G1 X69.962 Y69.866 E4.32099 ; brim
G1 X69.962 Y68.587 E4.40814 ; brim
G1 X70.442 Y68.107 E4.45440 ; brim
G1 X70.562 Y68.107 E4.46259 ; brim
G1 X70.563 Y67.068 E4.53339 ; brim
G1 X70.443 Y67.068 E4.54155 ; brim
G1 X69.963 Y66.588 E4.58781 ; brim
G1 X69.963 Y65.309 E4.67496 ; brim
G1 X70.443 Y64.829 E4.72123 ; brim
G1 X70.563 Y64.829 E4.72942 ; brim
G1 X70.565 Y52.863 E5.54483 ; brim
G1 X70.446 Y52.863 E5.55298 ; brim
G1 X69.966 Y52.383 E5.59925 ; brim
G1 X69.966 Y51.104 E5.68640 ; brim
G1 X70.446 Y50.624 E5.73266 ; brim
G1 X70.566 Y50.624 E5.74085 ; brim
G1 X70.566 Y49.585 E5.81165 ; brim
G1 X70.446 Y49.585 E5.81981 ; brim
G1 X69.966 Y49.105 E5.86608 ; brim
G1 X69.966 Y47.826 E5.95323 ; brim
G1 X70.446 Y47.346 E5.99949 ; brim
G1 X70.567 Y47.346 E6.00768 ; brim
G1 X70.568 Y41.904 E6.37845 ; brim
G1 X70.119 Y41.456 E6.42171 ; brim
G1 X70.119 Y40.177 E6.50886 ; brim
G1 X70.599 Y39.697 E6.55512 ; brim
G1 X128.229 Y39.697 E10.48223 ; brim
G1 X128.696 Y40.118 E10.52511 ; brim
G1 X128.945 Y42.486 E10.68739 ; brim
G1 X128.878 Y42.560 E10.69418 ; brim
G1 X128.878 Y59.841 E11.87176 ; brim
G1 X128.910 Y59.875 E11.87491 ; brim
G1 X128.791 Y62.245 E12.03667 ; brim
G1 X128.317 Y62.697 E12.08131 ; brim
G1 X93.883 Y62.697 E14.42777 ; brim
G1 X93.878 Y92.274 E16.44328 ; brim
G1 X94.230 Y92.626 E16.47720 ; brim
G1 X94.230 Y93.905 E16.56435 ; brim
G1 X93.808 Y94.327 E16.60503 ; brim
G1 F1800.000 E15.60503 ; retract
G92 E0 ; reset extrusion distance
G1 X82.916 Y86.683 F7800.000 ; move to first brim point
G1 F1800.000 E1.00000 ; compensate retraction
G1 X82.020 Y86.683 F756.000 E1.06110 ; brim
G1 X81.890 Y85.644 E1.13245 ; brim
G1 X83.045 Y85.644 E1.21118 ; brim
G1 X82.926 Y86.601 E1.27694 ; brim
G1 F1800.000 E0.27694 ; retract
G92 E0 ; reset extrusion distance
G1 X82.907 Y69.200 F7800.000 ; move to first brim point
G1 F1800.000 E1.00000 ; compensate retraction
G1 X82.029 Y69.200 F756.000 E1.05982 ; brim
G1 X81.887 Y68.160 E1.13128 ; brim
G1 X83.049 Y68.160 E1.21047 ; brim
G1 X82.918 Y69.118 E1.27634 ; brim
G1 F1800.000 E0.27634 ; retract
G92 E0 ; reset extrusion distance
G1 X82.898 Y51.716 F7800.000 ; move to first brim point
G1 F1800.000 E1.00000 ; compensate retraction
G1 X82.038 Y51.716 F756.000 E1.05854 ; brim
G1 X81.885 Y50.677 E1.13011 ; brim
G1 X83.051 Y50.677 E1.20954 ; brim
G1 X82.909 Y51.635 E1.27552 ; brim
G1 F1800.000 E0.27552 ; retract
G92 E0 ; reset extrusion distance
G1 X106.226 Y75.017 F7800.000 ; move to first brim point
G1 F1800.000 E1.00000 ; compensate retraction
G1 X128.725 Y75.017 F756.000 E2.53313 ; brim
G1 X128.885 Y75.177 E2.54855 ; brim
G1 X128.885 Y77.096 E2.67932 ; brim
G1 X128.752 Y77.229 E2.69215 ; brim
G1 X128.885 Y77.362 E2.70499 ; brim
G1 X128.885 Y79.281 E2.83576 ; brim
G1 X128.752 Y79.414 E2.84859 ; brim
G1 X128.886 Y79.547 E2.86143 ; brim
G1 X128.886 Y81.466 E2.99220 ; brim
G1 X128.753 Y81.600 E3.00503 ; brim
G1 X128.886 Y81.733 E3.01787 ; brim
G1 X128.886 Y83.652 E3.14864 ; brim
G1 X128.753 Y83.785 E3.16147 ; brim
G1 X128.886 Y83.918 E3.17431 ; brim
G1 X128.887 Y85.837 E3.30508 ; brim
G1 X128.753 Y85.970 E3.31791 ; brim
G1 X128.887 Y86.104 E3.33075 ; brim
G1 X128.887 Y88.023 E3.46152 ; brim
G1 X128.754 Y88.156 E3.47435 ; brim
G1 X128.887 Y88.289 E3.48719 ; brim
G1 X128.887 Y90.208 E3.61796 ; brim
G1 X128.754 Y90.341 E3.63080 ; brim
G1 X128.887 Y90.474 E3.64363 ; brim
G1 X128.888 Y92.393 E3.77440 ; brim
G1 X128.754 Y92.527 E3.78724 ; brim
G1 X128.888 Y92.660 E3.80007 ; brim
G1 X128.888 Y94.579 E3.93084 ; brim
G1 X128.755 Y94.712 E3.94368 ; brim
G1 X128.888 Y94.845 E3.95651 ; brim
G1 X128.888 Y96.764 E4.08728 ; brim
G1 X128.755 Y96.897 E4.10012 ; brim
G1 X128.888 Y97.031 E4.11295 ; brim
G1 X128.889 Y98.950 E4.24372 ; brim
G1 X128.756 Y99.083 E4.25656 ; brim
G1 X128.889 Y99.216 E4.26939 ; brim
G1 X128.889 Y101.135 E4.40016 ; brim
G1 X128.756 Y101.268 E4.41300 ; brim
G1 X128.889 Y101.401 E4.42583 ; brim
G1 X128.889 Y103.320 E4.55660 ; brim
G1 X128.756 Y103.454 E4.56944 ; brim
G1 X128.890 Y103.587 E4.58228 ; brim
G1 X128.890 Y105.506 E4.71304 ; brim
G1 X128.757 Y105.639 E4.72588 ; brim
G1 X128.890 Y105.772 E4.73872 ; brim
G1 X128.890 Y107.691 E4.86948 ; brim
G1 X128.757 Y107.824 E4.88232 ; brim
G1 X128.890 Y107.958 E4.89516 ; brim
G1 X128.891 Y109.877 E5.02592 ; brim
G1 X128.757 Y110.010 E5.03876 ; brim
G1 X128.891 Y110.143 E5.05160 ; brim
G1 X128.891 Y112.062 E5.18236 ; brim
G1 X128.758 Y112.195 E5.19520 ; brim
G1 X128.891 Y112.328 E5.20804 ; brim
G1 X128.891 Y114.247 E5.33880 ; brim
G1 X128.758 Y114.381 E5.35164 ; brim
G1 X128.891 Y114.514 E5.36448 ; brim
G1 X128.892 Y116.433 E5.49525 ; brim
G1 X128.758 Y116.566 E5.50808 ; brim
G1 X128.892 Y116.699 E5.52092 ; brim
G1 X128.892 Y118.618 E5.65169 ; brim
G1 X128.759 Y118.751 E5.66452 ; brim
G1 X128.892 Y118.885 E5.67736 ; brim
G1 X128.892 Y120.804 E5.80813 ; brim
G1 X128.759 Y120.937 E5.82096 ; brim
G1 X128.892 Y121.070 E5.83380 ; brim
G1 X128.893 Y122.989 E5.96457 ; brim
G1 X128.760 Y123.122 E5.97740 ; brim
G1 X128.893 Y123.255 E5.99024 ; brim
G1 X128.893 Y125.174 E6.12101 ; brim
G1 X128.760 Y125.308 E6.13384 ; brim
G1 X128.893 Y125.441 E6.14668 ; brim
G1 X128.893 Y127.360 E6.27745 ; brim
G1 X128.760 Y127.493 E6.29028 ; brim
G1 X128.893 Y127.626 E6.30312 ; brim
G1 X128.894 Y129.545 E6.43389 ; brim
G1 X128.787 Y129.652 E6.44414 ; brim
G1 X129.014 Y129.652 E6.45960 ; brim
G1 X129.171 Y129.930 E6.48138 ; brim
G1 X128.676 Y130.744 E6.54632 ; brim
G1 X129.076 Y130.744 E6.57358 ; brim
G1 X129.236 Y130.904 E6.58900 ; brim
G1 X129.236 Y131.731 E6.64530 ; brim
G1 X129.076 Y131.891 E6.66073 ; brim
G1 X126.962 Y131.891 E6.80473 ; brim
G1 X126.806 Y131.612 E6.82651 ; brim
G1 X127.301 Y130.798 E6.89145 ; brim
G1 X75.324 Y130.798 E10.43333 ; brim
G1 X75.164 Y130.638 E10.44875 ; brim
G1 X75.165 Y128.719 E10.57952 ; brim
G1 X75.298 Y128.586 E10.59236 ; brim
G1 X75.165 Y128.453 E10.60519 ; brim
G1 X75.165 Y126.534 E10.73596 ; brim
G1 X75.298 Y126.400 E10.74880 ; brim
G1 X75.165 Y126.267 E10.76163 ; brim
G1 X75.165 Y124.348 E10.89240 ; brim
G1 X75.298 Y124.215 E10.90524 ; brim
G1 X75.165 Y124.082 E10.91807 ; brim
G1 X75.165 Y122.163 E11.04884 ; brim
G1 X75.272 Y122.056 E11.05909 ; brim
G1 X74.725 Y122.056 E11.09632 ; brim
G1 X74.565 Y121.896 E11.11174 ; brim
G1 X74.565 Y121.070 E11.16804 ; brim
G1 X74.698 Y120.937 E11.18089 ; brim
G1 X74.565 Y120.804 E11.19372 ; brim
G1 X74.565 Y119.977 E11.25002 ; brim
G1 X74.725 Y119.817 E11.26545 ; brim
G1 X75.272 Y119.817 E11.30268 ; brim
G1 X75.165 Y119.711 E11.31293 ; brim
G1 X75.166 Y117.792 E11.44370 ; brim
G1 X75.299 Y117.659 E11.45654 ; brim
G1 X75.166 Y117.526 E11.46937 ; brim
G1 X75.166 Y115.607 E11.60014 ; brim
G1 X75.299 Y115.473 E11.61298 ; brim
G1 X75.166 Y115.340 E11.62581 ; brim
G1 X75.166 Y113.421 E11.75658 ; brim
G1 X75.299 Y113.288 E11.76942 ; brim
G1 X75.166 Y113.155 E11.78225 ; brim
G1 X75.166 Y111.236 E11.91302 ; brim
G1 X75.273 Y111.129 E11.92327 ; brim
G1 X74.726 Y111.129 E11.96050 ; brim
G1 X74.566 Y110.969 E11.97592 ; brim
G1 X74.566 Y110.143 E12.03223 ; brim
G1 X74.726 Y109.983 E12.04765 ; brim
G1 X106.169 Y109.983 E14.19025 ; brim
G1 X106.062 Y109.877 E14.20050 ; brim
G1 X106.062 Y109.050 E14.25681 ; brim
G1 X106.222 Y108.890 E14.27223 ; brim
G1 X106.769 Y108.890 E14.30947 ; brim
G1 X106.662 Y108.784 E14.31972 ; brim
G1 X106.663 Y106.865 E14.45049 ; brim
G1 X106.796 Y106.732 E14.46333 ; brim
G1 X106.663 Y106.599 E14.47616 ; brim
G1 X106.663 Y104.680 E14.60693 ; brim
G1 X106.796 Y104.546 E14.61977 ; brim
G1 X106.663 Y104.413 E14.63260 ; brim
G1 X106.663 Y102.494 E14.76337 ; brim
G1 X106.796 Y102.361 E14.77621 ; brim
G1 X106.663 Y102.228 E14.78904 ; brim
G1 X106.663 Y100.309 E14.91981 ; brim
G1 X106.797 Y100.176 E14.93265 ; brim
G1 X106.663 Y100.042 E14.94548 ; brim
G1 X106.664 Y98.123 E15.07625 ; brim
G1 X106.797 Y97.990 E15.08909 ; brim
G1 X106.664 Y97.857 E15.10192 ; brim
G1 X106.664 Y95.938 E15.23269 ; brim
G1 X106.797 Y95.805 E15.24553 ; brim
G1 X106.664 Y95.672 E15.25836 ; brim
G1 X106.664 Y93.753 E15.38913 ; brim
G1 X106.797 Y93.619 E15.40197 ; brim
G1 X106.664 Y93.486 E15.41480 ; brim
G1 X106.664 Y91.567 E15.54557 ; brim
G1 X106.798 Y91.434 E15.55841 ; brim
G1 X106.664 Y91.301 E15.57125 ; brim
G1 X106.665 Y89.382 E15.70201 ; brim
G1 X106.798 Y89.249 E15.71485 ; brim
G1 X106.665 Y89.115 E15.72769 ; brim
G1 X106.665 Y87.196 E15.85845 ; brim
G1 X106.798 Y87.063 E15.87129 ; brim
G1 X106.665 Y86.930 E15.88413 ; brim
G1 X106.665 Y85.011 E16.01489 ; brim
G1 X106.798 Y84.878 E16.02773 ; brim
G1 X106.665 Y84.745 E16.04057 ; brim
G1 X106.665 Y82.826 E16.17133 ; brim
G1 X106.799 Y82.692 E16.18417 ; brim
G1 X106.665 Y82.559 E16.19701 ; brim
G1 X106.666 Y80.640 E16.32778 ; brim
G1 X106.799 Y80.507 E16.34061 ; brim
G1 X106.666 Y80.374 E16.35345 ; brim
G1 X106.666 Y78.455 E16.48422 ; brim
G1 X106.799 Y78.322 E16.49705 ; brim
G1 X106.666 Y78.188 E16.50989 ; brim
G1 X106.666 Y76.269 E16.64066 ; brim
G1 X106.773 Y76.163 E16.65091 ; brim
G1 X106.226 Y76.163 E16.68813 ; brim
G1 X106.066 Y76.003 E16.70355 ; brim
G1 X106.066 Y75.177 E16.75986 ; brim
G1 X106.168 Y75.075 E16.76970 ; brim
G1 F1800.000 E15.76970 ; retract
G92 E0 ; reset extrusion distance
G1 X83.217 Y118.778 F7800.000 ; move to first brim point
G1 F1800.000 E1.00000 ; compensate retraction
G1 X83.110 Y118.885 F756.000 E1.01025 ; brim
G1 X83.110 Y119.711 E1.06656 ; brim
G1 X83.270 Y119.871 E1.08198 ; brim
G1 X84.373 Y119.871 E1.15715 ; brim
G1 X84.297 Y119.930 E1.16372 ; brim
