; generated by Slic3r 0.9.9 on 2014-04-09 at 14:38:56

; layer_height = 0.2
; perimeters = 3
; top_solid_layers = 3
; bottom_solid_layers = 3
; fill_density = 0.2
; perimeter_speed = 36
; infill_speed = 60
; travel_speed = 130
; nozzle_diameter = 0.35
; filament_diameter = 1.75
; extrusion_multiplier = 1
; perimeters extrusion width = 0.52mm
; infill extrusion width = 0.52mm
; solid infill extrusion width = 0.52mm
; top infill extrusion width = 0.52mm
; support material extrusion width = 0.52mm
; first layer extrusion width = 0.60mm

G21 ; set units to millimeters
M107 ; disable fan
M190 S95 ; wait for bed temperature to be reached
M104 S225 ; set temperature
G28 ; home all axes
G1 Z5 F5000 ; lift nozzle
M109 S225 ; wait for temperature to be reached
G90 ; use absolute coordinates
G92 E0 ; reset extrusion distance
M82 ; use absolute distances for extrusion
G1 F1800.000 E-1.00000 ; retract
G92 E0 ; reset extrusion distance
G1 Z0.300 F7800.000 ; move to next layer (0)
G1 X79.868 Y74.517 ; move to first skirt point
G1 F1800.000 E1.00000 ; compensate retraction
G1 X80.168 Y74.247 F756.000 E1.02750 ; skirt
G1 X80.498 Y74.007 E1.05531 ; skirt
G1 X81.028 Y73.727 E1.09616 ; skirt
G1 X81.608 Y73.547 E1.13754 ; skirt
G1 X82.208 Y73.457 E1.17888 ; skirt
G1 X95.298 Y73.447 E2.07088 ; skirt
G1 X127.598 Y73.657 E4.27197 ; skirt
G1 X128.208 Y73.717 E4.31374 ; skirt
G1 X128.598 Y73.807 E4.34102 ; skirt
G1 X128.978 Y73.947 E4.36861 ; skirt
G1 X129.338 Y74.127 E4.39604 ; skirt
G1 X129.678 Y74.347 E4.42363 ; skirt
G1 X130.128 Y74.747 E4.46466 ; skirt
G1 X130.518 Y75.217 E4.50628 ; skirt
G1 X131.388 Y76.847 E4.63219 ; skirt
G1 X131.538 Y77.247 E4.66130 ; skirt
G1 X131.638 Y77.657 E4.69006 ; skirt
G1 X131.698 Y78.297 E4.73386 ; skirt
G1 X131.698 Y122.007 E7.71242 ; skirt
G1 X131.668 Y122.447 E7.74247 ; skirt
G1 X131.588 Y122.877 E7.77228 ; skirt
G1 X131.448 Y123.297 E7.80245 ; skirt
G1 X131.268 Y123.687 E7.83172 ; skirt
G1 X131.038 Y124.067 E7.86198 ; skirt
G1 X130.908 Y124.237 E7.87657 ; skirt
G1 X129.618 Y125.647 E8.00680 ; skirt
G1 X129.128 Y126.037 E8.04947 ; skirt
G1 X128.948 Y126.157 E8.06421 ; skirt
G1 X128.578 Y126.347 E8.09256 ; skirt
G1 X128.378 Y126.427 E8.10723 ; skirt
G1 X127.978 Y126.547 E8.13569 ; skirt
G1 X127.358 Y126.637 E8.17838 ; skirt
G1 X115.128 Y126.647 E9.01178 ; skirt
G1 X82.818 Y126.437 E11.21355 ; skirt
G1 X82.198 Y126.377 E11.25600 ; skirt
G1 X81.788 Y126.277 E11.28476 ; skirt
G1 X81.588 Y126.207 E11.29920 ; skirt
G1 X81.028 Y125.937 E11.34156 ; skirt
G1 X80.688 Y125.707 E11.36953 ; skirt
G1 X80.368 Y125.437 E11.39806 ; skirt
G1 X79.208 Y124.177 E11.51477 ; skirt
G1 X71.318 Y115.437 E12.31713 ; skirt
G1 X69.378 Y113.187 E12.51958 ; skirt
G1 X68.988 Y112.647 E12.56497 ; skirt
G1 X68.788 Y112.247 E12.59544 ; skirt
G1 X68.328 Y111.157 E12.67606 ; skirt
G1 X68.118 Y110.477 E12.72456 ; skirt
G1 X68.058 Y110.017 E12.75617 ; skirt
G1 X68.048 Y109.777 E12.77254 ; skirt
G1 X68.048 Y90.107 E14.11293 ; skirt
G1 X68.078 Y89.647 E14.14434 ; skirt
G1 X68.168 Y89.187 E14.17628 ; skirt
G1 X68.238 Y88.967 E14.19201 ; skirt
G1 X68.688 Y87.667 E14.28576 ; skirt
G1 X68.888 Y87.257 E14.31684 ; skirt
G1 X69.138 Y86.877 E14.34784 ; skirt
G1 X71.178 Y84.497 E14.56145 ; skirt
G1 X79.812 Y74.577 E15.45762 ; skirt
G1 F1800.000 E14.45762 ; retract
G92 E0 ; reset extrusion distance
G1 X103.380 Y88.411 F7800.000 ; move to first brim point
G1 F1800.000 E1.00000 ; compensate retraction
G1 X103.708 Y88.179 F756.000 E1.02739 ; brim
G1 X105.532 Y86.072 E1.21729 ; brim
G1 X105.856 Y85.924 E1.24160 ; brim
G1 X112.434 Y85.924 E1.68984 ; brim
G1 X112.434 Y85.311 E1.73159 ; brim
G1 X112.914 Y84.831 E1.77785 ; brim
G1 X113.034 Y84.831 E1.78603 ; brim
G1 X113.034 Y79.150 E2.17317 ; brim
G1 X112.721 Y78.634 E2.21434 ; brim
G1 X113.917 Y76.328 E2.39133 ; brim
G1 X114.309 Y76.090 E2.42261 ; brim
G1 X128.825 Y76.090 E3.41178 ; brim
G1 X129.305 Y76.570 E3.45804 ; brim
G1 X129.305 Y77.849 E3.54519 ; brim
G1 X129.271 Y77.882 E3.54840 ; brim
G1 X129.271 Y79.398 E3.65170 ; brim
G1 X129.699 Y79.768 E3.69020 ; brim
G1 X129.839 Y80.739 E3.75710 ; brim
G1 X129.509 Y81.254 E3.79873 ; brim
G1 X129.271 Y81.324 E3.81563 ; brim
G1 X129.271 Y122.649 E6.63170 ; brim
G1 X128.872 Y123.049 E6.67017 ; brim
G1 X128.872 Y123.742 E6.71743 ; brim
G1 X128.392 Y124.222 E6.76369 ; brim
G1 X114.848 Y124.222 E7.68661 ; brim
G1 X114.533 Y124.083 E7.71012 ; brim
G1 X112.508 Y121.869 E7.91461 ; brim
G1 X112.938 Y120.890 E7.98745 ; brim
G1 X113.034 Y120.890 E7.99399 ; brim
G1 X113.034 Y117.666 E8.21371 ; brim
G1 X112.914 Y117.666 E8.22188 ; brim
G1 X112.434 Y117.186 E8.26815 ; brim
G1 X112.434 Y115.907 E8.35530 ; brim
G1 X112.914 Y115.427 E8.40156 ; brim
G1 X113.034 Y115.427 E8.40973 ; brim
G1 X113.034 Y114.388 E8.48054 ; brim
G1 X105.023 Y114.388 E9.02647 ; brim
G1 X104.543 Y113.908 E9.07273 ; brim
G1 X104.543 Y112.993 E9.13507 ; brim
G1 X102.749 Y110.921 E9.32182 ; brim
G1 X102.849 Y110.702 E9.33821 ; brim
G1 X102.776 Y110.630 E9.34523 ; brim
G1 X102.776 Y91.056 E10.67902 ; brim
G1 X102.559 Y90.750 E10.70463 ; brim
G1 X103.352 Y88.489 E10.86794 ; brim
G1 F1800.000 E9.86794 ; retract
G92 E0 ; reset extrusion distance
G1 X97.566 Y86.383 F7800.000 ; move to first brim point
G1 F1800.000 E1.00000 ; compensate retraction
G1 X97.085 Y86.863 F756.000 E1.04626 ; brim
G1 X96.966 Y86.863 E1.05444 ; brim
G1 X96.966 Y109.756 E2.61445 ; brim
G1 X97.085 Y109.756 E2.62263 ; brim
G1 X97.566 Y110.236 E2.66889 ; brim
G1 X97.566 Y111.515 E2.75604 ; brim
G1 X97.085 Y111.995 E2.80230 ; brim
G1 X96.966 Y111.995 E2.81048 ; brim
G1 X96.966 Y122.442 E3.52237 ; brim
G1 X96.566 Y122.841 E3.56084 ; brim
G1 X96.566 Y123.535 E3.60810 ; brim
G1 X96.086 Y124.015 E3.65436 ; brim
G1 X82.543 Y124.015 E4.57728 ; brim
G1 X82.227 Y123.876 E4.60080 ; brim
G1 X80.202 Y121.661 E4.80528 ; brim
G1 X80.633 Y120.683 E4.87812 ; brim
G1 X80.728 Y120.683 E4.88466 ; brim
G1 X80.728 Y117.459 E5.10438 ; brim
G1 X80.608 Y117.459 E5.11256 ; brim
G1 X80.128 Y116.979 E5.15882 ; brim
G1 X80.128 Y115.700 E5.24597 ; brim
G1 X80.608 Y115.220 E5.29223 ; brim
G1 X80.728 Y115.220 E5.30041 ; brim
G1 X80.728 Y114.181 E5.37121 ; brim
G1 X73.641 Y114.181 E5.85417 ; brim
G1 X73.317 Y114.032 E5.87847 ; brim
G1 X71.461 Y111.889 E6.07167 ; brim
G1 X71.213 Y111.727 E6.09188 ; brim
G1 X70.204 Y109.403 E6.26446 ; brim
G1 X70.470 Y108.999 E6.29745 ; brim
G1 X70.481 Y89.464 E7.62858 ; brim
G1 X70.352 Y89.183 E7.64964 ; brim
G1 X72.146 Y87.112 E7.83638 ; brim
G1 X72.146 Y86.197 E7.89873 ; brim
G1 X72.626 Y85.717 E7.94499 ; brim
G1 X80.128 Y85.717 E8.45621 ; brim
G1 X80.128 Y85.104 E8.49795 ; brim
G1 X80.608 Y84.624 E8.54422 ; brim
G1 X80.728 Y84.624 E8.55239 ; brim
G1 X80.728 Y78.943 E8.93954 ; brim
G1 X80.415 Y78.427 E8.98070 ; brim
G1 X81.611 Y76.121 E9.15770 ; brim
G1 X82.003 Y75.883 E9.18898 ; brim
G1 X96.519 Y75.883 E10.17814 ; brim
G1 X96.999 Y76.363 E10.22441 ; brim
G1 X96.999 Y77.642 E10.31156 ; brim
G1 X96.966 Y77.675 E10.31476 ; brim
G1 X96.966 Y81.346 E10.56493 ; brim
G1 X97.085 Y81.346 E10.57311 ; brim
G1 X97.566 Y81.826 E10.61937 ; brim
G1 X97.566 Y83.105 E10.70652 ; brim
G1 X97.085 Y83.585 E10.75278 ; brim
G1 X96.966 Y83.585 E10.76096 ; brim
G1 X96.966 Y84.624 E10.83176 ; brim
G1 X97.085 Y84.624 E10.83993 ; brim
G1 X97.566 Y85.104 E10.88620 ; brim
G1 X97.566 Y86.301 E10.96776 ; brim
G1 F1800.000 E9.96776 ; retract
G92 E0 ; reset extrusion distance
G1 X120.594 Y115.480 F7800.000 ; move to first brim point
G1 F1800.000 E1.00000 ; compensate retraction
G1 X121.707 Y115.480 F756.000 E1.07581 ; brim
G1 X121.445 Y116.520 E1.14883 ; brim
G1 X120.852 Y116.520 E1.18924 ; brim
G1 X120.614 Y115.560 E1.25660 ; brim
G1 F1800.000 E0.25660 ; retract
G92 E0 ; reset extrusion distance
G1 X89.401 Y115.273 F7800.000 ; move to first brim point
G1 F1800.000 E1.00000 ; compensate retraction
G1 X89.139 Y116.312 F756.000 E1.07302 ; brim
G1 X88.546 Y116.312 E1.11343 ; brim
G1 X88.288 Y115.273 E1.18637 ; brim
G1 X89.319 Y115.273 E1.25660 ; brim
G1 F1800.000 E0.25660 ; retract
G92 E0 ; reset extrusion distance
G1 X121.156 Y85.574 F7800.000 ; move to first brim point
G1 F1800.000 E1.00000 ; compensate retraction
G1 X120.757 Y84.885 F756.000 E1.05423 ; brim
G1 X120.883 Y84.885 E1.06279 ; brim
G1 X121.152 Y84.616 E1.08868 ; brim
G1 X121.420 Y84.885 E1.11457 ; brim
G1 X121.550 Y84.885 E1.12343 ; brim
G1 X121.197 Y85.502 E1.17192 ; brim
G1 F1800.000 E0.17192 ; retract
G92 E0 ; reset extrusion distance
G1 X89.244 Y84.678 F7800.000 ; move to first brim point
G1 F1800.000 E1.00000 ; compensate retraction
G1 X88.850 Y85.366 F756.000 E1.05407 ; brim
G1 X88.452 Y84.678 E1.10830 ; brim
G1 X88.577 Y84.678 E1.11685 ; brim
G1 X88.846 Y84.409 E1.14274 ; brim
G1 X89.114 Y84.678 E1.16864 ; brim
G1 X89.162 Y84.678 E1.17192 ; brim
G1 F1800.000 E0.17192 ; retract
G92 E0 ; reset extrusion distance
G1 X103.168 Y90.664 F7800.000 ; move to first brim point
G1 F1800.000 E1.00000 ; compensate retraction
G1 X103.838 Y88.756 F756.000 E1.13780 ; brim
G1 X103.979 Y88.656 E1.14965 ; brim
G1 X104.369 Y88.656 E1.17618 ; brim
G1 X104.247 Y88.390 E1.19608 ; brim
G1 X105.867 Y86.520 E1.36469 ; brim
G1 X105.975 Y86.470 E1.37279 ; brim
G1 X113.087 Y86.470 E1.85741 ; brim
G1 X112.981 Y86.364 E1.86766 ; brim
G1 X112.981 Y85.538 E1.92397 ; brim
G1 X113.141 Y85.378 E1.93939 ; brim
G1 X113.687 Y85.378 E1.97662 ; brim
G1 X113.581 Y85.271 E1.98687 ; brim
G1 X113.581 Y83.352 E2.11764 ; brim
G1 X113.714 Y83.219 E2.13048 ; brim
G1 X113.581 Y83.086 E2.14331 ; brim
G1 X113.581 Y81.167 E2.27408 ; brim
G1 X113.714 Y81.034 E2.28692 ; brim
G1 X113.581 Y80.900 E2.29975 ; brim
G1 X113.581 Y78.981 E2.43052 ; brim
G1 X113.687 Y78.875 E2.44077 ; brim
G1 X113.507 Y78.875 E2.45307 ; brim
G1 X113.347 Y78.612 E2.47401 ; brim
G1 X114.331 Y76.715 E2.61963 ; brim
G1 X114.462 Y76.636 E2.63006 ; brim
G1 X128.598 Y76.636 E3.59337 ; brim
G1 X128.758 Y76.796 E3.60880 ; brim
G1 X128.758 Y77.622 E3.66510 ; brim
G1 X128.609 Y77.772 E3.67954 ; brim
G1 X128.725 Y77.889 E3.69077 ; brim
G1 X128.725 Y79.808 E3.82154 ; brim
G1 X128.619 Y79.914 E3.83179 ; brim
G1 X129.033 Y79.914 E3.86002 ; brim
G1 X129.187 Y80.047 E3.87390 ; brim
G1 X129.269 Y80.616 E3.91305 ; brim
G1 X129.159 Y80.787 E3.92692 ; brim
G1 X128.416 Y81.007 E3.97970 ; brim
G1 X128.565 Y81.007 E3.98983 ; brim
G1 X128.725 Y81.167 E4.00525 ; brim
G1 X128.725 Y83.086 E4.13602 ; brim
G1 X128.592 Y83.219 E4.14886 ; brim
G1 X128.725 Y83.352 E4.16169 ; brim
G1 X128.725 Y85.271 E4.29246 ; brim
G1 X128.592 Y85.404 E4.30530 ; brim
G1 X128.725 Y85.538 E4.31813 ; brim
G1 X128.725 Y87.457 E4.44890 ; brim
G1 X128.592 Y87.590 E4.46174 ; brim
G1 X128.725 Y87.723 E4.47457 ; brim
G1 X128.725 Y89.642 E4.60534 ; brim
G1 X128.592 Y89.775 E4.61818 ; brim
G1 X128.725 Y89.908 E4.63101 ; brim
G1 X128.725 Y91.827 E4.76178 ; brim
G1 X128.592 Y91.961 E4.77462 ; brim
G1 X128.725 Y92.094 E4.78745 ; brim
G1 X128.725 Y94.013 E4.91822 ; brim
G1 X128.592 Y94.146 E4.93106 ; brim
G1 X128.725 Y94.279 E4.94389 ; brim
G1 X128.725 Y96.198 E5.07466 ; brim
G1 X128.592 Y96.331 E5.08750 ; brim
G1 X128.725 Y96.465 E5.10034 ; brim
G1 X128.725 Y98.384 E5.23110 ; brim
G1 X128.592 Y98.517 E5.24394 ; brim
G1 X128.725 Y98.650 E5.25678 ; brim
G1 X128.725 Y100.569 E5.38754 ; brim
G1 X128.592 Y100.702 E5.40038 ; brim
G1 X128.725 Y100.835 E5.41322 ; brim
G1 X128.725 Y102.754 E5.54398 ; brim
G1 X128.592 Y102.888 E5.55682 ; brim
G1 X128.725 Y103.021 E5.56966 ; brim
G1 X128.725 Y104.940 E5.70042 ; brim
G1 X128.592 Y105.073 E5.71326 ; brim
G1 X128.725 Y105.206 E5.72610 ; brim
G1 X128.725 Y107.125 E5.85686 ; brim
G1 X128.592 Y107.258 E5.86970 ; brim
G1 X128.725 Y107.392 E5.88254 ; brim
G1 X128.725 Y109.311 E6.01331 ; brim
G1 X128.592 Y109.444 E6.02614 ; brim
G1 X128.725 Y109.577 E6.03898 ; brim
G1 X128.725 Y111.496 E6.16975 ; brim
G1 X128.592 Y111.629 E6.18258 ; brim
G1 X128.725 Y111.762 E6.19542 ; brim
G1 X128.725 Y113.681 E6.32619 ; brim
G1 X128.592 Y113.815 E6.33902 ; brim
G1 X128.725 Y113.948 E6.35186 ; brim
G1 X128.725 Y115.867 E6.48263 ; brim
G1 X128.592 Y116.000 E6.49546 ; brim
G1 X128.725 Y116.133 E6.50830 ; brim
G1 X128.725 Y118.052 E6.63907 ; brim
G1 X128.592 Y118.185 E6.65190 ; brim
G1 X128.725 Y118.319 E6.66474 ; brim
G1 X128.725 Y120.238 E6.79551 ; brim
G1 X128.592 Y120.371 E6.80834 ; brim
G1 X128.725 Y120.504 E6.82118 ; brim
G1 X128.725 Y122.423 E6.95195 ; brim
G1 X128.565 Y122.583 E6.96737 ; brim
G1 X128.220 Y122.583 E6.99092 ; brim
G1 X128.326 Y122.689 E7.00117 ; brim
G1 X128.326 Y123.516 E7.05748 ; brim
G1 X128.166 Y123.676 E7.07290 ; brim
G1 X114.964 Y123.676 E7.97256 ; brim
G1 X114.858 Y123.629 E7.98040 ; brim
G1 X113.151 Y121.763 E8.15277 ; brim
G1 X113.295 Y121.437 E8.17705 ; brim
G1 X113.687 Y121.437 E8.20378 ; brim
G1 X113.581 Y121.330 E8.21403 ; brim
G1 X113.581 Y119.411 E8.34480 ; brim
G1 X113.714 Y119.278 E8.35763 ; brim
G1 X113.581 Y119.145 E8.37047 ; brim
G1 X113.581 Y117.226 E8.50124 ; brim
G1 X113.687 Y117.120 E8.51149 ; brim
G1 X113.141 Y117.120 E8.54872 ; brim
G1 X112.981 Y116.959 E8.56414 ; brim
G1 X112.981 Y116.133 E8.62045 ; brim
G1 X113.141 Y115.973 E8.63587 ; brim
G1 X113.687 Y115.973 E8.67310 ; brim
G1 X113.581 Y115.867 E8.68335 ; brim
G1 X113.581 Y113.948 E8.81412 ; brim
G1 X113.687 Y113.841 E8.82437 ; brim
G1 X105.249 Y113.841 E9.39935 ; brim
G1 X105.089 Y113.681 E9.41477 ; brim
G1 X105.089 Y112.855 E9.47108 ; brim
G1 X105.196 Y112.749 E9.48133 ; brim
G1 X105.120 Y112.749 E9.48651 ; brim
G1 X105.011 Y112.699 E9.49461 ; brim
G1 X103.392 Y110.829 E9.66322 ; brim
G1 X103.513 Y110.563 E9.68312 ; brim
G1 X103.482 Y110.563 E9.68521 ; brim
G1 X103.322 Y110.403 E9.70063 ; brim
G1 X103.322 Y108.484 E9.83140 ; brim
G1 X103.456 Y108.351 E9.84423 ; brim
G1 X103.322 Y108.218 E9.85707 ; brim
G1 X103.322 Y106.299 E9.98784 ; brim
G1 X103.456 Y106.166 E10.00067 ; brim
G1 X103.322 Y106.033 E10.01351 ; brim
G1 X103.322 Y104.114 E10.14428 ; brim
G1 X103.456 Y103.980 E10.15711 ; brim
G1 X103.322 Y103.847 E10.16995 ; brim
G1 X103.322 Y101.928 E10.30072 ; brim
G1 X103.456 Y101.795 E10.31356 ; brim
G1 X103.322 Y101.662 E10.32639 ; brim
G1 X103.322 Y99.743 E10.45716 ; brim
G1 X103.456 Y99.610 E10.47000 ; brim
G1 X103.322 Y99.476 E10.48283 ; brim
G1 X103.322 Y97.557 E10.61360 ; brim
G1 X103.456 Y97.424 E10.62644 ; brim
G1 X103.322 Y97.291 E10.63927 ; brim
G1 X103.322 Y95.372 E10.77004 ; brim
G1 X103.456 Y95.239 E10.78288 ; brim
G1 X103.322 Y95.106 E10.79571 ; brim
G1 X103.322 Y93.187 E10.92648 ; brim
G1 X103.456 Y93.053 E10.93932 ; brim
G1 X103.322 Y92.920 E10.95215 ; brim
G1 X103.322 Y91.001 E11.08292 ; brim
G1 X103.429 Y90.895 E11.09317 ; brim
G1 X103.331 Y90.895 E11.09983 ; brim
G1 X103.215 Y90.731 E11.11349 ; brim
G1 F1800.000 E10.11349 ; retract
G92 E0 ; reset extrusion distance
G1 X96.419 Y90.794 F7800.000 ; move to first brim point
G1 F1800.000 E1.00000 ; compensate retraction
G1 X96.419 Y92.713 F756.000 E1.13077 ; brim
G1 X96.286 Y92.846 E1.14360 ; brim
G1 X96.419 Y92.979 E1.15644 ; brim
G1 X96.419 Y94.898 E1.28721 ; brim
G1 X96.286 Y95.032 E1.30004 ; brim
G1 X96.419 Y95.165 E1.31288 ; brim
G1 X96.419 Y97.084 E1.44365 ; brim
G1 X96.286 Y97.217 E1.45649 ; brim
G1 X96.419 Y97.350 E1.46932 ; brim
G1 X96.419 Y99.269 E1.60009 ; brim
G1 X96.286 Y99.402 E1.61293 ; brim
G1 X96.419 Y99.536 E1.62576 ; brim
G1 X96.419 Y101.455 E1.75653 ; brim
G1 X96.286 Y101.588 E1.76937 ; brim
G1 X96.419 Y101.721 E1.78220 ; brim
G1 X96.419 Y103.640 E1.91297 ; brim
G1 X96.286 Y103.773 E1.92581 ; brim
G1 X96.419 Y103.906 E1.93864 ; brim
G1 X96.419 Y105.825 E2.06941 ; brim
G1 X96.286 Y105.959 E2.08225 ; brim
G1 X96.419 Y106.092 E2.09508 ; brim
G1 X96.419 Y108.011 E2.22585 ; brim
G1 X96.286 Y108.144 E2.23869 ; brim
G1 X96.419 Y108.277 E2.25152 ; brim
G1 X96.419 Y110.196 E2.38229 ; brim
G1 X96.313 Y110.303 E2.39254 ; brim
G1 X96.859 Y110.303 E2.42977 ; brim
G1 X97.019 Y110.463 E2.44519 ; brim
G1 X97.019 Y111.289 E2.50150 ; brim
G1 X96.859 Y111.449 E2.51692 ; brim
G1 X96.313 Y111.449 E2.55415 ; brim
G1 X96.419 Y111.555 E2.56440 ; brim
G1 X96.419 Y113.474 E2.69517 ; brim
G1 X96.286 Y113.608 E2.70801 ; brim
