; generated by Slic3r 0.9.9 on 2014-04-09 at 12:09:40

; layer_height = 0.2
; perimeters = 3
; top_solid_layers = 3
; bottom_solid_layers = 3
; fill_density = 0.2
; perimeter_speed = 36
; infill_speed = 60
; travel_speed = 130
; nozzle_diameter = 0.35
; filament_diameter = 1.75
; extrusion_multiplier = 1
; perimeters extrusion width = 0.52mm
; infill extrusion width = 0.52mm
; solid infill extrusion width = 0.52mm
; top infill extrusion width = 0.52mm
; support material extrusion width = 0.52mm
; first layer extrusion width = 0.60mm

G21 ; set units to millimeters
M107 ; disable fan
M190 S95 ; wait for bed temperature to be reached
M104 S225 ; set temperature
G28 ; home all axes
G1 Z5 F5000 ; lift nozzle
M109 S225 ; wait for temperature to be reached
G90 ; use absolute coordinates
G92 E0 ; reset extrusion distance
M82 ; use absolute distances for extrusion
G1 F1800.000 E-1.00000 ; retract
G92 E0 ; reset extrusion distance
G1 Z0.300 F7800.000 ; move to next layer (0)
G1 X59.327 Y74.367 ; move to first skirt point
G1 F1800.000 E1.00000 ; compensate retraction
G1 X77.907 Y62.187 F756.000 E2.51391 ; skirt
G1 X80.137 Y60.897 E2.68946 ; skirt
G1 X80.567 Y60.707 E2.72150 ; skirt
G1 X81.017 Y60.587 E2.75323 ; skirt
G1 X81.247 Y60.547 E2.76914 ; skirt
G1 X81.717 Y60.517 E2.80124 ; skirt
G1 X116.787 Y60.517 E5.19104 ; skirt
G1 X117.257 Y60.547 E5.22313 ; skirt
G1 X117.487 Y60.587 E5.23904 ; skirt
G1 X117.937 Y60.707 E5.27077 ; skirt
G1 X118.577 Y61.007 E5.31894 ; skirt
G1 X120.597 Y62.187 E5.47835 ; skirt
G1 X139.177 Y74.367 E6.99226 ; skirt
G1 X140.697 Y75.817 E7.13541 ; skirt
G1 X140.957 Y76.127 E7.16298 ; skirt
G1 X141.807 Y77.337 E7.26375 ; skirt
G1 X142.047 Y77.727 E7.29495 ; skirt
G1 X142.627 Y79.107 E7.39696 ; skirt
G1 X142.797 Y79.637 E7.43489 ; skirt
G1 X143.057 Y80.727 E7.51125 ; skirt
G1 X143.127 Y81.097 E7.53691 ; skirt
G1 X143.287 Y82.467 E7.63090 ; skirt
G1 X144.787 Y112.287 E9.66551 ; skirt
G1 X144.787 Y116.657 E9.96330 ; skirt
G1 X144.727 Y117.917 E10.04926 ; skirt
G1 X144.527 Y119.467 E10.15576 ; skirt
G1 X144.477 Y119.727 E10.17380 ; skirt
G1 X144.397 Y119.987 E10.19234 ; skirt
G1 X144.027 Y121.077 E10.27078 ; skirt
G1 X143.867 Y121.467 E10.29950 ; skirt
G1 X143.207 Y122.817 E10.40190 ; skirt
G1 X143.057 Y123.057 E10.42119 ; skirt
G1 X142.127 Y124.277 E10.52572 ; skirt
G1 X141.797 Y124.657 E10.56002 ; skirt
G1 X140.207 Y125.967 E10.70041 ; skirt
G1 X139.907 Y126.187 E10.72576 ; skirt
G1 X121.557 Y138.207 E12.22058 ; skirt
G1 X121.227 Y138.397 E12.24653 ; skirt
G1 X120.707 Y138.617 E12.28501 ; skirt
G1 X117.117 Y139.767 E12.54189 ; skirt
G1 X116.677 Y139.847 E12.57236 ; skirt
G1 X116.237 Y139.877 E12.60241 ; skirt
G1 X85.237 Y139.877 E14.71487 ; skirt
G1 X84.797 Y139.847 E14.74492 ; skirt
G1 X84.357 Y139.767 E14.77540 ; skirt
G1 X80.597 Y138.547 E15.04477 ; skirt
G1 X80.247 Y138.397 E15.07072 ; skirt
G1 X80.087 Y138.307 E15.08323 ; skirt
G1 X61.567 Y126.187 E16.59147 ; skirt
G1 X61.267 Y125.967 E16.61682 ; skirt
G1 X59.677 Y124.657 E16.75721 ; skirt
G1 X59.347 Y124.277 E16.79151 ; skirt
G1 X58.417 Y123.057 E16.89604 ; skirt
G1 X58.127 Y122.557 E16.93543 ; skirt
G1 X57.607 Y121.467 E17.01773 ; skirt
G1 X57.447 Y121.077 E17.04645 ; skirt
G1 X57.077 Y119.987 E17.12489 ; skirt
G1 X56.937 Y119.437 E17.16357 ; skirt
G1 X56.777 Y118.207 E17.24809 ; skirt
G1 X56.697 Y116.847 E17.34092 ; skirt
G1 X55.207 Y87.017 E19.37619 ; skirt
G1 X55.207 Y82.647 E19.67397 ; skirt
G1 X55.237 Y82.197 E19.70471 ; skirt
G1 X55.377 Y81.097 E19.78027 ; skirt
G1 X55.447 Y80.727 E19.80593 ; skirt
G1 X55.707 Y79.637 E19.88229 ; skirt
G1 X55.877 Y79.107 E19.92022 ; skirt
G1 X56.387 Y77.867 E20.01158 ; skirt
G1 X56.697 Y77.337 E20.05342 ; skirt
G1 X57.467 Y76.237 E20.14492 ; skirt
G1 X57.717 Y75.917 E20.17259 ; skirt
G1 X59.266 Y74.422 E20.31931 ; skirt
G1 F1800.000 E19.31931 ; retract
G92 E0 ; reset extrusion distance
G1 X64.853 Y104.618 F7800.000 ; move to first brim point
G1 F1800.000 E1.00000 ; compensate retraction
G1 X94.233 Y104.618 F756.000 E3.00209 ; brim
G1 X94.713 Y105.098 E3.04836 ; brim
G1 X94.713 Y106.377 E3.13551 ; brim
G1 X94.233 Y106.857 E3.18177 ; brim
G1 X94.113 Y106.857 E3.18994 ; brim
G1 X94.113 Y118.823 E4.00535 ; brim
G1 X94.233 Y118.823 E4.01353 ; brim
G1 X94.713 Y119.303 E4.05979 ; brim
G1 X94.713 Y119.916 E4.10154 ; brim
G1 X106.774 Y119.916 E4.92340 ; brim
G1 X106.774 Y119.303 E4.96515 ; brim
G1 X107.254 Y118.823 E5.01141 ; brim
G1 X107.374 Y118.823 E5.01959 ; brim
G1 X107.374 Y106.857 E5.83500 ; brim
G1 X107.254 Y106.857 E5.84317 ; brim
G1 X106.774 Y106.377 E5.88943 ; brim
G1 X106.774 Y105.098 E5.97658 ; brim
G1 X107.254 Y104.618 E6.02285 ; brim
G1 X136.634 Y104.618 E8.02494 ; brim
G1 X136.833 Y104.668 E8.03888 ; brim
G1 X139.869 Y106.314 E8.27421 ; brim
G1 X140.095 Y106.829 E8.31254 ; brim
G1 X140.085 Y106.867 E8.31523 ; brim
G1 X140.316 Y106.987 E8.33295 ; brim
G1 X141.734 Y108.989 E8.50015 ; brim
G1 X142.073 Y108.989 E8.52327 ; brim
G1 X142.554 Y109.469 E8.56953 ; brim
G1 X142.554 Y110.748 E8.65668 ; brim
G1 X142.209 Y111.092 E8.68984 ; brim
G1 X142.364 Y112.267 E8.77060 ; brim
G1 X142.483 Y112.267 E8.77870 ; brim
G1 X142.963 Y112.747 E8.82497 ; brim
G1 X142.963 Y114.026 E8.91212 ; brim
G1 X142.483 Y114.506 E8.95838 ; brim
G1 X142.363 Y114.506 E8.96655 ; brim
G1 X142.363 Y116.021 E9.06978 ; brim
G1 X142.396 Y116.055 E9.07300 ; brim
G1 X142.282 Y118.287 E9.22527 ; brim
G1 X142.373 Y118.414 E9.23594 ; brim
G1 X141.623 Y120.634 E9.39563 ; brim
G1 X141.719 Y120.830 E9.41052 ; brim
G1 X139.994 Y123.079 E9.60366 ; brim
G1 X139.624 Y123.248 E9.63137 ; brim
G1 X139.656 Y123.461 E9.64608 ; brim
G1 X139.331 Y123.976 E9.68757 ; brim
G1 X134.620 Y125.415 E10.02326 ; brim
G1 X134.499 Y125.433 E10.03155 ; brim
G1 X125.744 Y125.433 E10.62818 ; brim
G1 X124.302 Y126.936 E10.77007 ; brim
G1 X124.319 Y126.952 E10.77166 ; brim
G1 X124.319 Y128.231 E10.85881 ; brim
G1 X123.839 Y128.711 E10.90507 ; brim
G1 X123.450 Y128.711 E10.93158 ; brim
G1 X123.369 Y129.750 E11.00260 ; brim
G1 X123.412 Y129.750 E11.00558 ; brim
G1 X123.892 Y130.230 E11.05185 ; brim
G1 X123.892 Y131.509 E11.13900 ; brim
G1 X123.412 Y131.989 E11.18526 ; brim
G1 X123.208 Y131.989 E11.19918 ; brim
G1 X122.453 Y133.813 E11.33369 ; brim
G1 X122.554 Y134.074 E11.35277 ; brim
G1 X120.176 Y136.249 E11.57236 ; brim
G1 X119.890 Y136.360 E11.59328 ; brim
G1 X117.964 Y136.360 E11.72455 ; brim
G1 X117.964 Y136.973 E11.76630 ; brim
G1 X117.484 Y137.453 E11.81256 ; brim
G1 X116.131 Y137.453 E11.90473 ; brim
G1 X116.004 Y137.433 E11.91349 ; brim
G1 X111.503 Y135.976 E12.23591 ; brim
G1 X111.186 Y135.460 E12.27714 ; brim
G1 X111.224 Y135.222 E12.29356 ; brim
G1 X110.949 Y135.076 E12.31475 ; brim
G1 X109.411 Y132.807 E12.50156 ; brim
G1 X109.470 Y132.697 E12.51003 ; brim
G1 X109.099 Y130.320 E12.67393 ; brim
G1 X109.158 Y130.252 E12.68009 ; brim
G1 X109.007 Y128.323 E12.81191 ; brim
G1 X108.068 Y126.526 E12.95011 ; brim
G1 X107.029 Y126.526 E13.02089 ; brim
G1 X106.549 Y126.046 E13.06715 ; brim
G1 X106.549 Y125.433 E13.10890 ; brim
G1 X94.938 Y125.433 E13.90014 ; brim
G1 X94.938 Y126.046 E13.94189 ; brim
G1 X94.458 Y126.526 E13.98816 ; brim
G1 X93.419 Y126.526 E14.05894 ; brim
G1 X92.480 Y128.323 E14.19713 ; brim
G1 X92.329 Y130.252 E14.32896 ; brim
G1 X92.388 Y130.320 E14.33512 ; brim
G1 X92.017 Y132.697 E14.49901 ; brim
G1 X92.076 Y132.807 E14.50748 ; brim
G1 X90.538 Y135.076 E14.69429 ; brim
G1 X90.263 Y135.222 E14.71548 ; brim
G1 X90.301 Y135.460 E14.73191 ; brim
G1 X89.984 Y135.976 E14.77313 ; brim
G1 X85.483 Y137.433 E15.09555 ; brim
G1 X85.356 Y137.453 E15.10431 ; brim
G1 X84.003 Y137.453 E15.19648 ; brim
G1 X83.523 Y136.973 E15.24274 ; brim
G1 X83.523 Y136.360 E15.28449 ; brim
G1 X81.597 Y136.360 E15.41576 ; brim
G1 X81.311 Y136.249 E15.43669 ; brim
G1 X79.043 Y134.175 E15.64611 ; brim
G1 X78.693 Y134.175 E15.66998 ; brim
G1 X78.213 Y133.694 E15.71624 ; brim
G1 X78.213 Y132.416 E15.80339 ; brim
G1 X78.389 Y132.239 E15.82041 ; brim
G1 X78.186 Y130.896 E15.91294 ; brim
G1 X78.004 Y130.896 E15.92533 ; brim
G1 X77.524 Y130.416 E15.97159 ; brim
G1 X77.524 Y129.137 E16.05874 ; brim
G1 X77.999 Y128.662 E16.10455 ; brim
G1 X77.707 Y127.480 E16.18754 ; brim
G1 X75.743 Y125.433 E16.38084 ; brim
G1 X65.854 Y125.433 E17.05473 ; brim
G1 X65.374 Y124.953 E17.10099 ; brim
G1 X65.374 Y124.340 E17.14274 ; brim
G1 X63.268 Y124.340 E17.28626 ; brim
G1 X63.001 Y124.245 E17.30554 ; brim
G1 X60.435 Y122.155 E17.53106 ; brim
G1 X60.097 Y122.155 E17.55413 ; brim
G1 X59.617 Y121.675 E17.60039 ; brim
G1 X59.617 Y120.396 E17.68754 ; brim
G1 X59.742 Y120.271 E17.69957 ; brim
G1 X59.114 Y118.414 E17.83316 ; brim
G1 X59.205 Y118.287 E17.84383 ; brim
G1 X59.091 Y116.055 E17.99610 ; brim
G1 X59.124 Y116.021 E17.99932 ; brim
G1 X59.124 Y114.506 E18.10254 ; brim
G1 X59.004 Y114.506 E18.11071 ; brim
G1 X58.524 Y114.026 E18.15698 ; brim
G1 X58.529 Y111.654 E18.31859 ; brim
G1 X59.009 Y111.174 E18.36485 ; brim
G1 X59.248 Y111.174 E18.38113 ; brim
G1 X59.663 Y109.432 E18.50314 ; brim
G1 X59.568 Y109.249 E18.51722 ; brim
G1 X61.171 Y106.987 E18.70614 ; brim
G1 X61.402 Y106.867 E18.72387 ; brim
G1 X61.392 Y106.829 E18.72656 ; brim
G1 X61.618 Y106.314 E18.76489 ; brim
G1 X64.654 Y104.668 E19.00022 ; brim
G1 X64.773 Y104.638 E19.00858 ; brim
G1 F1800.000 E18.00858 ; retract
G92 E0 ; reset extrusion distance
G1 X115.984 Y129.804 F7800.000 ; move to first brim point
G1 F1800.000 E1.00000 ; compensate retraction
G1 X116.503 Y129.804 F756.000 E1.03542 ; brim
G1 X116.511 Y130.843 E1.10622 ; brim
G1 X115.976 Y130.843 E1.14269 ; brim
G1 X115.983 Y129.886 E1.20792 ; brim
G1 F1800.000 E0.20792 ; retract
G92 E0 ; reset extrusion distance
G1 X85.503 Y129.804 F7800.000 ; move to first brim point
G1 F1800.000 E1.00000 ; compensate retraction
G1 X85.511 Y130.843 F756.000 E1.07081 ; brim
G1 X84.976 Y130.843 E1.10728 ; brim
G1 X84.984 Y129.804 E1.17808 ; brim
G1 X85.421 Y129.804 E1.20792 ; brim
G1 F1800.000 E0.20792 ; retract
G92 E0 ; reset extrusion distance
G1 X133.483 Y113.360 F7800.000 ; move to first brim point
G1 F1800.000 E1.00000 ; compensate retraction
G1 X133.477 Y112.321 F756.000 E1.07081 ; brim
G1 X134.010 Y112.321 E1.10712 ; brim
G1 X134.004 Y113.360 E1.17793 ; brim
G1 X133.564 Y113.360 E1.20792 ; brim
G1 F1800.000 E0.20792 ; retract
G92 E0 ; reset extrusion distance
G1 X68.004 Y113.360 F7800.000 ; move to first brim point
G1 F1800.000 E1.00000 ; compensate retraction
G1 X67.483 Y113.360 F756.000 E1.03557 ; brim
G1 X67.477 Y112.321 E1.10638 ; brim
G1 X68.010 Y112.321 E1.14270 ; brim
G1 X68.005 Y113.278 E1.20792 ; brim
G1 F1800.000 E0.20792 ; retract
G92 E0 ; reset extrusion distance
G1 X65.653 Y95.786 F7800.000 ; move to first brim point
G1 F1800.000 E1.00000 ; compensate retraction
G1 X65.537 Y95.770 F756.000 E1.00803 ; brim
G1 X60.697 Y94.341 E1.35190 ; brim
G1 X60.367 Y93.826 E1.39353 ; brim
G1 X60.400 Y93.601 E1.40905 ; brim
G1 X60.364 Y93.601 E1.41151 ; brim
G1 X60.021 Y93.432 E1.43755 ; brim
G1 X58.296 Y91.183 E1.63069 ; brim
G1 X58.389 Y90.994 E1.64510 ; brim
G1 X57.627 Y88.770 E1.80527 ; brim
G1 X57.722 Y88.637 E1.81644 ; brim
G1 X57.603 Y86.410 E1.96842 ; brim
G1 X57.637 Y86.374 E1.97180 ; brim
G1 X57.637 Y82.054 E2.26619 ; brim
G1 X58.167 Y79.780 E2.42529 ; brim
G1 X58.077 Y79.606 E2.43869 ; brim
G1 X59.666 Y77.342 E2.62718 ; brim
G1 X59.891 Y77.225 E2.64446 ; brim
G1 X59.881 Y77.187 E2.64708 ; brim
G1 X60.105 Y76.672 E2.68534 ; brim
G1 X63.116 Y75.023 E2.91933 ; brim
G1 X63.316 Y74.971 E2.93340 ; brim
G1 X73.570 Y74.971 E3.63214 ; brim
G1 X75.984 Y72.889 E3.84940 ; brim
G1 X76.025 Y72.874 E3.85234 ; brim
G1 X76.446 Y71.676 E3.93884 ; brim
G1 X76.037 Y71.267 E3.97830 ; brim
G1 X76.037 Y69.988 E4.06545 ; brim
G1 X76.517 Y69.508 E4.11171 ; brim
G1 X76.648 Y69.508 E4.12065 ; brim
G1 X76.814 Y68.245 E4.20744 ; brim
G1 X76.558 Y67.989 E4.23215 ; brim
G1 X76.558 Y66.710 E4.31930 ; brim
G1 X77.038 Y66.230 E4.36556 ; brim
G1 X77.397 Y66.230 E4.38999 ; brim
G1 X79.225 Y64.187 E4.57679 ; brim
G1 X79.544 Y64.044 E4.60062 ; brim
G1 X80.001 Y64.044 E4.63177 ; brim
G1 X80.001 Y63.432 E4.67352 ; brim
G1 X80.481 Y62.952 E4.71978 ; brim
G1 X85.983 Y62.952 E5.09469 ; brim
G1 X86.193 Y63.009 E5.10956 ; brim
G1 X89.059 Y64.686 E5.33582 ; brim
G1 X89.270 Y65.199 E5.37365 ; brim
G1 X89.252 Y65.263 E5.37813 ; brim
G1 X89.427 Y65.366 E5.39198 ; brim
G1 X90.684 Y67.666 E5.57056 ; brim
G1 X90.634 Y67.752 E5.57735 ; brim
G1 X90.942 Y70.096 E5.73849 ; brim
G1 X90.833 Y70.220 E5.74974 ; brim
G1 X91.053 Y71.949 E5.86850 ; brim
G1 X92.313 Y73.879 E6.02555 ; brim
G1 X93.499 Y73.879 E6.10640 ; brim
G1 X93.979 Y74.359 E6.15266 ; brim
G1 X93.979 Y74.971 E6.19441 ; brim
G1 X104.534 Y74.971 E6.91361 ; brim
G1 X104.534 Y74.359 E6.95536 ; brim
G1 X105.014 Y73.879 E7.00162 ; brim
G1 X106.200 Y73.879 E7.08247 ; brim
G1 X107.460 Y71.949 E7.23953 ; brim
G1 X107.680 Y70.220 E7.35828 ; brim
G1 X107.571 Y70.096 E7.36954 ; brim
G1 X107.879 Y67.752 E7.53067 ; brim
G1 X107.829 Y67.666 E7.53746 ; brim
G1 X109.086 Y65.366 E7.71605 ; brim
G1 X109.261 Y65.263 E7.72990 ; brim
G1 X109.243 Y65.199 E7.73438 ; brim
G1 X109.454 Y64.686 E7.77220 ; brim
G1 X112.320 Y63.009 E7.99846 ; brim
G1 X112.530 Y62.952 E8.01333 ; brim
G1 X118.032 Y62.952 E8.38824 ; brim
G1 X118.512 Y63.432 E8.43451 ; brim
G1 X118.512 Y64.044 E8.47625 ; brim
G1 X118.969 Y64.044 E8.50740 ; brim
G1 X119.288 Y64.187 E8.53123 ; brim
G1 X121.116 Y66.230 E8.71803 ; brim
G1 X121.475 Y66.230 E8.74246 ; brim
G1 X121.955 Y66.710 E8.78872 ; brim
G1 X121.955 Y67.989 E8.87587 ; brim
G1 X121.699 Y68.245 E8.90058 ; brim
G1 X121.865 Y69.508 E8.98737 ; brim
G1 X121.996 Y69.508 E8.99631 ; brim
G1 X122.476 Y69.988 E9.04258 ; brim
G1 X122.476 Y71.267 E9.12973 ; brim
G1 X122.067 Y71.676 E9.16918 ; brim
G1 X122.488 Y72.874 E9.25568 ; brim
G1 X122.529 Y72.889 E9.25862 ; brim
G1 X124.943 Y74.971 E9.47588 ; brim
G1 X136.256 Y74.971 E10.24682 ; brim
G1 X136.736 Y75.452 E10.29309 ; brim
G1 X136.736 Y76.064 E10.33483 ; brim
G1 X137.293 Y76.064 E10.37278 ; brim
G1 X137.589 Y76.184 E10.39458 ; brim
G1 X139.842 Y78.373 E10.60859 ; brim
G1 X139.772 Y78.544 E10.62111 ; brim
G1 X140.729 Y80.853 E10.79144 ; brim
G1 X140.660 Y80.955 E10.79984 ; brim
G1 X140.957 Y83.208 E10.95469 ; brim
G1 X140.876 Y83.301 E10.96307 ; brim
G1 X140.876 Y87.521 E11.25063 ; brim
G1 X140.901 Y87.550 E11.25324 ; brim
G1 X140.581 Y89.924 E11.41652 ; brim
G1 X140.594 Y89.946 E11.41828 ; brim
G1 X139.519 Y92.158 E11.58588 ; brim
G1 X139.624 Y92.454 E11.60730 ; brim
G1 X136.970 Y94.600 E11.83984 ; brim
G1 X136.705 Y94.694 E11.85901 ; brim
G1 X134.477 Y94.694 E12.01086 ; brim
G1 X134.477 Y95.306 E12.05261 ; brim
G1 X133.997 Y95.786 E12.09887 ; brim
G1 X106.367 Y95.786 E13.98167 ; brim
G1 X105.887 Y95.306 E14.02793 ; brim
G1 X105.887 Y89.230 E14.44198 ; brim
G1 X105.767 Y89.230 E14.45016 ; brim
G1 X105.287 Y88.750 E14.49642 ; brim
G1 X105.287 Y87.471 E14.58357 ; brim
G1 X105.767 Y86.991 E14.62983 ; brim
G1 X105.887 Y86.991 E14.63801 ; brim
G1 X105.887 Y85.952 E14.70881 ; brim
G1 X105.767 Y85.952 E14.71698 ; brim
G1 X105.287 Y85.472 E14.76325 ; brim
G1 X105.287 Y84.193 E14.85040 ; brim
G1 X105.767 Y83.713 E14.89666 ; brim
G1 X105.887 Y83.713 E14.90484 ; brim
G1 X105.887 Y80.489 E15.12456 ; brim
G1 X105.767 Y80.489 E15.13273 ; brim
G1 X105.287 Y80.009 E15.17900 ; brim
G1 X105.287 Y79.396 E15.22074 ; brim
G1 X92.626 Y79.396 E16.08350 ; brim
G1 X92.626 Y84.806 E16.45214 ; brim
G1 X92.746 Y84.806 E16.46032 ; brim
G1 X93.226 Y85.286 E16.50658 ; brim
G1 X93.226 Y87.657 E16.66819 ; brim
G1 X92.746 Y88.138 E16.71445 ; brim
G1 X92.626 Y88.138 E16.72263 ; brim
G1 X92.626 Y93.547 E17.09127 ; brim
G1 X92.746 Y93.547 E17.09945 ; brim
G1 X93.226 Y94.027 E17.14571 ; brim
G1 X93.226 Y95.306 E17.23286 ; brim
G1 X92.746 Y95.786 E17.27912 ; brim
G1 X65.735 Y95.786 E19.11973 ; brim
G1 F1800.000 E18.11973 ; retract
G92 E0 ; reset extrusion distance
G1 X131.954 Y87.045 F7800.000 ; move to first brim point
G1 F1800.000 E1.00000 ; compensate retraction
G1 X132.559 Y87.045 F756.000 E1.04125 ; brim
G1 X132.256 Y88.047 E1.11258 ; brim
