; generated by Slic3r 0.9.9 on 2014-04-09 at 14:48:18

; layer_height = 0.2
; perimeters = 3
; top_solid_layers = 3
; bottom_solid_layers = 3
; fill_density = 0.2
; perimeter_speed = 36
; infill_speed = 60
; travel_speed = 130
; nozzle_diameter = 0.35
; filament_diameter = 1.75
; extrusion_multiplier = 1
; perimeters extrusion width = 0.52mm
; infill extrusion width = 0.52mm
; solid infill extrusion width = 0.52mm
; top infill extrusion width = 0.52mm
; support material extrusion width = 0.52mm
; first layer extrusion width = 0.60mm

G21 ; set units to millimeters
M107 ; disable fan
M190 S95 ; wait for bed temperature to be reached
M104 S225 ; set temperature
G28 ; home all axes
G1 Z5 F5000 ; lift nozzle
M109 S225 ; wait for temperature to be reached
G90 ; use absolute coordinates
G92 E0 ; reset extrusion distance
M82 ; use absolute distances for extrusion
G1 F1800.000 E-1.00000 ; retract
G92 E0 ; reset extrusion distance
G1 Z0.300 F7800.000 ; move to next layer (0)
G1 X83.241 Y77.676 ; move to first skirt point
G1 F1800.000 E1.00000 ; compensate retraction
G1 X83.541 Y77.416 F756.000 E1.02705 ; skirt
G1 X83.861 Y77.186 E1.05391 ; skirt
G1 X84.211 Y76.986 E1.08138 ; skirt
G1 X84.391 Y76.906 E1.09480 ; skirt
G1 X84.771 Y76.776 E1.12217 ; skirt
G1 X85.161 Y76.686 E1.14944 ; skirt
G1 X85.751 Y76.636 E1.18979 ; skirt
G1 X114.251 Y76.636 E3.13189 ; skirt
G1 X114.841 Y76.686 E3.17224 ; skirt
G1 X115.041 Y76.726 E3.18613 ; skirt
G1 X115.421 Y76.836 E3.21309 ; skirt
G1 X115.791 Y76.986 E3.24030 ; skirt
G1 X116.141 Y77.186 E3.26777 ; skirt
G1 X116.461 Y77.416 E3.29462 ; skirt
G1 X116.761 Y77.676 E3.32167 ; skirt
G1 X117.141 Y78.136 E3.36233 ; skirt
G1 X117.451 Y78.646 E3.40300 ; skirt
G1 X117.601 Y79.016 E3.43021 ; skirt
G1 X117.751 Y79.596 E3.47103 ; skirt
G1 X117.801 Y80.186 E3.51138 ; skirt
G1 X117.801 Y85.686 E3.88617 ; skirt
G1 X117.531 Y115.416 E5.91217 ; skirt
G1 X117.451 Y116.506 E5.98664 ; skirt
G1 X117.361 Y117.066 E6.02529 ; skirt
G1 X117.061 Y118.326 E6.11356 ; skirt
G1 X116.941 Y118.656 E6.13748 ; skirt
G1 X116.801 Y118.966 E6.16066 ; skirt
G1 X116.231 Y120.066 E6.24509 ; skirt
G1 X116.031 Y120.406 E6.27197 ; skirt
G1 X115.791 Y120.726 E6.29922 ; skirt
G1 X114.631 Y121.966 E6.41493 ; skirt
G1 X114.121 Y122.406 E6.46083 ; skirt
G1 X113.741 Y122.646 E6.49146 ; skirt
G1 X113.331 Y122.836 E6.52225 ; skirt
G1 X112.681 Y123.016 E6.56821 ; skirt
G1 X106.371 Y124.146 E7.00504 ; skirt
G1 X105.991 Y124.166 E7.03097 ; skirt
G1 X93.221 Y124.156 E7.90117 ; skirt
G1 X92.811 Y124.096 E7.92940 ; skirt
G1 X87.251 Y123.006 E8.31549 ; skirt
G1 X86.821 Y122.896 E8.34574 ; skirt
G1 X86.611 Y122.816 E8.36105 ; skirt
G1 X86.021 Y122.516 E8.40616 ; skirt
G1 X85.661 Y122.256 E8.43642 ; skirt
G1 X85.341 Y121.946 E8.46678 ; skirt
G1 X84.191 Y120.716 E8.58152 ; skirt
G1 X84.071 Y120.566 E8.59461 ; skirt
G1 X83.761 Y120.066 E8.63470 ; skirt
G1 X83.191 Y118.966 E8.71912 ; skirt
G1 X83.051 Y118.666 E8.74168 ; skirt
G1 X82.941 Y118.346 E8.76474 ; skirt
G1 X82.601 Y116.976 E8.86093 ; skirt
G1 X82.561 Y116.726 E8.87818 ; skirt
G1 X82.451 Y115.186 E8.98339 ; skirt
G1 X82.201 Y85.686 E10.99371 ; skirt
G1 X82.201 Y80.186 E11.36850 ; skirt
G1 X82.251 Y79.596 E11.40884 ; skirt
G1 X82.341 Y79.206 E11.43612 ; skirt
G1 X82.471 Y78.826 E11.46349 ; skirt
G1 X82.551 Y78.646 E11.47691 ; skirt
G1 X82.751 Y78.296 E11.50438 ; skirt
G1 X82.981 Y77.976 E11.53123 ; skirt
G1 X83.187 Y77.738 E11.55270 ; skirt
G1 X84.503 Y79.075 F7800.000 ; move to first brim point
G1 X94.149 Y79.075 F756.000 E12.21000 ; brim
G1 X94.629 Y79.555 E12.25626 ; brim
G1 X94.629 Y83.446 E12.52139 ; brim
G1 X94.749 Y83.446 E12.52957 ; brim
G1 X95.229 Y83.926 E12.57583 ; brim
G1 X95.229 Y84.538 E12.61756 ; brim
G1 X105.371 Y84.538 E13.30868 ; brim
G1 X105.371 Y81.314 E13.52840 ; brim
G1 X105.251 Y81.314 E13.53657 ; brim
G1 X104.771 Y80.834 E13.58283 ; brim
G1 X104.771 Y79.555 E13.66998 ; brim
G1 X105.251 Y79.075 E13.71625 ; brim
G1 X114.897 Y79.075 E14.37355 ; brim
G1 X115.377 Y79.555 E14.41981 ; brim
G1 X115.377 Y83.446 E14.68494 ; brim
G1 X115.497 Y83.446 E14.69311 ; brim
G1 X115.977 Y83.926 E14.73937 ; brim
G1 X115.977 Y85.205 E14.82652 ; brim
G1 X115.497 Y85.685 E14.87279 ; brim
G1 X115.401 Y85.685 E14.87929 ; brim
G1 X115.057 Y87.142 E14.98133 ; brim
G1 X115.119 Y87.204 E14.98728 ; brim
G1 X115.119 Y93.280 E15.40133 ; brim
G1 X115.239 Y93.280 E15.40950 ; brim
G1 X115.719 Y93.760 E15.45576 ; brim
G1 X115.719 Y95.039 E15.54291 ; brim
G1 X115.239 Y95.519 E15.58918 ; brim
G1 X115.119 Y95.519 E15.59735 ; brim
G1 X115.119 Y107.485 E16.41276 ; brim
G1 X115.239 Y107.485 E16.42093 ; brim
G1 X115.719 Y107.965 E16.46720 ; brim
G1 X115.719 Y110.336 E16.62881 ; brim
G1 X115.239 Y110.817 E16.67507 ; brim
G1 X115.119 Y110.817 E16.68325 ; brim
G1 X115.119 Y114.514 E16.93521 ; brim
G1 X115.165 Y114.564 E16.93985 ; brim
G1 X114.997 Y116.867 E17.09719 ; brim
G1 X115.087 Y117.014 E17.10896 ; brim
G1 X113.890 Y119.320 E17.28598 ; brim
G1 X113.774 Y119.390 E17.29519 ; brim
G1 X113.774 Y120.171 E17.34839 ; brim
G1 X113.294 Y120.651 E17.39465 ; brim
G1 X109.111 Y120.651 E17.67969 ; brim
G1 X108.631 Y120.171 E17.72596 ; brim
G1 X108.631 Y113.428 E18.18541 ; brim
G1 X108.698 Y113.362 E18.19182 ; brim
G1 X108.266 Y111.909 E18.29509 ; brim
G1 X107.734 Y111.909 E18.33136 ; brim
G1 X107.302 Y113.362 E18.43462 ; brim
G1 X107.369 Y113.428 E18.44103 ; brim
G1 X107.369 Y119.634 E18.86388 ; brim
G1 X107.720 Y119.985 E18.89770 ; brim
G1 X107.720 Y121.263 E18.98485 ; brim
G1 X107.240 Y121.744 E19.03112 ; brim
G1 X92.974 Y121.744 E20.00325 ; brim
G1 X92.525 Y121.386 E20.04234 ; brim
G1 X91.988 Y119.029 E20.20708 ; brim
G1 X92.131 Y118.849 E20.22273 ; brim
G1 X92.131 Y113.002 E20.62118 ; brim
G1 X91.687 Y113.002 E20.65148 ; brim
G1 X91.500 Y112.815 E20.66947 ; brim
G1 X91.313 Y113.002 E20.68746 ; brim
G1 X90.871 Y113.002 E20.71763 ; brim
G1 X90.871 Y118.412 E21.08627 ; brim
G1 X90.991 Y118.412 E21.09445 ; brim
G1 X91.471 Y118.892 E21.14071 ; brim
G1 X91.471 Y120.171 E21.22786 ; brim
G1 X90.991 Y120.651 E21.27412 ; brim
G1 X87.641 Y120.651 E21.50235 ; brim
G1 X87.330 Y120.516 E21.52547 ; brim
G1 X85.255 Y118.307 E21.73200 ; brim
G1 X85.366 Y118.050 E21.75113 ; brim
G1 X84.808 Y115.760 E21.91171 ; brim
G1 X84.881 Y115.666 E21.91985 ; brim
G1 X84.881 Y111.909 E22.17588 ; brim
G1 X84.761 Y111.909 E22.18405 ; brim
G1 X84.281 Y111.429 E22.23032 ; brim
G1 X84.281 Y110.150 E22.31747 ; brim
G1 X84.761 Y109.670 E22.36373 ; brim
G1 X84.881 Y109.670 E22.37190 ; brim
G1 X84.881 Y86.777 E23.93192 ; brim
G1 X84.503 Y86.777 E23.95770 ; brim
G1 X84.023 Y86.297 E24.00396 ; brim
G1 X84.023 Y85.018 E24.09111 ; brim
G1 X84.503 Y84.538 E24.13737 ; brim
G1 X84.623 Y84.538 E24.14555 ; brim
G1 X84.623 Y81.314 E24.36526 ; brim
G1 X84.503 Y81.314 E24.37343 ; brim
G1 X84.023 Y80.834 E24.41969 ; brim
G1 X84.023 Y79.555 E24.50685 ; brim
G1 X84.445 Y79.133 E24.54752 ; brim
G1 F1800.000 E23.54752 ; retract
G92 E0 ; reset extrusion distance
G1 X97.479 Y93.333 F7800.000 ; move to first brim point
G1 F1800.000 E1.00000 ; compensate retraction
G1 X103.122 Y93.333 F756.000 E1.38454 ; brim
G1 X103.123 Y94.372 E1.45535 ; brim
G1 X102.251 Y94.372 E1.51475 ; brim
G1 X101.771 Y94.852 E1.56101 ; brim
G1 X101.771 Y96.131 E1.64816 ; brim
G1 X102.251 Y96.611 E1.69442 ; brim
G1 X102.371 Y96.611 E1.70260 ; brim
G1 X102.371 Y107.058 E2.41449 ; brim
G1 X102.851 Y107.538 E2.46075 ; brim
G1 X103.293 Y107.538 E2.49084 ; brim
G1 X102.897 Y108.577 E2.56662 ; brim
G1 X97.030 Y108.577 E2.96636 ; brim
G1 X96.893 Y107.538 E3.03777 ; brim
G1 X97.149 Y107.538 E3.05519 ; brim
G1 X97.629 Y107.058 E3.10145 ; brim
G1 X97.629 Y96.507 E3.82048 ; brim
G1 X98.035 Y95.736 E3.87983 ; brim
G1 X97.080 Y94.345 E3.99479 ; brim
G1 X97.479 Y93.946 E4.03325 ; brim
G1 X97.479 Y93.415 E4.06941 ; brim
G1 F1800.000 E3.06941 ; retract
G92 E0 ; reset extrusion distance
G1 X94.576 Y85.084 F7800.000 ; move to first brim point
G1 F1800.000 E1.00000 ; compensate retraction
G1 X106.024 Y85.084 F756.000 E1.78005 ; brim
G1 X105.917 Y84.978 E1.79028 ; brim
G1 X105.917 Y83.059 E1.92105 ; brim
G1 X106.051 Y82.926 E1.93389 ; brim
G1 X105.917 Y82.793 E1.94672 ; brim
G1 X105.917 Y80.874 E2.07749 ; brim
G1 X106.024 Y80.768 E2.08774 ; brim
G1 X105.477 Y80.768 E2.12497 ; brim
G1 X105.317 Y80.607 E2.14039 ; brim
G1 X105.317 Y79.781 E2.19670 ; brim
G1 X105.477 Y79.621 E2.21212 ; brim
G1 X114.671 Y79.621 E2.83858 ; brim
G1 X114.831 Y79.781 E2.85400 ; brim
G1 X114.831 Y81.700 E2.98477 ; brim
G1 X114.697 Y81.833 E2.99760 ; brim
G1 X114.831 Y81.967 E3.01044 ; brim
G1 X114.831 Y83.886 E3.14121 ; brim
G1 X114.724 Y83.992 E3.15146 ; brim
G1 X115.271 Y83.992 E3.18869 ; brim
G1 X115.431 Y84.152 E3.20411 ; brim
G1 X115.431 Y84.978 E3.26042 ; brim
G1 X115.271 Y85.138 E3.27584 ; brim
G1 X114.811 Y85.138 E3.30713 ; brim
G1 X114.933 Y85.292 E3.32047 ; brim
G1 X114.480 Y87.206 E3.45448 ; brim
G1 X114.399 Y87.270 E3.46153 ; brim
G1 X114.572 Y87.430 E3.47759 ; brim
G1 X114.572 Y89.349 E3.60836 ; brim
G1 X114.439 Y89.482 E3.62120 ; brim
G1 X114.572 Y89.615 E3.63403 ; brim
G1 X114.572 Y91.534 E3.76480 ; brim
G1 X114.439 Y91.667 E3.77764 ; brim
G1 X114.572 Y91.801 E3.79047 ; brim
G1 X114.572 Y93.720 E3.92124 ; brim
G1 X114.466 Y93.826 E3.93149 ; brim
G1 X115.012 Y93.826 E3.96872 ; brim
G1 X115.172 Y93.986 E3.98414 ; brim
G1 X115.172 Y94.812 E4.04045 ; brim
G1 X115.012 Y94.972 E4.05587 ; brim
G1 X114.466 Y94.972 E4.09310 ; brim
G1 X114.572 Y95.079 E4.10335 ; brim
G1 X114.572 Y96.998 E4.23412 ; brim
G1 X114.439 Y97.131 E4.24696 ; brim
G1 X114.572 Y97.264 E4.25979 ; brim
G1 X114.572 Y99.183 E4.39056 ; brim
G1 X114.439 Y99.316 E4.40340 ; brim
G1 X114.572 Y99.450 E4.41623 ; brim
G1 X114.572 Y101.369 E4.54700 ; brim
G1 X114.439 Y101.502 E4.55984 ; brim
G1 X114.572 Y101.635 E4.57267 ; brim
G1 X114.572 Y103.554 E4.70344 ; brim
G1 X114.439 Y103.687 E4.71628 ; brim
G1 X114.572 Y103.820 E4.72911 ; brim
G1 X114.572 Y105.739 E4.85988 ; brim
G1 X114.439 Y105.873 E4.87272 ; brim
G1 X114.572 Y106.006 E4.88555 ; brim
G1 X114.572 Y107.925 E5.01632 ; brim
G1 X114.466 Y108.031 E5.02657 ; brim
G1 X115.012 Y108.031 E5.06380 ; brim
G1 X115.172 Y108.191 E5.07923 ; brim
G1 X115.172 Y109.017 E5.13553 ; brim
G1 X115.039 Y109.151 E5.14837 ; brim
G1 X115.172 Y109.284 E5.16120 ; brim
G1 X115.172 Y110.110 E5.21751 ; brim
G1 X115.012 Y110.270 E5.23293 ; brim
G1 X114.466 Y110.270 E5.27016 ; brim
G1 X114.572 Y110.377 E5.28041 ; brim
G1 X114.572 Y112.296 E5.41118 ; brim
G1 X114.439 Y112.429 E5.42402 ; brim
G1 X114.572 Y112.562 E5.43686 ; brim
G1 X114.572 Y114.481 E5.56762 ; brim
G1 X114.453 Y114.600 E5.57913 ; brim
G1 X114.603 Y114.762 E5.59414 ; brim
G1 X114.463 Y116.680 E5.72522 ; brim
G1 X114.324 Y116.810 E5.73821 ; brim
G1 X114.461 Y117.035 E5.75618 ; brim
G1 X113.476 Y118.932 E5.90184 ; brim
G1 X113.345 Y119.012 E5.91226 ; brim
G1 X113.122 Y119.012 E5.92746 ; brim
G1 X113.228 Y119.118 E5.93772 ; brim
G1 X113.228 Y119.944 E5.99402 ; brim
G1 X113.068 Y120.104 E6.00944 ; brim
G1 X109.338 Y120.104 E6.26364 ; brim
G1 X109.178 Y119.944 E6.27906 ; brim
G1 X109.178 Y118.025 E6.40983 ; brim
G1 X109.311 Y117.892 E6.42267 ; brim
G1 X109.178 Y117.759 E6.43550 ; brim
G1 X109.178 Y115.840 E6.56627 ; brim
G1 X109.311 Y115.707 E6.57911 ; brim
G1 X109.178 Y115.574 E6.59194 ; brim
G1 X109.178 Y113.655 E6.72271 ; brim
G1 X109.338 Y113.495 E6.73813 ; brim
G1 X109.365 Y113.495 E6.73996 ; brim
G1 X109.291 Y113.440 E6.74620 ; brim
G1 X108.723 Y111.529 E6.88205 ; brim
G1 X108.847 Y111.363 E6.89616 ; brim
G1 X107.153 Y111.363 E7.01159 ; brim
G1 X107.277 Y111.529 E7.02570 ; brim
G1 X106.709 Y113.440 E7.16155 ; brim
G1 X106.635 Y113.495 E7.16779 ; brim
G1 X106.662 Y113.495 E7.16962 ; brim
G1 X106.822 Y113.655 E7.18504 ; brim
G1 X106.822 Y115.574 E7.31581 ; brim
G1 X106.689 Y115.707 E7.32864 ; brim
G1 X106.822 Y115.840 E7.34148 ; brim
G1 X106.822 Y117.759 E7.47225 ; brim
G1 X106.689 Y117.892 E7.48508 ; brim
G1 X106.822 Y118.025 E7.49792 ; brim
G1 X106.822 Y119.944 E7.62869 ; brim
G1 X106.716 Y120.051 E7.63894 ; brim
G1 X107.013 Y120.051 E7.65920 ; brim
G1 X107.173 Y120.211 E7.67462 ; brim
G1 X107.173 Y121.037 E7.73093 ; brim
G1 X107.013 Y121.197 E7.74635 ; brim
G1 X93.165 Y121.197 E8.69003 ; brim
G1 X93.015 Y121.078 E8.70306 ; brim
G1 X92.579 Y119.164 E8.83684 ; brim
G1 X92.743 Y118.958 E8.85476 ; brim
G1 X92.784 Y118.958 E8.85754 ; brim
G1 X92.678 Y118.852 E8.86779 ; brim
G1 X92.678 Y116.933 E8.99856 ; brim
G1 X92.811 Y116.800 E9.01140 ; brim
G1 X92.678 Y116.666 E9.02423 ; brim
G1 X92.678 Y114.747 E9.15500 ; brim
G1 X92.811 Y114.614 E9.16784 ; brim
G1 X92.678 Y114.481 E9.18067 ; brim
G1 X92.678 Y112.562 E9.31144 ; brim
G1 X92.784 Y112.456 E9.32169 ; brim
G1 X91.913 Y112.456 E9.38106 ; brim
G1 X91.753 Y112.296 E9.39648 ; brim
G1 X91.753 Y111.469 E9.45279 ; brim
G1 X91.859 Y111.363 E9.46304 ; brim
G1 X91.141 Y111.363 E9.51200 ; brim
G1 X91.247 Y111.469 E9.52226 ; brim
G1 X91.247 Y112.296 E9.57856 ; brim
G1 X91.087 Y112.456 E9.59398 ; brim
G1 X90.218 Y112.456 E9.65321 ; brim
G1 X90.324 Y112.562 E9.66346 ; brim
G1 X90.324 Y114.481 E9.79423 ; brim
G1 X90.191 Y114.614 E9.80707 ; brim
G1 X90.324 Y114.747 E9.81990 ; brim
G1 X90.324 Y116.666 E9.95067 ; brim
G1 X90.191 Y116.800 E9.96351 ; brim
G1 X90.324 Y116.933 E9.97634 ; brim
G1 X90.324 Y118.852 E10.10711 ; brim
G1 X90.218 Y118.958 E10.11736 ; brim
G1 X90.764 Y118.958 E10.15459 ; brim
G1 X90.924 Y119.118 E10.17001 ; brim
G1 X90.924 Y119.944 E10.22632 ; brim
G1 X90.764 Y120.104 E10.24174 ; brim
G1 X87.754 Y120.104 E10.44684 ; brim
G1 X87.651 Y120.060 E10.45455 ; brim
G1 X85.899 Y118.195 E10.62890 ; brim
G1 X86.018 Y117.919 E10.64938 ; brim
G1 X85.868 Y117.802 E10.66231 ; brim
G1 X85.401 Y115.889 E10.79653 ; brim
G1 X85.552 Y115.698 E10.81311 ; brim
G1 X85.428 Y115.574 E10.82505 ; brim
G1 X85.428 Y113.655 E10.95582 ; brim
G1 X85.561 Y113.521 E10.96866 ; brim
G1 X85.428 Y113.388 E10.98149 ; brim
G1 X85.428 Y111.469 E11.11226 ; brim
G1 X85.534 Y111.363 E11.12251 ; brim
G1 X84.988 Y111.363 E11.15974 ; brim
G1 X84.828 Y111.203 E11.17516 ; brim
G1 X84.828 Y110.377 E11.23147 ; brim
G1 X84.988 Y110.217 E11.24689 ; brim
G1 X85.534 Y110.217 E11.28412 ; brim
G1 X85.428 Y110.110 E11.29437 ; brim
G1 X85.428 Y108.191 E11.42514 ; brim
G1 X85.561 Y108.058 E11.43798 ; brim
G1 X85.428 Y107.925 E11.45081 ; brim
G1 X85.428 Y106.006 E11.58158 ; brim
G1 X85.561 Y105.873 E11.59442 ; brim
G1 X85.428 Y105.739 E11.60725 ; brim
G1 X85.428 Y103.820 E11.73802 ; brim
G1 X85.561 Y103.687 E11.75086 ; brim
G1 X85.428 Y103.554 E11.76369 ; brim
G1 X85.428 Y101.635 E11.89446 ; brim
G1 X85.561 Y101.502 E11.90730 ; brim
G1 X85.428 Y101.369 E11.92014 ; brim
G1 X85.428 Y99.450 E12.05090 ; brim
G1 X85.561 Y99.316 E12.06374 ; brim
G1 X85.428 Y99.183 E12.07658 ; brim
G1 X85.428 Y97.264 E12.20734 ; brim
G1 X85.561 Y97.131 E12.22018 ; brim
G1 X85.428 Y96.998 E12.23302 ; brim
G1 X85.428 Y95.079 E12.36378 ; brim
G1 X85.561 Y94.946 E12.37662 ; brim
G1 X85.428 Y94.812 E12.38946 ; brim
G1 X85.428 Y92.893 E12.52022 ; brim
G1 X85.561 Y92.760 E12.53306 ; brim
G1 X85.428 Y92.627 E12.54590 ; brim
G1 X85.428 Y90.708 E12.67666 ; brim
G1 X85.561 Y90.575 E12.68950 ; brim
G1 X85.428 Y90.442 E12.70234 ; brim
G1 X85.428 Y88.523 E12.83311 ; brim
G1 X85.561 Y88.389 E12.84594 ; brim
G1 X85.428 Y88.256 E12.85878 ; brim
G1 X85.428 Y86.337 E12.98955 ; brim
G1 X85.534 Y86.231 E12.99980 ; brim
G1 X84.729 Y86.231 E13.05463 ; brim
G1 X84.569 Y86.071 E13.07005 ; brim
G1 X84.569 Y85.244 E13.12636 ; brim
G1 X84.729 Y85.084 E13.14178 ; brim
G1 X85.276 Y85.084 E13.17900 ; brim
G1 X85.169 Y84.978 E13.18923 ; brim
G1 X85.169 Y83.059 E13.32000 ; brim
G1 X85.303 Y82.926 E13.33283 ; brim
G1 X85.169 Y82.793 E13.34567 ; brim
G1 X85.169 Y80.874 E13.47644 ; brim
G1 X85.276 Y80.768 E13.48669 ; brim
G1 X84.729 Y80.768 E13.52392 ; brim
G1 X84.569 Y80.607 E13.53934 ; brim
G1 X84.569 Y79.781 E13.59565 ; brim
G1 X84.729 Y79.621 E13.61107 ; brim
G1 X93.923 Y79.621 E14.23753 ; brim
G1 X94.083 Y79.781 E14.25295 ; brim
G1 X94.083 Y81.700 E14.38372 ; brim
G1 X93.949 Y81.833 E14.39655 ; brim
G1 X94.083 Y81.967 E14.40939 ; brim
