; generated by Slic3r 0.9.9 on 2014-04-09 at 14:35:38

; layer_height = 0.2
; perimeters = 3
; top_solid_layers = 3
; bottom_solid_layers = 3
; fill_density = 0.2
; perimeter_speed = 36
; infill_speed = 60
; travel_speed = 130
; nozzle_diameter = 0.35
; filament_diameter = 1.75
; extrusion_multiplier = 1
; perimeters extrusion width = 0.52mm
; infill extrusion width = 0.52mm
; solid infill extrusion width = 0.52mm
; top infill extrusion width = 0.52mm
; support material extrusion width = 0.52mm
; first layer extrusion width = 0.60mm

G21 ; set units to millimeters
M107 ; disable fan
M190 S95 ; wait for bed temperature to be reached
M104 S225 ; set temperature
G28 ; home all axes
G1 Z5 F5000 ; lift nozzle
M109 S225 ; wait for temperature to be reached
G90 ; use absolute coordinates
G92 E0 ; reset extrusion distance
M82 ; use absolute distances for extrusion
G1 F1800.000 E-1.00000 ; retract
G92 E0 ; reset extrusion distance
G1 Z0.300 F7800.000 ; move to next layer (0)
G1 X68.970 Y62.080 ; move to first skirt point
G1 F1800.000 E1.00000 ; compensate retraction
G1 X70.490 Y60.760 F756.000 E1.13718 ; skirt
G1 X71.000 Y60.390 E1.18012 ; skirt
G1 X71.370 Y60.200 E1.20846 ; skirt
G1 X71.570 Y60.120 E1.22314 ; skirt
G1 X71.970 Y60.000 E1.25160 ; skirt
G1 X72.380 Y59.930 E1.27994 ; skirt
G1 X72.800 Y59.900 E1.30864 ; skirt
G1 X127.190 Y59.900 E5.01497 ; skirt
G1 X127.610 Y59.930 E5.04367 ; skirt
G1 X128.020 Y60.000 E5.07201 ; skirt
G1 X128.420 Y60.120 E5.10047 ; skirt
G1 X128.620 Y60.200 E5.11515 ; skirt
G1 X128.990 Y60.390 E5.14349 ; skirt
G1 X129.500 Y60.760 E5.18642 ; skirt
G1 X130.900 Y61.960 E5.31208 ; skirt
G1 X131.240 Y62.340 E5.34682 ; skirt
G1 X132.130 Y63.570 E5.45028 ; skirt
G1 X132.390 Y63.990 E5.48394 ; skirt
G1 X132.530 Y64.290 E5.50650 ; skirt
G1 X133.080 Y65.640 E5.60584 ; skirt
G1 X133.180 Y66.060 E5.63526 ; skirt
G1 X133.390 Y67.150 E5.71090 ; skirt
G1 X133.440 Y67.530 E5.73702 ; skirt
G1 X133.550 Y68.910 E5.83135 ; skirt
G1 X133.550 Y131.200 E10.07603 ; skirt
G1 X133.420 Y132.650 E10.17523 ; skirt
G1 X133.350 Y133.050 E10.20290 ; skirt
G1 X133.110 Y134.140 E10.27896 ; skirt
G1 X132.930 Y134.720 E10.32034 ; skirt
G1 X132.410 Y135.990 E10.41386 ; skirt
G1 X132.130 Y136.480 E10.45231 ; skirt
G1 X130.980 Y137.980 E10.58111 ; skirt
G1 X130.610 Y138.320 E10.61535 ; skirt
G1 X129.270 Y139.410 E10.73306 ; skirt
G1 X128.740 Y139.770 E10.77672 ; skirt
G1 X128.360 Y139.950 E10.80537 ; skirt
G1 X127.750 Y140.130 E10.84871 ; skirt
G1 X127.540 Y140.170 E10.86328 ; skirt
G1 X127.120 Y140.210 E10.89203 ; skirt
G1 X82.090 Y141.300 E13.96144 ; skirt
G1 X77.990 Y141.300 E14.24083 ; skirt
G1 X77.510 Y141.260 E14.27365 ; skirt
G1 X69.520 Y140.170 E14.82316 ; skirt
G1 X69.140 Y140.100 E14.84950 ; skirt
G1 X68.950 Y140.050 E14.86288 ; skirt
G1 X68.580 Y139.910 E14.88984 ; skirt
G1 X68.400 Y139.830 E14.90326 ; skirt
G1 X68.060 Y139.630 E14.93014 ; skirt
G1 X67.600 Y139.270 E14.96995 ; skirt
G1 X67.460 Y139.140 E14.98297 ; skirt
G1 X67.200 Y138.840 E15.01002 ; skirt
G1 X66.880 Y138.350 E15.04990 ; skirt
G1 X66.790 Y138.180 E15.06301 ; skirt
G1 X66.650 Y137.810 E15.08996 ; skirt
G1 X66.500 Y137.240 E15.13013 ; skirt
G1 X66.450 Y136.660 E15.16980 ; skirt
G1 X66.450 Y68.910 E19.78654 ; skirt
G1 X66.540 Y67.560 E19.87873 ; skirt
G1 X66.600 Y67.150 E19.90697 ; skirt
G1 X66.810 Y66.060 E19.98261 ; skirt
G1 X66.910 Y65.640 E20.01203 ; skirt
G1 X67.460 Y64.290 E20.11137 ; skirt
G1 X67.680 Y63.850 E20.14489 ; skirt
G1 X67.860 Y63.570 E20.16757 ; skirt
G1 X68.650 Y62.470 E20.25986 ; skirt
G1 X68.917 Y62.143 E20.28865 ; skirt
G1 X70.295 Y63.428 F7800.000 ; move to first brim point
G1 X71.083 Y63.428 F756.000 E20.34238 ; brim
G1 X71.083 Y62.815 E20.38413 ; brim
G1 X71.564 Y62.335 E20.43039 ; brim
G1 X127.456 Y62.335 E24.23909 ; brim
G1 X127.732 Y62.438 E24.25915 ; brim
G1 X130.240 Y64.599 E24.48476 ; brim
G1 X130.143 Y64.860 E24.50376 ; brim
G1 X131.081 Y67.124 E24.67075 ; brim
G1 X130.989 Y67.262 E24.68203 ; brim
G1 X131.171 Y69.510 E24.83574 ; brim
G1 X131.120 Y69.566 E24.84093 ; brim
G1 X131.120 Y71.077 E24.94389 ; brim
G1 X131.239 Y71.077 E24.95207 ; brim
G1 X131.720 Y71.557 E24.99833 ; brim
G1 X131.720 Y72.836 E25.08548 ; brim
G1 X131.239 Y73.316 E25.13174 ; brim
G1 X131.120 Y73.316 E25.13992 ; brim
G1 X131.120 Y76.540 E25.35964 ; brim
G1 X131.239 Y76.540 E25.36782 ; brim
G1 X131.720 Y77.021 E25.41408 ; brim
G1 X131.720 Y78.299 E25.50123 ; brim
G1 X131.239 Y78.780 E25.54749 ; brim
G1 X131.120 Y78.780 E25.55567 ; brim
G1 X131.120 Y130.552 E29.08366 ; brim
G1 X131.180 Y130.619 E29.08983 ; brim
G1 X130.963 Y132.895 E29.24559 ; brim
G1 X131.031 Y132.997 E29.25394 ; brim
G1 X130.085 Y135.280 E29.42236 ; brim
G1 X130.178 Y135.541 E29.44124 ; brim
G1 X127.557 Y137.690 E29.67222 ; brim
G1 X127.289 Y137.785 E29.69158 ; brim
G1 X83.721 Y137.785 E32.66044 ; brim
G1 X83.721 Y138.398 E32.70219 ; brim
G1 X83.241 Y138.878 E32.74845 ; brim
G1 X76.759 Y138.878 E33.19022 ; brim
G1 X76.279 Y138.398 E33.23648 ; brim
G1 X76.279 Y137.785 E33.27823 ; brim
G1 X68.761 Y137.785 E33.79053 ; brim
G1 X68.280 Y137.305 E33.83680 ; brim
G1 X68.280 Y136.026 E33.92395 ; brim
G1 X68.761 Y135.546 E33.97021 ; brim
G1 X68.880 Y135.546 E33.97838 ; brim
G1 X68.880 Y86.428 E37.32545 ; brim
G1 X68.761 Y86.428 E37.33363 ; brim
G1 X68.280 Y85.948 E37.37989 ; brim
G1 X68.280 Y84.669 E37.46704 ; brim
G1 X68.761 Y84.189 E37.51330 ; brim
G1 X68.880 Y84.189 E37.52148 ; brim
G1 X68.880 Y80.965 E37.74120 ; brim
G1 X68.761 Y80.965 E37.74937 ; brim
G1 X68.280 Y80.485 E37.79564 ; brim
G1 X68.280 Y79.206 E37.88279 ; brim
G1 X68.414 Y79.073 E37.89562 ; brim
G1 X68.327 Y78.568 E37.93054 ; brim
G1 X68.629 Y78.051 E37.97131 ; brim
G1 X68.880 Y77.962 E37.98950 ; brim
G1 X68.880 Y69.566 E38.56164 ; brim
G1 X68.829 Y69.510 E38.56684 ; brim
G1 X69.011 Y67.262 E38.72054 ; brim
G1 X68.919 Y67.124 E38.73183 ; brim
G1 X69.815 Y64.962 E38.89133 ; brim
G1 X69.815 Y63.908 E38.96311 ; brim
G1 X70.237 Y63.486 E39.00379 ; brim
G1 F1800.000 E38.00379 ; retract
G92 E0 ; reset extrusion distance
G1 X80.000 Y126.535 F7800.000 ; move to first brim point
G1 F1800.000 E1.00000 ; compensate retraction
G1 X80.323 Y126.858 F756.000 E1.03114 ; brim
G1 X80.352 Y126.858 E1.03313 ; brim
G1 X80.000 Y127.399 E1.07711 ; brim
G1 X79.648 Y126.858 E1.12108 ; brim
G1 X79.677 Y126.858 E1.12307 ; brim
G1 X79.942 Y126.593 E1.14863 ; brim
G1 F1800.000 E0.14863 ; retract
G92 E0 ; reset extrusion distance
G1 X110.176 Y126.805 F7800.000 ; move to first brim point
G1 F1800.000 E1.00000 ; compensate retraction
G1 X110.313 Y125.766 F756.000 E1.07141 ; brim
G1 X111.187 Y125.766 E1.13096 ; brim
G1 X111.324 Y126.805 E1.20238 ; brim
G1 X110.258 Y126.805 E1.27496 ; brim
G1 F1800.000 E0.27496 ; retract
G92 E0 ; reset extrusion distance
G1 X100.097 Y85.282 F7800.000 ; move to first brim point
G1 F1800.000 E1.00000 ; compensate retraction
G1 X93.834 Y85.282 F756.000 E1.42683 ; brim
G1 X93.695 Y84.896 E1.45477 ; brim
G1 X91.092 Y83.167 E1.66775 ; brim
G1 X90.961 Y83.127 E1.67707 ; brim
G1 X89.419 Y81.083 E1.85153 ; brim
G1 X89.293 Y81.021 E1.86110 ; brim
G1 X88.500 Y79.010 E2.00839 ; brim
G1 X88.471 Y78.990 E2.01078 ; brim
G1 X88.146 Y77.106 E2.14110 ; brim
G1 X88.212 Y75.175 E2.27273 ; brim
G1 X88.242 Y75.151 E2.27535 ; brim
G1 X88.733 Y73.140 E2.41643 ; brim
G1 X88.831 Y73.080 E2.42426 ; brim
G1 X89.898 Y71.058 E2.58009 ; brim
G1 X90.015 Y71.010 E2.58873 ; brim
G1 X92.136 Y68.945 E2.79044 ; brim
G1 X92.266 Y68.945 E2.79925 ; brim
G1 X92.418 Y68.916 E2.80981 ; brim
G1 X96.269 Y67.391 E3.09210 ; brim
G1 X96.554 Y66.874 E3.13231 ; brim
G1 X96.532 Y66.760 E3.14024 ; brim
G1 X97.425 Y66.760 E3.20111 ; brim
G1 X97.402 Y66.881 E3.20950 ; brim
G1 X97.689 Y67.398 E3.24980 ; brim
G1 X101.590 Y68.917 E3.53503 ; brim
G1 X101.740 Y68.945 E3.54543 ; brim
G1 X101.915 Y68.945 E3.55737 ; brim
G1 X103.955 Y70.985 E3.75393 ; brim
G1 X105.096 Y72.827 E3.90161 ; brim
G1 X105.082 Y72.846 E3.90322 ; brim
G1 X105.738 Y74.854 E4.04714 ; brim
G1 X105.702 Y74.894 E4.05081 ; brim
G1 X105.901 Y76.899 E4.18814 ; brim
G1 X105.854 Y76.940 E4.19235 ; brim
G1 X105.558 Y78.971 E4.33226 ; brim
G1 X105.515 Y79.000 E4.33579 ; brim
G1 X104.649 Y81.066 E4.48844 ; brim
G1 X102.985 Y83.124 E4.66882 ; brim
G1 X102.845 Y83.166 E4.67875 ; brim
G1 X100.237 Y84.895 E4.89197 ; brim
G1 X100.125 Y85.205 E4.91442 ; brim
G1 F1800.000 E3.91442 ; retract
G92 E0 ; reset extrusion distance
G1 X124.237 Y77.633 F7800.000 ; move to first brim point
G1 F1800.000 E1.00000 ; compensate retraction
G1 X123.831 Y76.245 F756.000 E1.09853 ; brim
G1 X125.000 Y75.243 E1.20344 ; brim
G1 X126.169 Y76.245 E1.30836 ; brim
G1 X125.763 Y77.633 E1.40688 ; brim
G1 X124.319 Y77.633 E1.50529 ; brim
G1 F1800.000 E0.50529 ; retract
G92 E0 ; reset extrusion distance
G1 X76.067 Y76.594 F7800.000 ; move to first brim point
G1 F1800.000 E1.00000 ; compensate retraction
G1 X75.763 Y77.633 F756.000 E1.07377 ; brim
G1 X74.715 Y77.633 E1.14516 ; brim
G1 X74.594 Y76.926 E1.19406 ; brim
G1 X74.136 Y76.540 E1.23484 ; brim
G1 X73.914 Y76.540 E1.24997 ; brim
G1 X74.153 Y75.501 E1.32262 ; brim
G1 X75.270 Y75.501 E1.39876 ; brim
G1 X75.270 Y76.114 E1.44050 ; brim
G1 X75.750 Y76.594 E1.48677 ; brim
G1 X75.985 Y76.594 E1.50275 ; brim
G1 F1800.000 E0.50275 ; retract
G92 E0 ; reset extrusion distance
G1 X69.750 Y78.233 F7800.000 ; move to first brim point
G1 F1800.000 E1.00000 ; compensate retraction
G1 X69.587 Y78.233 F756.000 E1.01113 ; brim
G1 X69.427 Y78.073 E1.02655 ; brim
G1 X69.427 Y76.154 E1.15732 ; brim
G1 X69.560 Y76.021 E1.17015 ; brim
G1 X69.427 Y75.888 E1.18299 ; brim
G1 X69.427 Y73.969 E1.31376 ; brim
G1 X69.560 Y73.836 E1.32659 ; brim
G1 X69.427 Y73.702 E1.33943 ; brim
G1 X69.427 Y71.783 E1.47020 ; brim
G1 X69.560 Y71.650 E1.48303 ; brim
G1 X69.427 Y71.517 E1.49587 ; brim
G1 X69.427 Y69.598 E1.62664 ; brim
G1 X69.545 Y69.480 E1.63798 ; brim
G1 X69.393 Y69.316 E1.65324 ; brim
G1 X69.548 Y67.397 E1.78440 ; brim
G1 X69.679 Y67.277 E1.79647 ; brim
G1 X69.536 Y67.063 E1.81399 ; brim
G1 X70.325 Y65.159 E1.95444 ; brim
G1 X70.468 Y65.067 E1.96604 ; brim
G1 X70.361 Y64.961 E1.97629 ; brim
G1 X70.361 Y64.134 E2.03260 ; brim
G1 X70.521 Y63.974 E2.04802 ; brim
G1 X71.736 Y63.974 E2.13080 ; brim
G1 X71.630 Y63.868 E2.14105 ; brim
G1 X71.630 Y63.042 E2.19736 ; brim
G1 X71.790 Y62.882 E2.21278 ; brim
G1 X127.357 Y62.882 E5.99937 ; brim
G1 X127.450 Y62.916 E6.00606 ; brim
G1 X129.596 Y64.765 E6.19908 ; brim
G1 X129.483 Y65.067 E6.22107 ; brim
G1 X129.538 Y65.067 E6.22478 ; brim
G1 X129.675 Y65.159 E6.23607 ; brim
G1 X130.464 Y67.063 E6.37652 ; brim
G1 X130.321 Y67.277 E6.39404 ; brim
G1 X130.452 Y67.397 E6.40611 ; brim
G1 X130.607 Y69.316 E6.53726 ; brim
G1 X130.455 Y69.480 E6.55253 ; brim
G1 X130.573 Y69.598 E6.56387 ; brim
G1 X130.573 Y71.517 E6.69464 ; brim
G1 X130.467 Y71.623 E6.70489 ; brim
G1 X131.013 Y71.623 E6.74212 ; brim
G1 X131.173 Y71.783 E6.75754 ; brim
G1 X131.173 Y72.610 E6.81385 ; brim
G1 X131.013 Y72.770 E6.82927 ; brim
G1 X130.467 Y72.770 E6.86650 ; brim
G1 X130.573 Y72.876 E6.87675 ; brim
G1 X130.573 Y74.795 E7.00752 ; brim
G1 X130.440 Y74.928 E7.02035 ; brim
G1 X130.573 Y75.061 E7.03319 ; brim
G1 X130.573 Y76.980 E7.16396 ; brim
G1 X130.467 Y77.087 E7.17421 ; brim
G1 X131.013 Y77.087 E7.21144 ; brim
G1 X131.173 Y77.247 E7.22686 ; brim
G1 X131.173 Y78.073 E7.28317 ; brim
G1 X131.013 Y78.233 E7.29859 ; brim
G1 X130.467 Y78.233 E7.33582 ; brim
G1 X130.573 Y78.340 E7.34607 ; brim
G1 X130.573 Y80.259 E7.47684 ; brim
G1 X130.440 Y80.392 E7.48967 ; brim
G1 X130.573 Y80.525 E7.50251 ; brim
G1 X130.573 Y82.444 E7.63328 ; brim
G1 X130.440 Y82.577 E7.64612 ; brim
G1 X130.573 Y82.710 E7.65895 ; brim
G1 X130.573 Y84.629 E7.78972 ; brim
G1 X130.440 Y84.763 E7.80256 ; brim
G1 X130.573 Y84.896 E7.81539 ; brim
G1 X130.573 Y86.815 E7.94616 ; brim
G1 X130.440 Y86.948 E7.95900 ; brim
G1 X130.573 Y87.081 E7.97183 ; brim
G1 X130.573 Y89.000 E8.10260 ; brim
G1 X130.440 Y89.133 E8.11544 ; brim
G1 X130.573 Y89.267 E8.12827 ; brim
G1 X130.573 Y91.186 E8.25904 ; brim
G1 X130.440 Y91.319 E8.27188 ; brim
G1 X130.573 Y91.452 E8.28471 ; brim
G1 X130.573 Y93.371 E8.41548 ; brim
G1 X130.440 Y93.504 E8.42832 ; brim
G1 X130.573 Y93.637 E8.44115 ; brim
G1 X130.573 Y95.556 E8.57192 ; brim
G1 X130.440 Y95.690 E8.58476 ; brim
G1 X130.573 Y95.823 E8.59759 ; brim
G1 X130.573 Y97.742 E8.72836 ; brim
G1 X130.440 Y97.875 E8.74120 ; brim
G1 X130.573 Y98.008 E8.75403 ; brim
G1 X130.573 Y99.927 E8.88480 ; brim
G1 X130.440 Y100.060 E8.89764 ; brim
G1 X130.573 Y100.194 E8.91047 ; brim
G1 X130.573 Y102.113 E9.04124 ; brim
G1 X130.440 Y102.246 E9.05408 ; brim
G1 X130.573 Y102.379 E9.06692 ; brim
G1 X130.573 Y104.298 E9.19768 ; brim
G1 X130.440 Y104.431 E9.21052 ; brim
G1 X130.573 Y104.564 E9.22336 ; brim
G1 X130.573 Y106.483 E9.35412 ; brim
G1 X130.440 Y106.617 E9.36696 ; brim
G1 X130.573 Y106.750 E9.37980 ; brim
G1 X130.573 Y108.669 E9.51056 ; brim
G1 X130.440 Y108.802 E9.52340 ; brim
G1 X130.573 Y108.935 E9.53624 ; brim
G1 X130.573 Y110.854 E9.66700 ; brim
G1 X130.440 Y110.987 E9.67984 ; brim
G1 X130.573 Y111.121 E9.69268 ; brim
G1 X130.573 Y113.040 E9.82344 ; brim
G1 X130.440 Y113.173 E9.83628 ; brim
G1 X130.573 Y113.306 E9.84912 ; brim
G1 X130.573 Y115.225 E9.97989 ; brim
G1 X130.440 Y115.358 E9.99272 ; brim
G1 X130.573 Y115.491 E10.00556 ; brim
G1 X130.573 Y117.410 E10.13633 ; brim
G1 X130.440 Y117.543 E10.14916 ; brim
G1 X130.573 Y117.677 E10.16200 ; brim
G1 X130.573 Y119.596 E10.29277 ; brim
G1 X130.440 Y119.729 E10.30560 ; brim
G1 X130.573 Y119.862 E10.31844 ; brim
G1 X130.573 Y121.781 E10.44921 ; brim
G1 X130.440 Y121.914 E10.46204 ; brim
G1 X130.573 Y122.047 E10.47488 ; brim
G1 X130.573 Y123.966 E10.60565 ; brim
G1 X130.440 Y124.100 E10.61848 ; brim
G1 X130.573 Y124.233 E10.63132 ; brim
G1 X130.573 Y126.152 E10.76209 ; brim
G1 X130.440 Y126.285 E10.77492 ; brim
G1 X130.573 Y126.418 E10.78776 ; brim
G1 X130.573 Y128.337 E10.91853 ; brim
G1 X130.440 Y128.470 E10.93136 ; brim
G1 X130.573 Y128.604 E10.94420 ; brim
G1 X130.573 Y130.523 E11.07497 ; brim
G1 X130.458 Y130.637 E11.08602 ; brim
G1 X130.614 Y130.808 E11.10173 ; brim
G1 X130.430 Y132.726 E11.23303 ; brim
G1 X130.283 Y132.860 E11.24661 ; brim
G1 X130.414 Y133.057 E11.26277 ; brim
G1 X129.626 Y134.961 E11.40322 ; brim
G1 X129.488 Y135.054 E11.41451 ; brim
G1 X129.424 Y135.054 E11.41887 ; brim
G1 X129.534 Y135.362 E11.44122 ; brim
G1 X127.284 Y137.207 E11.63951 ; brim
G1 X127.194 Y137.239 E11.64597 ; brim
G1 X83.069 Y137.239 E14.65285 ; brim
G1 X83.175 Y137.345 E14.66311 ; brim
G1 X83.175 Y138.172 E14.71941 ; brim
G1 X83.015 Y138.332 E14.73483 ; brim
G1 X76.985 Y138.332 E15.14575 ; brim
G1 X76.825 Y138.172 E15.16118 ; brim
G1 X76.825 Y137.345 E15.21748 ; brim
G1 X76.931 Y137.239 E15.22773 ; brim
G1 X68.987 Y137.239 E15.76910 ; brim
G1 X68.827 Y137.079 E15.78452 ; brim
G1 X68.827 Y136.253 E15.84082 ; brim
G1 X68.987 Y136.093 E15.85625 ; brim
G1 X69.533 Y136.093 E15.89348 ; brim
G1 X69.427 Y135.986 E15.90373 ; brim
G1 X69.427 Y134.067 E16.03449 ; brim
G1 X69.560 Y133.934 E16.04733 ; brim
G1 X69.427 Y133.801 E16.06017 ; brim
G1 X69.427 Y131.882 E16.19094 ; brim
G1 X69.560 Y131.749 E16.20377 ; brim
G1 X69.427 Y131.615 E16.21661 ; brim
G1 X69.427 Y129.696 E16.34738 ; brim
G1 X69.560 Y129.563 E16.36021 ; brim
G1 X69.427 Y129.430 E16.37305 ; brim
G1 X69.427 Y127.511 E16.50382 ; brim
G1 X69.560 Y127.378 E16.51665 ; brim
G1 X69.427 Y127.245 E16.52949 ; brim
G1 X69.427 Y125.326 E16.66026 ; brim
G1 X69.560 Y125.192 E16.67309 ; brim
G1 X69.427 Y125.059 E16.68593 ; brim
G1 X69.427 Y123.140 E16.81670 ; brim
G1 X69.560 Y123.007 E16.82953 ; brim
G1 X69.427 Y122.874 E16.84237 ; brim
G1 X69.427 Y120.955 E16.97314 ; brim
G1 X69.560 Y120.822 E16.98597 ; brim
G1 X69.427 Y120.688 E16.99881 ; brim
G1 X69.427 Y118.769 E17.12958 ; brim
G1 X69.560 Y118.636 E17.14241 ; brim
G1 X69.427 Y118.503 E17.15525 ; brim
G1 X69.427 Y116.584 E17.28602 ; brim
G1 X69.560 Y116.451 E17.29885 ; brim
G1 X69.427 Y116.318 E17.31169 ; brim
G1 X69.427 Y114.399 E17.44246 ; brim
G1 X69.560 Y114.265 E17.45529 ; brim
